; generated by PrusaSlicer 2.3.0+win64 on 2021-06-17 at 16:00:53 UTC

; 

; external perimeters extrusion width = 0.45mm
; perimeters extrusion width = 0.45mm
; infill extrusion width = 0.45mm
; solid infill extrusion width = 0.45mm
; top infill extrusion width = 0.40mm
; first layer extrusion width = 0.42mm

M73 P0 R39
M73 Q0 S39
M201 X1000 Y1000 Z200 E5000 ; sets maximum accelerations, mm/sec^2
M203 X200 Y200 Z12 E120 ; sets maximum feedrates, mm/sec
M204 P1250 R1250 T1250 ; sets acceleration (P, T) and retract acceleration (R), mm/sec^2
M205 X8.00 Y8.00 Z0.40 E4.50 ; sets the jerk limits, mm/sec
M205 S0 T0 ; sets the minimum extruding and travel feed rate, mm/sec
M107
;TYPE:Custom
M862.3 P "MK3" ; printer model check
M862.1 P0.4 ; nozzle diameter check
M115 U3.9.2 ; tell printer latest fw version
G90 ; use absolute coordinates
M83 ; extruder relative mode
M104 S215 ; set extruder temp
M140 S60 ; set bed temp
M190 S60 ; wait for bed temp
M109 S215 ; wait for extruder temp
G28 W ; home all without mesh bed level
G80 ; mesh bed leveling
G1 Y-3.0 F1000.0 ; go outside print area
G92 E0.0
G1 X60.0 E9.0 F1000.0 ; intro line
G1 X100.0 E12.5 F1000.0 ; intro line
G92 E0.0
M221 S95

; Don't change E values below. Excessive value can damage the printer.
M907 E430 ; set extruder motor current
G21 ; set units to millimeters
G90 ; use absolute coordinates
M83 ; use relative distances for extrusion
M900 K0.05 ; Filament gcode LA 1.5
M900 K30 ; Filament gcode LA 1.0
;LAYER_CHANGE
;Z:0.2
;HEIGHT:0.2
;BEFORE_LAYER_CHANGE
G92 E0.0
;0.2


G1 E-0.80000 F2100.000
G1 Z0.400 F10800.000
;AFTER_LAYER_CHANGE
;0.2
G1 X100.008 Y84.488
G1 Z0.200
G1 E0.80000 F2100.000
M204 S1000
;TYPE:Skirt
;WIDTH:0.42
G1 F1200.000
G1 X102.139 Y82.138 E0.09948
G1 X104.490 Y80.007 E0.09948
G1 X107.039 Y78.117 E0.09948
G1 X109.760 Y76.486 E0.09950
G1 X112.628 Y75.129 E0.09948
G1 X115.617 Y74.060 E0.09950
G1 X118.694 Y73.290 E0.09946
G1 X121.829 Y72.825 E0.09937
G1 X125.005 Y72.668 E0.09969
G1 X128.167 Y72.825 E0.09928
G1 X131.309 Y73.290 E0.09958
G1 X134.386 Y74.061 E0.09947
G1 X137.374 Y75.130 E0.09948
G1 X140.243 Y76.487 E0.09951
G1 X142.961 Y78.117 E0.09939
G1 X145.512 Y80.009 E0.09958
G1 X147.863 Y82.140 E0.09948
G1 X149.993 Y84.491 E0.09948
G1 X151.883 Y87.039 E0.09948
G1 X153.515 Y89.760 E0.09946
G1 X154.870 Y92.626 E0.09942
G1 X155.940 Y95.616 E0.09958
G1 X156.711 Y98.694 E0.09948
G1 X157.176 Y101.833 E0.09949
G1 X157.332 Y105.001 E0.09945
G1 X157.175 Y108.172 E0.09952
G1 X156.710 Y111.309 E0.09946
G1 X155.939 Y114.387 E0.09947
G1 X154.869 Y117.375 E0.09952
G1 X153.514 Y120.242 E0.09943
G1 X151.882 Y122.965 E0.09953
G1 X149.992 Y125.513 E0.09947
G1 X147.861 Y127.863 E0.09948
G1 X145.510 Y129.994 E0.09948
G1 X142.961 Y131.884 E0.09948
G1 X140.240 Y133.515 E0.09947
G1 X137.371 Y134.871 E0.09951
G1 X134.384 Y135.940 E0.09948
G1 X131.306 Y136.711 E0.09948
G1 X128.167 Y137.176 E0.09949
G1 X124.998 Y137.332 E0.09948
G1 X121.830 Y137.176 E0.09947
G1 X118.691 Y136.711 E0.09949
G1 X115.614 Y135.940 E0.09947
G1 X112.626 Y134.870 E0.09951
G1 X109.758 Y133.513 E0.09947
G1 X107.037 Y131.882 E0.09947
G1 X104.488 Y129.992 E0.09949
G1 X102.137 Y127.861 E0.09948
G1 X100.007 Y125.510 E0.09948
G1 X98.117 Y122.962 E0.09948
G1 X96.485 Y120.240 E0.09950
G1 X95.131 Y117.375 E0.09937
G1 X94.060 Y114.385 E0.09959
G1 X93.290 Y111.311 E0.09936
G1 X92.824 Y108.168 E0.09961
G1 X92.668 Y105.000 E0.09945
G1 X92.825 Y101.830 E0.09952
G1 X93.290 Y98.692 E0.09946
G1 X94.061 Y95.614 E0.09947
G1 X95.129 Y92.630 E0.09940
G1 X96.486 Y89.758 E0.09957
G1 X98.117 Y87.039 E0.09941
G1 X99.973 Y84.537 E0.09769
; printing object FED3_April2021_disk.stl id:0 copy 0
;WIPE_START
G1 F8640.000
G1 X102.139 Y82.138 E-0.74638
G1 X102.183 Y82.098 E-0.01362
;WIPE_END
G1 E-0.04000 F2100.000
G1 Z0.600 F10800.000
G1 X123.326 Y129.234
G1 Z0.200
G1 E0.80000 F2100.000
;TYPE:External perimeter
G1 F1200.000
G1 X123.806 Y129.045 E0.01615
G1 X124.064 Y128.984 E0.00833
G1 X124.356 Y128.949 E0.00921
G1 X124.843 Y128.959 E0.01527
G1 X125.351 Y129.069 E0.01631
G1 X125.828 Y129.277 E0.01632
G1 X126.255 Y129.573 E0.01629
G1 X126.617 Y129.948 E0.01634
G1 X126.899 Y130.385 E0.01630
G1 X127.088 Y130.865 E0.01616
G1 X127.149 Y131.128 E0.00849
G1 X127.190 Y131.642 E0.01615
G1 X127.131 Y132.153 E0.01614
G1 X127.060 Y132.415 E0.00850
G1 X126.855 Y132.888 E0.01617
G1 X126.556 Y133.311 E0.01624
G1 X126.365 Y133.502 E0.00847
G1 X126.153 Y133.667 E0.00841
G1 X125.919 Y133.796 E0.00839
G1 X125.675 Y133.892 E0.00822
G1 X125.424 Y133.955 E0.00810
G1 X124.730 Y134.049 E0.02197
G1 X124.258 Y134.040 E0.01481
G1 X123.567 Y133.923 E0.02197
G1 X123.319 Y133.852 E0.00810
G1 X123.078 Y133.746 E0.00824
G1 X122.848 Y133.609 E0.00839
G1 X122.644 Y133.437 E0.00837
G1 X122.462 Y133.245 E0.00827
G1 X122.304 Y133.028 E0.00844
G1 X122.066 Y132.568 E0.01621
G1 X121.924 Y132.067 E0.01633
G1 X121.883 Y131.550 E0.01628
G1 X121.942 Y131.032 E0.01634
G1 X122.100 Y130.543 E0.01612
G1 X122.221 Y130.299 E0.00853
G1 X122.515 Y129.876 E0.01615
G1 X122.889 Y129.515 E0.01629
G1 X123.276 Y129.266 E0.01443
G1 X123.346 Y128.834 F10800.000
;WIPE_START
G1 F8640.000
G1 X123.806 Y129.045 E-0.13258
G1 X124.064 Y128.984 E-0.06132
G1 X124.356 Y128.949 E-0.06785
G1 X124.843 Y128.959 E-0.11246
G1 X125.351 Y129.069 E-0.12010
G1 X125.828 Y129.277 E-0.12017
G1 X126.255 Y129.573 E-0.11998
G1 X126.332 Y129.653 E-0.02554
;WIPE_END
G1 E-0.04000 F2100.000
G1 Z0.600 F10800.000
G1 X140.824 Y124.087
G1 Z0.200
G1 E0.80000 F2100.000
G1 F1200.000
G1 X140.884 Y123.570 E0.01632
G1 X141.044 Y123.075 E0.01631
G1 X141.297 Y122.621 E0.01629
G1 X141.634 Y122.225 E0.01633
G1 X142.042 Y121.902 E0.01632
G1 X142.505 Y121.664 E0.01631
G1 X143.002 Y121.523 E0.01620
G1 X143.297 Y121.488 E0.00931
G1 X143.784 Y121.497 E0.01528
G1 X144.293 Y121.608 E0.01634
G1 X144.765 Y121.813 E0.01612
G1 X144.991 Y121.953 E0.00835
G1 X145.197 Y122.113 E0.00816
G1 X145.387 Y122.290 E0.00816
G1 X145.558 Y122.487 E0.00815
G1 X145.710 Y122.698 E0.00818
G1 X145.842 Y122.929 E0.00833
G1 X146.032 Y123.409 E0.01617
G1 X146.120 Y123.919 E0.01623
G1 X146.119 Y124.190 E0.00849
G1 X146.085 Y124.455 E0.00839
G1 X146.011 Y124.711 E0.00835
G1 X145.906 Y124.956 E0.00835
G1 X145.641 Y125.370 E0.01542
G1 X145.188 Y125.904 E0.02197
G1 X144.638 Y126.339 E0.02197
G1 X144.215 Y126.589 E0.01540
G1 X143.967 Y126.686 E0.00836
G1 X143.708 Y126.750 E0.00837
G1 X143.442 Y126.774 E0.00837
G1 X143.177 Y126.766 E0.00832
G1 X142.911 Y126.725 E0.00842
G1 X142.421 Y126.568 E0.01616
G1 X141.965 Y126.314 E0.01636
G1 X141.568 Y125.978 E0.01630
G1 X141.246 Y125.570 E0.01630
G1 X141.011 Y125.111 E0.01615
G1 X140.925 Y124.860 E0.00835
G1 X140.866 Y124.600 E0.00835
G1 X140.829 Y124.147 E0.01425
G1 X140.484 Y123.876 F10800.000
;WIPE_START
G1 F8640.000
G1 X140.884 Y123.570 E-0.13379
G1 X141.044 Y123.075 E-0.12014
G1 X141.297 Y122.621 E-0.11994
G1 X141.634 Y122.225 E-0.12029
G1 X142.042 Y121.902 E-0.12016
G1 X142.505 Y121.664 E-0.12015
G1 X142.612 Y121.634 E-0.02554
;WIPE_END
G1 E-0.04000 F2100.000
G1 Z0.600 F10800.000
G1 X150.083 Y107.645
G1 Z0.200
G1 E0.80000 F2100.000
G1 F1200.000
G1 X149.686 Y107.308 E0.01633
G1 X149.363 Y106.900 E0.01631
G1 X149.126 Y106.437 E0.01631
G1 X148.983 Y105.937 E0.01632
G1 X148.942 Y105.418 E0.01631
G1 X149.002 Y104.901 E0.01631
G1 X149.162 Y104.406 E0.01633
G1 X149.415 Y103.951 E0.01632
G1 X149.751 Y103.555 E0.01628
G1 X150.160 Y103.231 E0.01635
G1 X150.623 Y102.995 E0.01630
G1 X151.123 Y102.853 E0.01628
G1 X151.609 Y102.812 E0.01531
G1 X151.900 Y102.829 E0.00916
G1 X152.164 Y102.872 E0.00838
G1 X152.649 Y103.029 E0.01598
G1 X152.887 Y103.146 E0.00833
G1 X153.108 Y103.286 E0.00820
G1 X153.316 Y103.449 E0.00828
G1 X153.502 Y103.638 E0.00830
G1 X153.666 Y103.847 E0.00835
G1 X153.795 Y104.082 E0.00839
G1 X153.893 Y104.329 E0.00833
G1 X153.999 Y104.809 E0.01541
G1 X154.056 Y105.507 E0.02198
G1 X153.974 Y106.203 E0.02196
G1 X153.852 Y106.680 E0.01543
G1 X153.746 Y106.922 E0.00831
G1 X153.608 Y107.152 E0.00840
G1 X153.437 Y107.357 E0.00835
G1 X153.244 Y107.538 E0.00832
G1 X153.027 Y107.697 E0.00842
G1 X152.569 Y107.934 E0.01618
G1 X152.069 Y108.076 E0.01631
G1 X151.549 Y108.119 E0.01636
G1 X151.033 Y108.058 E0.01628
G1 X150.537 Y107.899 E0.01634
G1 X150.135 Y107.675 E0.01442
G1 X149.721 Y107.816 F10800.000
;WIPE_START
G1 F8640.000
G1 X149.686 Y107.308 E-0.13384
G1 X149.363 Y106.900 E-0.12014
G1 X149.126 Y106.437 E-0.12008
G1 X148.983 Y105.937 E-0.12018
G1 X148.942 Y105.418 E-0.12014
G1 X149.002 Y104.901 E-0.12010
G1 X149.036 Y104.796 E-0.02552
;WIPE_END
G1 E-0.04000 F2100.000
G1 Z0.600 F10800.000
G1 X145.570 Y88.755
G1 Z0.200
G1 E0.80000 F2100.000
G1 F1200.000
G1 X145.112 Y88.990 E0.01615
G1 X144.860 Y89.075 E0.00834
G1 X144.601 Y89.135 E0.00835
G1 X144.088 Y89.177 E0.01613
G1 X143.571 Y89.116 E0.01632
G1 X143.076 Y88.956 E0.01631
G1 X142.622 Y88.704 E0.01629
G1 X142.225 Y88.366 E0.01633
G1 X141.902 Y87.958 E0.01632
G1 X141.664 Y87.495 E0.01631
G1 X141.522 Y86.994 E0.01632
G1 X141.481 Y86.477 E0.01628
G1 X141.540 Y85.959 E0.01632
G1 X141.700 Y85.464 E0.01631
G1 X141.953 Y85.009 E0.01633
G1 X142.291 Y84.612 E0.01634
G1 X142.699 Y84.290 E0.01631
G1 X143.156 Y84.055 E0.01612
G1 X143.410 Y83.970 E0.00839
G1 X143.664 Y83.913 E0.00817
G1 X143.925 Y83.881 E0.00824
G1 X144.190 Y83.882 E0.00833
G1 X144.456 Y83.916 E0.00839
G1 X144.712 Y83.990 E0.00835
G1 X144.953 Y84.093 E0.00824
G1 X145.173 Y84.225 E0.00803
G1 X145.555 Y84.501 E0.01478
G1 X145.906 Y84.815 E0.01478
G1 X146.339 Y85.363 E0.02188
G1 X146.589 Y85.785 E0.01540
G1 X146.686 Y86.034 E0.00836
G1 X146.751 Y86.293 E0.00837
G1 X146.775 Y86.559 E0.00838
G1 X146.767 Y86.824 E0.00832
G1 X146.725 Y87.089 E0.00842
G1 X146.568 Y87.580 E0.01616
G1 X146.315 Y88.036 E0.01636
G1 X145.978 Y88.432 E0.01631
G1 X145.617 Y88.718 E0.01442
G1 X145.589 Y89.155 F10800.000
;WIPE_START
G1 F8640.000
G1 X145.112 Y88.990 E-0.13251
G1 X144.860 Y89.075 E-0.06141
G1 X144.601 Y89.135 E-0.06146
G1 X144.088 Y89.177 E-0.11881
G1 X143.571 Y89.116 E-0.12018
G1 X143.076 Y88.956 E-0.12013
G1 X142.622 Y88.704 E-0.11994
G1 X142.538 Y88.632 E-0.02555
;WIPE_END
G1 E-0.04000 F2100.000
G1 Z0.600 F10800.000
M73 Q1 S39
G1 X127.899 Y79.464
G1 Z0.200
G1 E0.80000 F2100.000
G1 F1200.000
G1 X127.646 Y79.918 E0.01630
G1 X127.309 Y80.314 E0.01633
M73 P1 R39
G1 X126.901 Y80.637 E0.01631
G1 X126.438 Y80.874 E0.01631
G1 X125.937 Y81.017 E0.01632
G1 X125.419 Y81.059 E0.01631
G1 X124.902 Y80.998 E0.01631
G1 X124.406 Y80.839 E0.01633
G1 X123.952 Y80.585 E0.01632
G1 X123.555 Y80.250 E0.01628
G1 X123.232 Y79.841 E0.01634
G1 X122.995 Y79.377 E0.01633
G1 X122.853 Y78.878 E0.01628
G1 X122.811 Y78.358 E0.01634
G1 X122.871 Y77.841 E0.01632
G1 X123.029 Y77.352 E0.01613
G1 X123.147 Y77.113 E0.00833
G1 X123.287 Y76.892 E0.00820
G1 X123.449 Y76.684 E0.00828
G1 X123.638 Y76.498 E0.00830
G1 X123.848 Y76.335 E0.00835
G1 X124.082 Y76.205 E0.00839
G1 X124.329 Y76.107 E0.00833
G1 X124.809 Y76.002 E0.01541
G1 X125.487 Y75.945 E0.02134
G1 X125.974 Y75.987 E0.01532
G1 X126.437 Y76.078 E0.01478
G1 X126.683 Y76.150 E0.00805
G1 X126.923 Y76.255 E0.00820
G1 X127.153 Y76.392 E0.00840
G1 X127.357 Y76.563 E0.00835
G1 X127.539 Y76.756 E0.00832
G1 X127.697 Y76.973 E0.00842
G1 X127.935 Y77.431 E0.01618
G1 X128.077 Y77.932 E0.01631
G1 X128.119 Y78.452 E0.01636
G1 X128.059 Y78.968 E0.01628
G1 X127.917 Y79.407 E0.01446
G1 X128.137 Y79.785 F10800.000
;WIPE_START
G1 F8640.000
G1 X127.646 Y79.918 E-0.13364
G1 X127.309 Y80.314 E-0.12023
G1 X126.901 Y80.637 E-0.12014
G1 X126.438 Y80.874 E-0.12009
G1 X125.937 Y81.017 E-0.12017
G1 X125.419 Y81.059 E-0.12015
G1 X125.308 Y81.046 E-0.02559
;WIPE_END
G1 E-0.04000 F2100.000
G1 Z0.600 F10800.000
G1 X124.904 Y98.538
G1 Z0.200
G1 E0.80000 F2100.000
;TYPE:Perimeter
G1 F1200.000
G1 X125.831 Y98.791 E0.03013
G1 X126.584 Y99.397 E0.03031
G1 X127.111 Y100.237 E0.03110
G1 X127.407 Y101.219 E0.03215
G1 X127.452 Y101.932 E0.02240
G1 X127.765 Y102.379 E0.01710
G1 X128.001 Y102.884 E0.01749
G1 X128.084 Y103.195 E0.01009
G1 X128.264 Y103.404 E0.00864
G1 X128.515 Y103.924 E0.01810
G1 X128.654 Y104.491 E0.01830
G1 X128.690 Y104.900 E0.01289
G1 X128.679 Y105.309 E0.01282
G1 X128.583 Y105.892 E0.01853
G1 X128.382 Y106.434 E0.01810
G1 X128.177 Y106.775 E0.01249
G1 X127.925 Y107.057 E0.01187
G1 X127.735 Y107.205 E0.00756
G1 X127.372 Y107.385 E0.01267
G1 X126.994 Y107.441 E0.01198
G1 X122.722 Y107.311 E0.13403
G1 X122.315 Y107.157 E0.01362
G1 X121.989 Y106.906 E0.01289
G1 X121.733 Y106.590 E0.01277
G1 X121.488 Y106.084 E0.01760
G1 X121.381 Y105.694 E0.01269
G1 X121.323 Y105.300 E0.01250
G1 X121.310 Y104.899 E0.01258
G1 X121.342 Y104.499 E0.01258
G1 X121.420 Y104.109 E0.01247
G1 X121.546 Y103.726 E0.01264
G1 X121.815 Y103.234 E0.01760
G1 X121.945 Y103.090 E0.00608
G1 X121.999 Y102.884 E0.00666
G1 X122.051 Y102.773 E0.00385
G1 X122.005 Y102.036 E0.02316
G1 X122.169 Y100.998 E0.03295
G1 X122.556 Y100.045 E0.03223
G1 X123.157 Y99.256 E0.03113
G1 X123.959 Y98.715 E0.03034
G1 X124.845 Y98.549 E0.02826
G1 X124.888 Y98.925 F10800.000
;TYPE:External perimeter
G1 F1200.000
G1 X125.656 Y99.134 E0.02495
G1 X126.299 Y99.651 E0.02586
G1 X126.765 Y100.395 E0.02752
G1 X127.034 Y101.286 E0.02920
G1 X127.084 Y102.095 E0.02541
G1 X127.155 Y102.166 E0.00315
G1 X127.437 Y102.568 E0.01539
G1 X127.645 Y103.014 E0.01541
G1 X127.742 Y103.376 E0.01177
G1 X127.946 Y103.613 E0.00980
G1 X128.158 Y104.052 E0.01530
G1 X128.281 Y104.553 E0.01615
G1 X128.312 Y104.912 E0.01132
G1 X128.303 Y105.273 E0.01133
G1 X128.217 Y105.795 E0.01658
G1 X128.041 Y106.270 E0.01586
G1 X127.872 Y106.550 E0.01026
G1 X127.666 Y106.780 E0.00969
G1 X127.533 Y106.884 E0.00531
G1 X127.258 Y107.021 E0.00961
G1 X126.972 Y107.063 E0.00906
G1 X122.796 Y106.936 E0.13099
G1 X122.501 Y106.824 E0.00990
G1 X122.254 Y106.634 E0.00976
G1 X122.053 Y106.386 E0.01001
G1 X121.843 Y105.951 E0.01516
G1 X121.750 Y105.617 E0.01088
G1 X121.699 Y105.267 E0.01109
G1 X121.688 Y104.908 E0.01124
G1 X121.716 Y104.551 E0.01123
G1 X121.785 Y104.205 E0.01106
G1 X121.893 Y103.877 E0.01084
G1 X122.125 Y103.453 E0.01514
G1 X122.285 Y103.274 E0.00754
G1 X122.355 Y103.014 E0.00847
G1 X122.434 Y102.845 E0.00582
G1 X122.384 Y102.054 E0.02486
G1 X122.535 Y101.100 E0.03029
G1 X122.886 Y100.234 E0.02930
G1 X123.419 Y99.533 E0.02760
G1 X124.105 Y99.071 E0.02594
G1 X124.829 Y98.936 E0.02309
G1 X125.104 Y98.588 F10800.000
;WIPE_START
G1 F8640.000
G1 X125.656 Y99.134 E-0.19631
G1 X126.299 Y99.651 E-0.19042
G1 X126.765 Y100.395 E-0.20264
G1 X126.978 Y101.102 E-0.17062
;WIPE_END
G1 E-0.04000 F2100.000
G1 Z0.600 F10800.000
G1 X123.389 Y76.214
G1 Z0.200
G1 E0.80000 F2100.000
;TYPE:Perimeter
G1 F1200.000
G1 X123.167 Y76.433 E0.00975
G1 X122.978 Y76.675 E0.00963
G1 X122.818 Y76.928 E0.00942
G1 X122.679 Y77.210 E0.00982
G1 X122.501 Y77.761 E0.01816
G1 X122.432 Y78.352 E0.01866
G1 X122.481 Y78.945 E0.01867
G1 X122.643 Y79.516 E0.01859
G1 X122.913 Y80.046 E0.01866
G1 X123.283 Y80.513 E0.01869
G1 X123.736 Y80.897 E0.01861
G1 X124.255 Y81.186 E0.01864
G1 X124.821 Y81.369 E0.01866
G1 X125.412 Y81.438 E0.01863
G1 X126.005 Y81.390 E0.01866
G1 X126.577 Y81.227 E0.01865
G1 X127.105 Y80.956 E0.01862
G1 X127.572 Y80.587 E0.01865
G1 X127.957 Y80.134 E0.01866
G1 X128.247 Y79.615 E0.01863
G1 X128.429 Y79.048 E0.01867
G1 X128.498 Y78.458 E0.01862
G1 X128.449 Y77.864 E0.01869
G1 X128.287 Y77.292 E0.01866
G1 X128.019 Y76.774 E0.01828
G1 X127.830 Y76.515 E0.01006
G1 X127.588 Y76.265 E0.01091
G1 X128.325 Y76.326 E0.02319
G1 X131.125 Y76.791 E0.08900
G1 X133.861 Y77.527 E0.08881
G1 X136.510 Y78.528 E0.08882
G1 X139.050 Y79.784 E0.08882
G1 X141.454 Y81.283 E0.08883
G1 X143.705 Y83.014 E0.08903
G1 X144.258 Y83.511 E0.02331
G1 X143.902 Y83.503 E0.01115
G1 X143.600 Y83.541 E0.00957
G1 X143.308 Y83.606 E0.00938
G1 X143.009 Y83.707 E0.00988
G1 X142.494 Y83.971 E0.01815
G1 X142.028 Y84.340 E0.01864
G1 X141.642 Y84.793 E0.01868
G1 X141.352 Y85.313 E0.01866
G1 X141.170 Y85.879 E0.01864
G1 X141.102 Y86.470 E0.01865
G1 X141.149 Y87.061 E0.01860
G1 X141.312 Y87.634 E0.01867
G1 X141.584 Y88.163 E0.01865
G1 X141.952 Y88.629 E0.01864
G1 X142.406 Y89.015 E0.01866
