; generated by PrusaSlicer 2.3.0+win64 on 2021-06-17 at 15:22:01 UTC

; 

; external perimeters extrusion width = 0.45mm
; perimeters extrusion width = 0.45mm
; infill extrusion width = 0.45mm
; solid infill extrusion width = 0.45mm
; top infill extrusion width = 0.40mm
; first layer extrusion width = 0.42mm

M73 P0 R38
M73 Q0 S38
M201 X1000 Y1000 Z200 E5000 ; sets maximum accelerations, mm/sec^2
M203 X200 Y200 Z12 E120 ; sets maximum feedrates, mm/sec
M204 P1250 R1250 T1250 ; sets acceleration (P, T) and retract acceleration (R), mm/sec^2
M205 X8.00 Y8.00 Z0.40 E4.50 ; sets the jerk limits, mm/sec
M205 S0 T0 ; sets the minimum extruding and travel feed rate, mm/sec
M107
;TYPE:Custom
M862.3 P "MK3" ; printer model check
M862.1 P0.4 ; nozzle diameter check
M115 U3.9.2 ; tell printer latest fw version
G90 ; use absolute coordinates
M83 ; extruder relative mode
M104 S215 ; set extruder temp
M140 S60 ; set bed temp
M190 S60 ; wait for bed temp
M109 S215 ; wait for extruder temp
G28 W ; home all without mesh bed level
G80 ; mesh bed leveling
G1 Y-3.0 F1000.0 ; go outside print area
G92 E0.0
G1 X60.0 E9.0 F1000.0 ; intro line
G1 X100.0 E12.5 F1000.0 ; intro line
G92 E0.0
M221 S95

; Don't change E values below. Excessive value can damage the printer.
M907 E430 ; set extruder motor current
G21 ; set units to millimeters
G90 ; use absolute coordinates
M83 ; use relative distances for extrusion
M900 K0.05 ; Filament gcode LA 1.5
M900 K30 ; Filament gcode LA 1.0
;LAYER_CHANGE
;Z:0.2
;HEIGHT:0.2
;BEFORE_LAYER_CHANGE
G92 E0.0
;0.2


G1 E-0.80000 F2100.000
G1 Z0.400 F10800.000
;AFTER_LAYER_CHANGE
;0.2
G1 X103.968 Y81.694
G1 Z0.200
G1 E0.80000 F2100.000
M204 S1000
;TYPE:Skirt
;WIDTH:0.42
G1 F1200.000
G1 X104.299 Y81.079 E0.02190
G1 X104.797 Y80.584 E0.02201
G1 X105.418 Y80.257 E0.02201
G1 X106.108 Y80.125 E0.02201
G1 X143.408 Y80.123 E1.16952
M73 P0 R37
G1 X144.264 Y80.284 E0.02731
G1 X145.004 Y80.743 E0.02731
G1 X145.530 Y81.437 E0.02731
G1 X145.770 Y82.271 E0.02720
G1 X147.479 Y101.567 E0.60739
G1 X147.481 Y119.675 E0.56777
G1 X147.340 Y120.462 E0.02508
G1 X146.922 Y121.188 E0.02626
G1 X140.090 Y129.069 E0.32701
G1 X139.696 Y129.427 E0.01668
G1 X139.233 Y129.688 E0.01668
G1 X138.314 Y129.877 E0.02942
G1 X126.277 Y129.877 E0.37739
G1 X125.497 Y129.736 E0.02484
G1 X125.007 Y129.492 E0.01716
G1 X124.583 Y129.140 E0.01728
G1 X104.468 Y107.856 E0.91822
G1 X104.034 Y107.203 E0.02461
G1 X103.879 Y106.729 E0.01562
G1 X103.827 Y106.238 E0.01550
G1 X103.827 Y82.489 E0.74464
M73 Q0 S37
G1 X103.957 Y81.753 E0.02343
; printing object FED3_Sept2020_door.stl id:0 copy 0
;WIPE_START
G1 F8640.000
G1 X104.299 Y81.079 E-0.17446
G1 X104.797 Y80.584 E-0.16211
G1 X105.418 Y80.257 E-0.16211
G1 X106.108 Y80.125 E-0.16211
G1 X106.537 Y80.125 E-0.09920
;WIPE_END
G1 E-0.04000 F2100.000
G1 Z0.600 F10800.000
G1 X106.991 Y83.287
G1 Z0.200
G1 E0.80000 F2100.000
;TYPE:Perimeter
G1 F1200.000
G1 X142.617 Y83.287 E1.11702
G1 X142.617 Y99.713 E0.51502
G1 X134.960 Y99.713 E0.24008
G1 X134.960 Y123.175 E0.73564
G1 X137.517 Y123.175 E0.08018
G1 X137.517 Y126.713 E0.11093
G1 X127.091 Y126.713 E0.32690
G1 X127.091 Y113.789 E0.40522
G1 X126.728 Y113.299 E0.01911
G1 X126.217 Y112.736 E0.02385
G1 X125.655 Y112.226 E0.02380
G1 X125.045 Y111.774 E0.02381
G1 X124.394 Y111.383 E0.02381
G1 X123.706 Y111.058 E0.02383
G1 X122.990 Y110.802 E0.02385
G1 X122.634 Y110.713 E0.01150
G1 X111.797 Y110.713 E0.33979
G1 X106.991 Y105.906 E0.21313
M73 Q1 S37
G1 X106.991 Y83.347 E0.70732
;WIPE_START
M73 P1 R37
G1 F8640.000
G1 X110.282 Y83.342 E-0.76000
;WIPE_END
G1 E-0.04000 F2100.000
G1 Z0.600 F10800.000
G1 X135.337 Y100.090
G1 Z0.200
G1 E0.80000 F2100.000
;TYPE:External perimeter
G1 F1200.000
G1 X135.337 Y122.798 E0.71199
G1 X137.894 Y122.798 E0.08018
G1 X137.894 Y127.090 E0.13457
G1 X126.714 Y127.090 E0.35054
G1 X126.714 Y113.913 E0.41314
G1 X126.436 Y113.539 E0.01462
G1 X125.950 Y113.003 E0.02268
G1 X125.415 Y112.518 E0.02264
G1 X124.835 Y112.088 E0.02265
G1 X124.215 Y111.716 E0.02265
G1 X123.562 Y111.407 E0.02267
G1 X122.881 Y111.163 E0.02268
G1 X122.588 Y111.090 E0.00947
G1 X111.641 Y111.090 E0.34324
G1 X106.614 Y106.062 E0.22292
G1 X106.614 Y82.910 E0.72592
G1 X142.994 Y82.910 E1.14067
G1 X142.994 Y100.090 E0.53867
G1 X135.397 Y100.090 E0.23820
G1 X134.966 Y100.240 F10800.000
;WIPE_START
G1 F8640.000
G1 X135.388 Y103.381 E-0.76000
;WIPE_END
G1 E-0.04000 F2100.000
G1 Z0.600 F10800.000
G1 X141.735 Y83.400
G1 Z0.200
G1 E0.80000 F2100.000
;TYPE:Solid infill
;WIDTH:0.422906
G1 F1200.000
G1 X142.334 Y83.999 E0.02675
G1 X142.334 Y84.536 E0.01698
G1 X141.368 Y83.570 E0.04318
G1 X140.830 Y83.570 E0.01698
G1 X142.334 Y85.074 E0.06720
G1 X142.334 Y85.611 E0.01698
G1 X140.293 Y83.570 E0.09121
G1 X139.755 Y83.570 E0.01698
G1 X142.334 Y86.148 E0.11522
G1 X142.334 Y86.686 E0.01698
G1 X139.218 Y83.570 E0.13923
G1 X138.681 Y83.570 E0.01698
G1 X142.334 Y87.223 E0.16324
G1 X142.334 Y87.761 E0.01698
G1 X138.143 Y83.570 E0.18726
G1 X137.606 Y83.570 E0.01698
G1 X142.334 Y88.298 E0.21127
G1 X142.334 Y88.835 E0.01698
G1 X137.068 Y83.570 E0.23528
G1 X136.531 Y83.570 E0.01698
G1 X142.334 Y89.373 E0.25929
G1 X142.334 Y89.910 E0.01698
G1 X135.994 Y83.570 E0.28330
G1 X135.456 Y83.570 E0.01698
G1 X142.334 Y90.448 E0.30732
G1 X142.334 Y90.985 E0.01698
G1 X134.919 Y83.570 E0.33133
G1 X134.382 Y83.570 E0.01698
G1 X142.334 Y91.522 E0.35534
G1 X142.334 Y92.060 E0.01698
G1 X133.844 Y83.570 E0.37935
G1 X133.307 Y83.570 E0.01698
G1 X142.334 Y92.597 E0.40336
G1 X142.334 Y93.134 E0.01698
G1 X132.769 Y83.570 E0.42738
G1 X132.232 Y83.570 E0.01698
G1 X142.334 Y93.672 E0.45139
G1 X142.334 Y94.209 E0.01698
G1 X131.695 Y83.570 E0.47540
G1 X131.157 Y83.570 E0.01698
G1 X142.334 Y94.747 E0.49941
G1 X142.334 Y95.284 E0.01698
G1 X130.620 Y83.570 E0.52343
G1 X130.083 Y83.570 E0.01698
G1 X142.334 Y95.821 E0.54744
G1 X142.334 Y96.359 E0.01698
G1 X129.545 Y83.570 E0.57145
M73 P2 R37
M73 Q2 S37
G1 X129.008 Y83.570 E0.01698
G1 X142.334 Y96.896 E0.59546
G1 X142.334 Y97.433 E0.01698
G1 X128.470 Y83.570 E0.61947
G1 X127.933 Y83.570 E0.01698
G1 X142.334 Y97.971 E0.64349
G1 X142.334 Y98.508 E0.01698
G1 X127.396 Y83.570 E0.66750
G1 X126.858 Y83.570 E0.01698
G1 X142.334 Y99.046 E0.69151
G1 X142.334 Y99.430 E0.01215
G1 X142.181 Y99.430 E0.00483
G1 X126.321 Y83.570 E0.70869
G1 X125.783 Y83.570 E0.01698
G1 X141.644 Y99.430 E0.70869
G1 X141.106 Y99.430 E0.01698
G1 X125.246 Y83.570 E0.70869
G1 X124.709 Y83.570 E0.01698
G1 X140.569 Y99.430 E0.70869
G1 X140.032 Y99.430 E0.01698
G1 X124.171 Y83.570 E0.70869
G1 X123.634 Y83.570 E0.01698
G1 X139.494 Y99.430 E0.70869
G1 X138.957 Y99.430 E0.01698
G1 X123.097 Y83.570 E0.70869
G1 X122.559 Y83.570 E0.01698
G1 X138.419 Y99.430 E0.70869
G1 X137.882 Y99.430 E0.01698
G1 X122.022 Y83.570 E0.70869
G1 X121.484 Y83.570 E0.01698
G1 X137.345 Y99.430 E0.70869
G1 X136.807 Y99.430 E0.01698
G1 X120.947 Y83.570 E0.70869
G1 X120.410 Y83.570 E0.01698
G1 X136.270 Y99.430 E0.70869
G1 X135.733 Y99.430 E0.01698
G1 X119.872 Y83.570 E0.70869
G1 X119.335 Y83.570 E0.01698
G1 X135.195 Y99.430 E0.70869
G1 X134.677 Y99.430 E0.01638
G1 X134.677 Y99.449 E0.00060
G1 X118.798 Y83.570 E0.70954
M73 P3 R36
M73 Q3 S37
G1 X118.260 Y83.570 E0.01698
G1 X134.677 Y99.987 E0.73355
G1 X134.677 Y100.524 E0.01698
G1 X117.723 Y83.570 E0.75757
G1 X117.185 Y83.570 E0.01698
G1 X134.677 Y101.061 E0.78158
G1 X134.677 Y101.599 E0.01698
G1 X116.648 Y83.570 E0.80559
G1 X116.111 Y83.570 E0.01698
G1 X134.677 Y102.136 E0.82960
G1 X134.677 Y102.673 E0.01698
G1 X115.573 Y83.570 E0.85362
M73 Q3 S36
G1 X115.036 Y83.570 E0.01698
G1 X134.677 Y103.211 E0.87763
G1 X134.677 Y103.748 E0.01698
G1 X114.498 Y83.570 E0.90164
G1 X113.961 Y83.570 E0.01698
G1 X134.677 Y104.286 E0.92565
G1 X134.677 Y104.823 E0.01698
G1 X113.424 Y83.570 E0.94966
G1 X112.886 Y83.570 E0.01698
G1 X134.677 Y105.360 E0.97368
G1 X134.677 Y105.898 E0.01698
G1 X112.349 Y83.570 E0.99769
G1 X111.812 Y83.570 E0.01698
G1 X134.677 Y106.435 E1.02170
G1 X134.677 Y106.973 E0.01698
G1 X111.274 Y83.570 E1.04571
G1 X110.737 Y83.570 E0.01698
G1 X134.677 Y107.510 E1.06972
G1 X134.677 Y108.047 E0.01698
G1 X110.199 Y83.570 E1.09374
M73 P4 R36
M73 Q4 S36
G1 X109.662 Y83.570 E0.01698
G1 X134.677 Y108.585 E1.11775
G1 X134.677 Y109.122 E0.01698
G1 X109.125 Y83.570 E1.14176
G1 X108.587 Y83.570 E0.01698
G1 X134.677 Y109.659 E1.16577
G1 X134.677 Y110.197 E0.01698
G1 X108.050 Y83.570 E1.18978
G1 X107.512 Y83.570 E0.01698
G1 X134.677 Y110.734 E1.21380
G1 X134.677 Y111.272 E0.01698
G1 X107.274 Y83.868 E1.22447
G1 X107.274 Y84.406 E0.01698
G1 X134.677 Y111.809 E1.22447
G1 X134.677 Y112.346 E0.01698
G1 X107.274 Y84.943 E1.22447
G1 X107.274 Y85.481 E0.01698
G1 X134.677 Y112.884 E1.22447
G1 X134.677 Y113.421 E0.01698
G1 X107.274 Y86.018 E1.22447
G1 X107.274 Y86.555 E0.01698
G1 X134.677 Y113.958 E1.22447
G1 X134.677 Y114.496 E0.01698
G1 X107.274 Y87.093 E1.22447
M73 P5 R36
M73 Q5 S36
G1 X107.274 Y87.630 E0.01698
G1 X134.677 Y115.033 E1.22447
G1 X134.677 Y115.571 E0.01698
G1 X107.274 Y88.168 E1.22447
G1 X107.274 Y88.705 E0.01698
G1 X134.677 Y116.108 E1.22447
G1 X134.677 Y116.645 E0.01698
G1 X107.274 Y89.242 E1.22447
G1 X107.274 Y89.780 E0.01698
G1 X134.677 Y117.183 E1.22447
G1 X134.677 Y117.720 E0.01698
G1 X107.274 Y90.317 E1.22447
G1 X107.274 Y90.854 E0.01698
G1 X134.677 Y118.258 E1.22447
M73 P5 R35
G1 X134.677 Y118.795 E0.01698
G1 X107.274 Y91.392 E1.22447
G1 X107.274 Y91.929 E0.01698
G1 X134.677 Y119.332 E1.22447
G1 X134.677 Y119.870 E0.01698
G1 X107.274 Y92.467 E1.22447
G1 X107.274 Y93.004 E0.01698
G1 X134.677 Y120.407 E1.22447
M73 P6 R35
M73 Q6 S35
G1 X134.677 Y120.944 E0.01698
G1 X107.274 Y93.541 E1.22447
G1 X107.274 Y94.079 E0.01698
G1 X124.150 Y110.955 E0.75409
G1 X123.815 Y110.796 E0.01172
G1 X123.253 Y110.595 E0.01885
G1 X107.274 Y94.616 E0.71401
G1 X107.274 Y95.153 E0.01698
G1 X122.550 Y110.430 E0.68261
G1 X122.013 Y110.430 E0.01698
G1 X107.274 Y95.691 E0.65860
G1 X107.274 Y96.228 E0.01698
G1 X121.476 Y110.430 E0.63459
G1 X120.938 Y110.430 E0.01698
G1 X107.274 Y96.766 E0.61058
G1 X107.274 Y97.303 E0.01698
G1 X120.401 Y110.430 E0.58657
G1 X119.863 Y110.430 E0.01698
G1 X107.274 Y97.840 E0.56255
G1 X107.274 Y98.378 E0.01698
G1 X119.326 Y110.430 E0.53854
G1 X118.789 Y110.430 E0.01698
G1 X107.274 Y98.915 E0.51453
G1 X107.274 Y99.453 E0.01698
G1 X118.251 Y110.430 E0.49052
G1 X117.714 Y110.430 E0.01698
G1 X107.274 Y99.990 E0.46651
G1 X107.274 Y100.527 E0.01698
G1 X117.177 Y110.430 E0.44249
G1 X116.639 Y110.430 E0.01698
G1 X107.274 Y101.065 E0.41848
G1 X107.274 Y101.602 E0.01698
G1 X116.102 Y110.430 E0.39447
G1 X115.564 Y110.430 E0.01698
G1 X107.274 Y102.139 E0.37046
G1 X107.274 Y102.677 E0.01698
G1 X115.027 Y110.430 E0.34645
G1 X114.490 Y110.430 E0.01698
G1 X107.274 Y103.214 E0.32243
G1 X107.274 Y103.752 E0.01698
G1 X113.952 Y110.430 E0.29842
G1 X113.415 Y110.430 E0.01698
G1 X107.274 Y104.289 E0.27441
G1 X107.274 Y104.826 E0.01698
G1 X112.878 Y110.430 E0.25040
G1 X112.340 Y110.430 E0.01698
G1 X107.104 Y105.194 E0.23397
;WIPE_START
G1 F8640.000
G1 X109.431 Y107.521 E-0.76000
;WIPE_END
G1 E-0.04000 F2100.000
G1 Z0.600 F10800.000
G1 X127.204 Y114.009
G1 Z0.200
G1 E0.80000 F2100.000
G1 F1200.000
G1 X134.677 Y121.482 E0.33391
G1 X134.677 Y122.019 E0.01698
G1 X127.374 Y114.716 E0.32633
G1 X127.374 Y115.253 E0.01698
G1 X134.847 Y122.726 E0.33391
;WIPE_START
M73 P7 R35
M73 Q7 S35
G1 F8640.000
G1 X132.519 Y120.399 E-0.76000
;WIPE_END
G1 E-0.04000 F2100.000
G1 Z0.600 F10800.000
G1 X137.404 Y123.671
G1 Z0.200
G1 E0.80000 F2100.000
G1 F1200.000
G1 X137.190 Y123.458 E0.00954
G1 X136.653 Y123.458 E0.01698
G1 X137.234 Y124.039 E0.02597
G1 X137.234 Y124.576 E0.01698
G1 X136.115 Y123.458 E0.04998
G1 X135.578 Y123.458 E0.01698
G1 X137.234 Y125.114 E0.07399
G1 X137.234 Y125.651 E0.01698
G1 X135.041 Y123.458 E0.09800
G1 X134.677 Y123.458 E0.01150
G1 X134.677 Y123.094 E0.01150
G1 X127.374 Y115.791 E0.32633
G1 X127.374 Y116.328 E0.01698
G1 X137.234 Y126.188 E0.44059
G1 X137.234 Y126.430 E0.00763
G1 X136.938 Y126.430 E0.00934
G1 X127.374 Y116.866 E0.42738
G1 X127.374 Y117.403 E0.01698
G1 X136.401 Y126.430 E0.40336
G1 X135.863 Y126.430 E0.01698
G1 X127.374 Y117.940 E0.37935
G1 X127.374 Y118.478 E0.01698
G1 X135.326 Y126.430 E0.35534
G1 X134.789 Y126.430 E0.01698
G1 X127.374 Y119.015 E0.33133
G1 X127.374 Y119.553 E0.01698
G1 X134.251 Y126.430 E0.30732
G1 X133.714 Y126.430 E0.01698
G1 X127.374 Y120.090 E0.28330
G1 X127.374 Y120.627 E0.01698
G1 X133.177 Y126.430 E0.25929
G1 X132.639 Y126.430 E0.01698
G1 X127.374 Y121.165 E0.23528
G1 X127.374 Y121.702 E0.01698
G1 X132.102 Y126.430 E0.21127
G1 X131.564 Y126.430 E0.01698
G1 X127.374 Y122.239 E0.18726
G1 X127.374 Y122.777 E0.01698
G1 X131.027 Y126.430 E0.16324
G1 X130.490 Y126.430 E0.01698
G1 X127.374 Y123.314 E0.13923
G1 X127.374 Y123.852 E0.01698
G1 X129.952 Y126.430 E0.11522
G1 X129.415 Y126.430 E0.01698
G1 X127.374 Y124.389 E0.09121
G1 X127.374 Y124.926 E0.01698
G1 X128.878 Y126.430 E0.06720
G1 X128.340 Y126.430 E0.01698
G1 X127.374 Y125.464 E0.04318
G1 X127.374 Y126.001 E0.01698
G1 X127.972 Y126.600 E0.02675
;WIPE_START
G1 F8640.000
G1 X127.374 Y126.001 E-0.19551
G1 X127.374 Y125.464 E-0.12408
G1 X128.340 Y126.430 E-0.31558
G1 X128.878 Y126.430 E-0.12408
G1 X128.875 Y126.428 E-0.00074
;WIPE_END
G1 E-0.04000 F2100.000
G1 Z0.600 F10800.000
G1 X143.291 Y118.869
G1 Z0.200
G1 E0.80000 F2100.000
;TYPE:Perimeter
;WIDTH:0.42
G1 F1200.000
G1 X143.291 Y102.450 E0.51480
G1 X144.317 Y102.450 E0.03216
G1 X144.317 Y118.869 E0.51480
G1 X143.351 Y118.869 E0.03028
G1 X142.914 Y119.246 F10800.000
;TYPE:External perimeter
G1 F1200.000
G1 X142.914 Y102.073 E0.53845
G1 X144.694 Y102.073 E0.05581
G1 X144.694 Y119.246 E0.53845
G1 X142.974 Y119.246 E0.05393
G1 X142.928 Y118.846 F10800.000
;WIPE_START
G1 F8640.000
G1 X142.962 Y115.955 E-0.76000
;WIPE_END
G1 E-0.04000 F2100.000
G1 Z0.600 F10800.000
G1 X143.441 Y102.563
G1 Z0.200
G1 E0.80000 F2100.000
;TYPE:Solid infill
;WIDTH:0.420066
G1 F1200.000
G1 X144.034 Y103.156 E0.02629
G1 X144.034 Y103.689 E0.01673
G1 X143.574 Y103.229 E0.02041
G1 X143.574 Y103.762 E0.01673
G1 X144.034 Y104.223 E0.02041
G1 X144.034 Y104.756 E0.01673
G1 X143.574 Y104.296 E0.02041
G1 X143.574 Y104.829 E0.01673
G1 X144.034 Y105.289 E0.02041
G1 X144.034 Y105.823 E0.01673
G1 X143.574 Y105.362 E0.02041
G1 X143.574 Y105.896 E0.01673
G1 X144.034 Y106.356 E0.02041
G1 X144.034 Y106.889 E0.01673
G1 X143.574 Y106.429 E0.02041
G1 X143.574 Y106.963 E0.01673
G1 X144.034 Y107.423 E0.02041
G1 X144.034 Y107.956 E0.01673
G1 X143.574 Y107.496 E0.02041
G1 X143.574 Y108.029 E0.01673
G1 X144.034 Y108.490 E0.02041
G1 X144.034 Y109.023 E0.01673
G1 X143.574 Y108.563 E0.02041
G1 X143.574 Y109.096 E0.01673
G1 X144.034 Y109.556 E0.02041
G1 X144.034 Y110.090 E0.01673
G1 X143.574 Y109.629 E0.02041
G1 X143.574 Y110.163 E0.01673
G1 X144.034 Y110.623 E0.02041
G1 X144.034 Y111.156 E0.01673
G1 X143.574 Y110.696 E0.02041
G1 X143.574 Y111.229 E0.01673
G1 X144.034 Y111.690 E0.02041
G1 X144.034 Y112.223 E0.01673
G1 X143.574 Y111.763 E0.02041
G1 X143.574 Y112.296 E0.01673
G1 X144.034 Y112.756 E0.02041
G1 X144.034 Y113.290 E0.01673
G1 X143.574 Y112.830 E0.02041
G1 X143.574 Y113.363 E0.01673
G1 X144.034 Y113.823 E0.02041
G1 X144.034 Y114.357 E0.01673
G1 X143.574 Y113.896 E0.02041
G1 X143.574 Y114.430 E0.01673
G1 X144.034 Y114.890 E0.02041
G1 X144.034 Y115.423 E0.01673
G1 X143.574 Y114.963 E0.02041
G1 X143.574 Y115.496 E0.01673
G1 X144.034 Y115.957 E0.02041
G1 X144.034 Y116.490 E0.01673
G1 X143.574 Y116.030 E0.02041
G1 X143.574 Y116.563 E0.01673
G1 X144.034 Y117.023 E0.02041
G1 X144.034 Y117.557 E0.01673
G1 X143.574 Y117.096 E0.02041
G1 X143.574 Y117.630 E0.01673
G1 X144.034 Y118.090 E0.02041
G1 X144.034 Y118.586 E0.01555
G1 X143.997 Y118.586 E0.00117
G1 X143.404 Y117.994 E0.02628
; stop printing object FED3_Sept2020_door.stl id:0 copy 0
M106 S84.15
;LAYER_CHANGE
;Z:0.35
;HEIGHT:0.15
;BEFORE_LAYER_CHANGE
G92 E0.0
;0.35


;WIPE_START
G1 F8640.000
G1 X143.997 Y118.586 E-0.19351
G1 X144.034 Y118.586 E-0.00863
G1 X144.034 Y118.090 E-0.11453
G1 X143.574 Y117.630 E-0.15030
G1 X143.574 Y117.096 E-0.12316
G1 X144.034 Y117.557 E-0.15030
