; generated by PrusaSlicer 2.3.0+win64 on 2021-06-17 at 16:13:16 UTC

; 

; external perimeters extrusion width = 0.45mm
; perimeters extrusion width = 0.45mm
; infill extrusion width = 0.45mm
; solid infill extrusion width = 0.45mm
; top infill extrusion width = 0.40mm
; first layer extrusion width = 0.42mm

M73 P0 R109
M73 Q0 S110
M201 X1000 Y1000 Z200 E5000 ; sets maximum accelerations, mm/sec^2
M203 X200 Y200 Z12 E120 ; sets maximum feedrates, mm/sec
M204 P1250 R1250 T1250 ; sets acceleration (P, T) and retract acceleration (R), mm/sec^2
M205 X8.00 Y8.00 Z0.40 E4.50 ; sets the jerk limits, mm/sec
M205 S0 T0 ; sets the minimum extruding and travel feed rate, mm/sec
M107
;TYPE:Custom
M862.3 P "MK3" ; printer model check
M862.1 P0.4 ; nozzle diameter check
M115 U3.9.2 ; tell printer latest fw version
G90 ; use absolute coordinates
M83 ; extruder relative mode
M104 S215 ; set extruder temp
M140 S60 ; set bed temp
M190 S60 ; wait for bed temp
M109 S215 ; wait for extruder temp
G28 W ; home all without mesh bed level
G80 ; mesh bed leveling
G1 Y-3.0 F1000.0 ; go outside print area
G92 E0.0
G1 X60.0 E9.0 F1000.0 ; intro line
G1 X100.0 E12.5 F1000.0 ; intro line
G92 E0.0
M221 S95

; Don't change E values below. Excessive value can damage the printer.
M907 E430 ; set extruder motor current
G21 ; set units to millimeters
G90 ; use absolute coordinates
M83 ; use relative distances for extrusion
M900 K0.05 ; Filament gcode LA 1.5
M900 K30 ; Filament gcode LA 1.0
;LAYER_CHANGE
;Z:0.2
;HEIGHT:0.2
;BEFORE_LAYER_CHANGE
G92 E0.0
;0.2


G1 E-0.80000 F2100.000
G1 Z0.400 F10800.000
;AFTER_LAYER_CHANGE
;0.2
G1 X93.422 Y51.317
G1 Z0.200
G1 E0.80000 F2100.000
M204 S1000
;TYPE:Skirt
;WIDTH:0.42
G1 F1200.000
G1 X93.961 Y50.914 E0.02107
G1 X96.575 Y49.655 E0.09099
G1 X97.376 Y49.471 E0.02579
G1 X151.367 Y48.645 E1.69302
G1 X154.903 Y48.645 E0.11088
G1 X155.801 Y48.823 E0.02872
G1 X156.566 Y49.327 E0.02872
G1 X157.083 Y50.084 E0.02872
G1 X157.276 Y50.979 E0.02872
G1 X157.276 Y158.986 E3.38647
G1 X157.199 Y159.577 E0.01870
G1 X156.980 Y160.128 E0.01858
G1 X156.607 Y160.631 E0.01965
G1 X156.112 Y161.022 E0.01977
G1 X155.536 Y161.268 E0.01965
G1 X154.915 Y161.355 E0.01965
G1 X97.461 Y160.578 E1.80161
G1 X96.565 Y160.387 E0.02872
G1 X93.952 Y159.081 E0.09158
G1 X93.448 Y158.709 E0.01965
G1 X93.059 Y158.217 E0.01965
G1 X92.812 Y157.641 E0.01965
G1 X92.724 Y157.021 E0.01965
G1 X92.724 Y52.992 E3.26175
G1 X92.801 Y52.401 E0.01870
G1 X93.020 Y51.850 E0.01858
G1 X93.386 Y51.365 E0.01907
; printing object FED3_Base_June2021.stl id:0 copy 0
;WIPE_START
G1 F8640.000
G1 X93.961 Y50.914 E-0.16850
G1 X96.268 Y49.802 E-0.59150
;WIPE_END
G1 E-0.04000 F2100.000
G1 Z0.600 F10800.000
G1 X95.888 Y53.787
G1 Z0.200
G1 E0.80000 F2100.000
;TYPE:Perimeter
G1 F1200.000
G1 X98.286 Y53.787 E0.07519
G1 X98.286 Y53.041 E0.02339
G1 X152.186 Y53.041 E1.69000
G1 X152.186 Y51.809 E0.03862
G1 X154.112 Y51.809 E0.06038
G1 X154.112 Y62.873 E0.34690
G1 X145.037 Y62.873 E0.28454
G1 X145.037 Y90.442 E0.86441
G1 X154.112 Y90.442 E0.28454
G1 X154.112 Y158.191 E2.12422
M73 Q0 S109
G1 X152.186 Y158.191 E0.06038
G1 X152.186 Y157.005 E0.03720
G1 X98.286 Y157.005 E1.69000
G1 X98.286 Y156.213 E0.02482
G1 X95.888 Y156.213 E0.07519
G1 X95.888 Y53.847 E3.20961
;WIPE_START
G1 F8640.000
G1 X98.286 Y53.787 E-0.55388
G1 X98.286 Y53.041 E-0.17228
G1 X98.433 Y53.041 E-0.03384
;WIPE_END
G1 E-0.04000 F2100.000
G1 Z0.600 F10800.000
G1 X145.414 Y63.250
G1 Z0.200
G1 E0.80000 F2100.000
;TYPE:External perimeter
G1 F1200.000
G1 X145.414 Y90.065 E0.84077
G1 X154.489 Y90.065 E0.28454
G1 X154.489 Y158.568 E2.14786
M73 P0 R108
G1 X151.809 Y158.568 E0.08403
G1 X151.809 Y157.382 E0.03720
G1 X97.909 Y157.382 E1.69000
G1 X97.909 Y156.590 E0.02482
G1 X95.511 Y156.590 E0.07519
G1 X95.511 Y53.410 E3.23514
G1 X97.909 Y53.410 E0.07519
G1 X97.909 Y52.664 E0.02339
G1 X151.809 Y52.664 E1.69000
G1 X151.809 Y51.432 E0.03862
G1 X154.489 Y51.432 E0.08403
G1 X154.489 Y63.250 E0.37055
G1 X145.474 Y63.250 E0.28266
G1 X145.032 Y63.370 F10800.000
;WIPE_START
G1 F8640.000
G1 X145.467 Y66.541 E-0.76000
;WIPE_END
G1 E-0.04000 F2100.000
G1 Z0.600 F10800.000
G1 X153.999 Y52.685
G1 Z0.200
G1 E0.80000 F2100.000
;TYPE:Solid infill
;WIDTH:0.420316
G1 F1200.000
G1 X153.406 Y52.092 E0.02633
G1 X152.872 Y52.092 E0.01675
G1 X153.829 Y53.049 E0.04248
G1 X153.829 Y53.583 E0.01675
G1 X152.469 Y52.223 E0.06037
G1 X152.469 Y52.756 E0.01675
G1 X153.829 Y54.117 E0.06037
G1 X153.829 Y54.650 E0.01675
G1 X152.469 Y53.290 E0.06037
G1 X152.469 Y53.324 E0.00106
G1 X151.969 Y53.324 E0.01569
G1 X153.829 Y55.184 E0.08256
G1 X153.829 Y55.718 E0.01675
G1 X151.435 Y53.324 E0.10624
G1 X150.901 Y53.324 E0.01675
G1 X153.829 Y56.251 E0.12993
G1 X153.829 Y56.785 E0.01675
G1 X150.368 Y53.324 E0.15361
G1 X149.834 Y53.324 E0.01675
G1 X153.829 Y57.319 E0.17730
G1 X153.829 Y57.853 E0.01675
G1 X149.300 Y53.324 E0.20099
G1 X148.767 Y53.324 E0.01675
G1 X153.829 Y58.386 E0.22467
G1 X153.829 Y58.920 E0.01675
G1 X148.233 Y53.324 E0.24836
G1 X147.699 Y53.324 E0.01675
G1 X153.829 Y59.454 E0.27204
G1 X153.829 Y59.987 E0.01675
G1 X147.165 Y53.324 E0.29573
G1 X146.632 Y53.324 E0.01675
G1 X153.829 Y60.521 E0.31942
M73 P1 R108
G1 X153.829 Y61.055 E0.01675
G1 X146.098 Y53.324 E0.34310
M73 Q1 S109
G1 X145.564 Y53.324 E0.01675
G1 X153.829 Y61.589 E0.36679
G1 X153.829 Y62.122 E0.01675
G1 X145.031 Y53.324 E0.39047
G1 X144.497 Y53.324 E0.01675
G1 X153.763 Y62.590 E0.41123
G1 X153.229 Y62.590 E0.01675
G1 X143.963 Y53.324 E0.41123
G1 X143.429 Y53.324 E0.01675
G1 X152.696 Y62.590 E0.41123
G1 X152.162 Y62.590 E0.01675
G1 X142.896 Y53.324 E0.41123
G1 X142.362 Y53.324 E0.01675
G1 X151.628 Y62.590 E0.41123
G1 X151.095 Y62.590 E0.01675
G1 X141.828 Y53.324 E0.41123
G1 X141.294 Y53.324 E0.01675
G1 X150.561 Y62.590 E0.41123
G1 X150.027 Y62.590 E0.01675
G1 X140.761 Y53.324 E0.41123
G1 X140.227 Y53.324 E0.01675
G1 X149.493 Y62.590 E0.41123
G1 X148.960 Y62.590 E0.01675
G1 X139.693 Y53.324 E0.41123
G1 X139.160 Y53.324 E0.01675
G1 X148.426 Y62.590 E0.41123
G1 X147.892 Y62.590 E0.01675
G1 X138.626 Y53.324 E0.41123
G1 X138.092 Y53.324 E0.01675
G1 X147.359 Y62.590 E0.41123
G1 X146.825 Y62.590 E0.01675
G1 X137.558 Y53.324 E0.41123
G1 X137.025 Y53.324 E0.01675
G1 X146.291 Y62.590 E0.41123
G1 X145.757 Y62.590 E0.01675
G1 X136.491 Y53.324 E0.41123
G1 X135.957 Y53.324 E0.01675
G1 X145.224 Y62.590 E0.41123
G1 X144.754 Y62.590 E0.01473
G1 X144.754 Y62.654 E0.00201
G1 X135.424 Y53.324 E0.41408
G1 X134.890 Y53.324 E0.01675
G1 X144.754 Y63.188 E0.43777
G1 X144.754 Y63.722 E0.01675
G1 X134.356 Y53.324 E0.46145
G1 X133.822 Y53.324 E0.01675
G1 X144.754 Y64.255 E0.48514
G1 X144.754 Y64.789 E0.01675
G1 X133.289 Y53.324 E0.50882
G1 X132.755 Y53.324 E0.01675
G1 X144.754 Y65.323 E0.53251
G1 X144.754 Y65.857 E0.01675
G1 X132.221 Y53.324 E0.55619
G1 X131.688 Y53.324 E0.01675
G1 X144.754 Y66.390 E0.57988
G1 X144.754 Y66.924 E0.01675
G1 X131.154 Y53.324 E0.60357
G1 X130.620 Y53.324 E0.01675
G1 X144.754 Y67.458 E0.62725
G1 X144.754 Y67.991 E0.01675
G1 X130.086 Y53.324 E0.65094
G1 X129.553 Y53.324 E0.01675
G1 X144.754 Y68.525 E0.67462
G1 X144.754 Y69.059 E0.01675
G1 X129.019 Y53.324 E0.69831
G1 X128.485 Y53.324 E0.01675
G1 X144.754 Y69.593 E0.72200
M73 Q1 S108
G1 X144.754 Y70.126 E0.01675
G1 X127.952 Y53.324 E0.74568
G1 X127.418 Y53.324 E0.01675
G1 X144.754 Y70.660 E0.76937
G1 X144.754 Y71.194 E0.01675
G1 X126.884 Y53.324 E0.79305
G1 X126.350 Y53.324 E0.01675
G1 X144.754 Y71.728 E0.81674
G1 X144.754 Y72.261 E0.01675
G1 X125.817 Y53.324 E0.84042
G1 X125.283 Y53.324 E0.01675
G1 X144.754 Y72.795 E0.86411
G1 X144.754 Y73.329 E0.01675
G1 X124.749 Y53.324 E0.88780
G1 X124.215 Y53.324 E0.01675
G1 X144.754 Y73.862 E0.91148
G1 X144.754 Y74.396 E0.01675
G1 X123.682 Y53.324 E0.93517
G1 X123.148 Y53.324 E0.01675
G1 X144.754 Y74.930 E0.95885
M73 P1 R107
G1 X144.754 Y75.464 E0.01675
G1 X122.614 Y53.324 E0.98254
G1 X122.081 Y53.324 E0.01675
G1 X144.754 Y75.997 E1.00622
G1 X144.754 Y76.531 E0.01675
G1 X121.547 Y53.324 E1.02991
G1 X121.013 Y53.324 E0.01675
G1 X144.754 Y77.065 E1.05360
G1 X144.754 Y77.598 E0.01675
G1 X120.479 Y53.324 E1.07728
G1 X119.946 Y53.324 E0.01675
G1 X144.754 Y78.132 E1.10097
G1 X144.754 Y78.666 E0.01675
G1 X119.412 Y53.324 E1.12465
G1 X118.878 Y53.324 E0.01675
G1 X144.754 Y79.200 E1.14834
G1 X144.754 Y79.733 E0.01675
G1 X118.345 Y53.324 E1.17203
G1 X117.811 Y53.324 E0.01675
G1 X144.754 Y80.267 E1.19571
G1 X144.754 Y80.801 E0.01675
G1 X117.277 Y53.324 E1.21940
G1 X116.743 Y53.324 E0.01675
G1 X144.754 Y81.334 E1.24308
G1 X144.754 Y81.868 E0.01675
G1 X116.210 Y53.324 E1.26677
G1 X115.676 Y53.324 E0.01675
G1 X144.754 Y82.402 E1.29045
M73 P2 R107
M73 Q2 S108
G1 X144.754 Y82.936 E0.01675
G1 X115.142 Y53.324 E1.31414
G1 X114.609 Y53.324 E0.01675
G1 X144.754 Y83.469 E1.33783
G1 X144.754 Y84.003 E0.01675
G1 X114.075 Y53.324 E1.36151
G1 X113.541 Y53.324 E0.01675
G1 X144.754 Y84.537 E1.38520
G1 X144.754 Y85.070 E0.01675
G1 X113.007 Y53.324 E1.40888
G1 X112.474 Y53.324 E0.01675
G1 X144.754 Y85.604 E1.43257
G1 X144.754 Y86.138 E0.01675
G1 X111.940 Y53.324 E1.45626
G1 X111.406 Y53.324 E0.01675
G1 X144.754 Y86.672 E1.47994
G1 X144.754 Y87.205 E0.01675
G1 X110.873 Y53.324 E1.50363
M73 Q2 S107
G1 X110.339 Y53.324 E0.01675
G1 X144.754 Y87.739 E1.52731
G1 X144.754 Y88.273 E0.01675
G1 X109.805 Y53.324 E1.55100
G1 X109.271 Y53.324 E0.01675
G1 X144.754 Y88.807 E1.57468
G1 X144.754 Y89.340 E0.01675
G1 X108.738 Y53.324 E1.59837
G1 X108.204 Y53.324 E0.01675
G1 X144.924 Y90.044 E1.62959
;WIPE_START
M73 P2 R106
G1 F8640.000
G1 X142.596 Y87.716 E-0.76000
;WIPE_END
G1 E-0.04000 F2100.000
G1 Z0.600 F10800.000
G1 X153.441 Y90.555
G1 Z0.200
G1 E0.80000 F2100.000
G1 F1200.000
G1 X153.829 Y90.943 E0.01722
G1 X153.829 Y91.477 E0.01675
G1 X153.077 Y90.725 E0.03337
G1 X152.543 Y90.725 E0.01675
G1 X153.829 Y92.011 E0.05706
G1 X153.829 Y92.544 E0.01675
G1 X152.010 Y90.725 E0.08075
G1 X151.476 Y90.725 E0.01675
G1 X153.829 Y93.078 E0.10443
G1 X153.829 Y93.612 E0.01675
G1 X150.942 Y90.725 E0.12812
G1 X150.409 Y90.725 E0.01675
G1 X153.829 Y94.145 E0.15180
G1 X153.829 Y94.679 E0.01675
G1 X149.875 Y90.725 E0.17549
G1 X149.341 Y90.725 E0.01675
G1 X153.829 Y95.213 E0.19917
G1 X153.829 Y95.747 E0.01675
G1 X148.807 Y90.725 E0.22286
G1 X148.274 Y90.725 E0.01675
G1 X153.829 Y96.280 E0.24655
G1 X153.829 Y96.814 E0.01675
G1 X147.740 Y90.725 E0.27023
G1 X147.206 Y90.725 E0.01675
G1 X153.829 Y97.348 E0.29392
G1 X153.829 Y97.882 E0.01675
G1 X146.672 Y90.725 E0.31760
G1 X146.139 Y90.725 E0.01675
G1 X153.829 Y98.415 E0.34129
G1 X153.829 Y98.949 E0.01675
G1 X145.435 Y90.555 E0.37251
;WIPE_START
G1 F8640.000
G1 X147.763 Y92.883 E-0.76000
;WIPE_END
G1 E-0.04000 F2100.000
G1 Z0.600 F10800.000
G1 X153.999 Y99.652
G1 Z0.200
G1 E0.80000 F2100.000
G1 F1200.000
G1 X107.670 Y53.324 E2.05601
G1 X107.136 Y53.324 E0.01675
G1 X153.829 Y100.016 E2.07217
G1 X153.829 Y100.550 E0.01675
G1 X106.603 Y53.324 E2.09585
G1 X106.069 Y53.324 E0.01675
G1 X153.829 Y101.084 E2.11954
G1 X153.829 Y101.618 E0.01675
G1 X105.535 Y53.324 E2.14322
G1 X105.002 Y53.324 E0.01675
G1 X153.829 Y102.151 E2.16691
G1 X153.829 Y102.685 E0.01675
G1 X104.468 Y53.324 E2.19060
G1 X103.934 Y53.324 E0.01675
G1 X153.829 Y103.219 E2.21428
M73 P3 R106
M73 Q3 S107
G1 X153.829 Y103.752 E0.01675
G1 X103.400 Y53.324 E2.23797
G1 X102.867 Y53.324 E0.01675
G1 X153.829 Y104.286 E2.26165
G1 X153.829 Y104.820 E0.01675
G1 X102.333 Y53.324 E2.28534
G1 X101.799 Y53.324 E0.01675
G1 X153.829 Y105.354 E2.30903
M73 Q3 S106
G1 X153.829 Y105.887 E0.01675
G1 X101.266 Y53.324 E2.33271
G1 X100.732 Y53.324 E0.01675
G1 X153.829 Y106.421 E2.35640
G1 X153.829 Y106.955 E0.01675
G1 X100.198 Y53.324 E2.38008
M73 P3 R105
G1 X99.664 Y53.324 E0.01675
G1 X153.829 Y107.488 E2.40377
G1 X153.829 Y108.022 E0.01675
G1 X99.131 Y53.324 E2.42745
G1 X98.597 Y53.324 E0.01675
G1 X153.829 Y108.556 E2.45114
G1 X153.829 Y109.090 E0.01675
G1 X98.569 Y53.829 E2.45239
G1 X98.569 Y54.070 E0.00755
G1 X98.276 Y54.070 E0.00920
G1 X153.829 Y109.623 E2.46540
G1 X153.829 Y110.157 E0.01675
G1 X97.742 Y54.070 E2.48909
G1 X97.208 Y54.070 E0.01675
G1 X153.829 Y110.691 E2.51277
G1 X153.829 Y111.224 E0.01675
G1 X96.675 Y54.070 E2.53646
G1 X96.171 Y54.070 E0.01581
G1 X96.171 Y54.100 E0.00094
G1 X153.829 Y111.758 E2.55881
G1 X153.829 Y112.292 E0.01675
G1 X96.171 Y54.634 E2.55881
M73 P4 R105
M73 Q4 S106
G1 X96.171 Y55.167 E0.01675
G1 X153.829 Y112.826 E2.55881
G1 X153.829 Y113.359 E0.01675
G1 X96.171 Y55.701 E2.55881
M73 Q4 S105
G1 X96.171 Y56.235 E0.01675
G1 X153.829 Y113.893 E2.55881
G1 X153.829 Y114.427 E0.01675
G1 X96.171 Y56.769 E2.55881
G1 X96.171 Y57.302 E0.01675
G1 X153.829 Y114.961 E2.55881
M73 P4 R104
G1 X153.829 Y115.494 E0.01675
G1 X96.171 Y57.836 E2.55881
G1 X96.171 Y58.370 E0.01675
G1 X153.829 Y116.028 E2.55881
G1 X153.829 Y116.562 E0.01675
G1 X96.171 Y58.903 E2.55881
G1 X96.171 Y59.437 E0.01675
G1 X153.829 Y117.095 E2.55881
G1 X153.829 Y117.629 E0.01675
G1 X96.171 Y59.971 E2.55881
G1 X96.171 Y60.505 E0.01675
G1 X153.829 Y118.163 E2.55881
G1 X153.829 Y118.697 E0.01675
G1 X96.171 Y61.038 E2.55881
G1 X96.171 Y61.572 E0.01675
G1 X153.829 Y119.230 E2.55881
G1 X153.829 Y119.764 E0.01675
G1 X96.171 Y62.106 E2.55881
G1 X96.171 Y62.639 E0.01675
G1 X153.829 Y120.298 E2.55881
G1 X153.829 Y120.831 E0.01675
G1 X96.171 Y63.173 E2.55881
M73 P5 R104
M73 Q5 S105
G1 X96.171 Y63.707 E0.01675
G1 X153.829 Y121.365 E2.55881
M73 Q5 S104
G1 X153.829 Y121.899 E0.01675
G1 X96.171 Y64.241 E2.55881
G1 X96.171 Y64.774 E0.01675
G1 X153.829 Y122.433 E2.55881
G1 X153.829 Y122.966 E0.01675
G1 X96.171 Y65.308 E2.55881
M73 P5 R103
G1 X96.171 Y65.842 E0.01675
G1 X153.829 Y123.500 E2.55881
G1 X153.829 Y124.034 E0.01675
G1 X96.171 Y66.375 E2.55881
G1 X96.171 Y66.909 E0.01675
G1 X153.829 Y124.567 E2.55881
G1 X153.829 Y125.101 E0.01675
G1 X96.171 Y67.443 E2.55881
G1 X96.171 Y67.977 E0.01675
G1 X153.829 Y125.635 E2.55881
G1 X153.829 Y126.169 E0.01675
G1 X96.171 Y68.510 E2.55881
G1 X96.171 Y69.044 E0.01675
G1 X153.829 Y126.702 E2.55881
G1 X153.829 Y127.236 E0.01675
G1 X96.171 Y69.578 E2.55881
G1 X96.171 Y70.111 E0.01675
G1 X153.829 Y127.770 E2.55881
G1 X153.829 Y128.303 E0.01675
G1 X96.171 Y70.645 E2.55881
G1 X96.171 Y71.179 E0.01675
G1 X153.829 Y128.837 E2.55881
M73 Q5 S103
G1 X153.829 Y129.371 E0.01675
G1 X96.171 Y71.713 E2.55881
M73 P6 R103
M73 Q6 S103
G1 X96.171 Y72.246 E0.01675
G1 X153.829 Y129.905 E2.55881
G1 X153.829 Y130.438 E0.01675
G1 X96.171 Y72.780 E2.55881
M73 P6 R102
G1 X96.171 Y73.314 E0.01675
G1 X153.829 Y130.972 E2.55881
G1 X153.829 Y131.506 E0.01675
G1 X96.171 Y73.848 E2.55881
G1 X96.171 Y74.381 E0.01675
G1 X153.829 Y132.040 E2.55881
G1 X153.829 Y132.573 E0.01675
G1 X96.171 Y74.915 E2.55881
G1 X96.171 Y75.449 E0.01675
G1 X153.829 Y133.107 E2.55881
G1 X153.829 Y133.641 E0.01675
G1 X96.171 Y75.982 E2.55881
G1 X96.171 Y76.516 E0.01675
G1 X153.829 Y134.174 E2.55881
G1 X153.829 Y134.708 E0.01675
G1 X96.171 Y77.050 E2.55881
G1 X96.171 Y77.584 E0.01675
G1 X153.829 Y135.242 E2.55881
G1 X153.829 Y135.776 E0.01675
G1 X96.171 Y78.117 E2.55881
G1 X96.171 Y78.651 E0.01675
G1 X153.829 Y136.309 E2.55881
G1 X153.829 Y136.843 E0.01675
G1 X96.171 Y79.185 E2.55881
M73 Q6 S102
G1 X96.171 Y79.718 E0.01675
G1 X153.829 Y137.377 E2.55881
G1 X153.829 Y137.910 E0.01675
G1 X96.171 Y80.252 E2.55881
M73 P7 R102
M73 Q7 S102
G1 X96.171 Y80.786 E0.01675
G1 X153.829 Y138.444 E2.55881
M73 P7 R101
G1 X153.829 Y138.978 E0.01675
G1 X96.171 Y81.320 E2.55881
G1 X96.171 Y81.853 E0.01675
G1 X153.829 Y139.512 E2.55881
G1 X153.829 Y140.045 E0.01675
G1 X96.171 Y82.387 E2.55881
G1 X96.171 Y82.921 E0.01675
G1 X153.829 Y140.579 E2.55881
G1 X153.829 Y141.113 E0.01675
G1 X96.171 Y83.454 E2.55881
G1 X96.171 Y83.988 E0.01675
G1 X153.829 Y141.646 E2.55881
G1 X153.829 Y142.180 E0.01675
G1 X96.171 Y84.522 E2.55881
G1 X96.171 Y85.056 E0.01675
G1 X153.829 Y142.714 E2.55881
G1 X153.829 Y143.248 E0.01675
G1 X96.171 Y85.589 E2.55881
G1 X96.171 Y86.123 E0.01675
G1 X153.829 Y143.781 E2.55881
G1 X153.829 Y144.315 E0.01675
G1 X96.171 Y86.657 E2.55881
M73 Q7 S101
G1 X96.171 Y87.190 E0.01675
G1 X153.829 Y144.849 E2.55881
