; generated by PrusaSlicer 2.3.0+win64 on 2021-06-16 at 14:07:53 UTC

; 

; external perimeters extrusion width = 0.45mm
; perimeters extrusion width = 0.45mm
; infill extrusion width = 0.45mm
; solid infill extrusion width = 0.45mm
; top infill extrusion width = 0.40mm
; first layer extrusion width = 0.42mm

M73 P0 R39
M73 Q0 S39
M201 X1000 Y1000 Z200 E5000 ; sets maximum accelerations, mm/sec^2
M203 X200 Y200 Z12 E120 ; sets maximum feedrates, mm/sec
M204 P1250 R1250 T1250 ; sets acceleration (P, T) and retract acceleration (R), mm/sec^2
M205 X8.00 Y8.00 Z0.40 E4.50 ; sets the jerk limits, mm/sec
M205 S0 T0 ; sets the minimum extruding and travel feed rate, mm/sec
M107
;TYPE:Custom
M862.3 P "MK3" ; printer model check
M862.1 P0.4 ; nozzle diameter check
M115 U3.9.2 ; tell printer latest fw version
G90 ; use absolute coordinates
M83 ; extruder relative mode
M104 S215 ; set extruder temp
M140 S60 ; set bed temp
M190 S60 ; wait for bed temp
M109 S215 ; wait for extruder temp
G28 W ; home all without mesh bed level
G80 ; mesh bed leveling
G1 Y-3.0 F1000.0 ; go outside print area
G92 E0.0
G1 X60.0 E9.0 F1000.0 ; intro line
G1 X100.0 E12.5 F1000.0 ; intro line
G92 E0.0
M221 S95

; Don't change E values below. Excessive value can damage the printer.
M907 E430 ; set extruder motor current
G21 ; set units to millimeters
G90 ; use absolute coordinates
M83 ; use relative distances for extrusion
M900 K0.05 ; Filament gcode LA 1.5
M900 K30 ; Filament gcode LA 1.0
;LAYER_CHANGE
;Z:0.2
;HEIGHT:0.2
;BEFORE_LAYER_CHANGE
G92 E0.0
;0.2


G1 E-0.80000 F2100.000
G1 Z0.400 F10800.000
;AFTER_LAYER_CHANGE
;0.2
G1 X103.968 Y81.694
G1 Z0.200
G1 E0.80000 F2100.000
M204 S1000
;TYPE:Skirt
;WIDTH:0.42
G1 F1200.000
G1 X104.299 Y81.079 E0.02190
G1 X104.797 Y80.584 E0.02201
G1 X105.418 Y80.257 E0.02201
G1 X106.108 Y80.125 E0.02201
G1 X143.408 Y80.123 E1.16952
G1 X144.264 Y80.284 E0.02731
G1 X145.004 Y80.743 E0.02731
G1 X145.530 Y81.437 E0.02731
G1 X145.770 Y82.271 E0.02720
G1 X147.479 Y101.568 E0.60742
G1 X147.481 Y119.675 E0.56773
G1 X147.340 Y120.462 E0.02508
G1 X146.922 Y121.188 E0.02626
G1 X140.090 Y129.069 E0.32701
G1 X139.696 Y129.427 E0.01668
G1 X139.233 Y129.688 E0.01668
G1 X138.314 Y129.877 E0.02942
G1 X126.277 Y129.877 E0.37739
G1 X125.497 Y129.736 E0.02484
G1 X125.007 Y129.492 E0.01716
G1 X124.583 Y129.140 E0.01728
G1 X104.468 Y107.858 E0.91817
G1 X104.034 Y107.205 E0.02461
G1 X103.879 Y106.731 E0.01562
G1 X103.827 Y106.240 E0.01550
G1 X103.827 Y82.489 E0.74471
G1 X103.957 Y81.753 E0.02343
; printing object FED3angled_June2020_door.stl id:0 copy 0
;WIPE_START
G1 F8640.000
G1 X104.299 Y81.079 E-0.17446
G1 X104.797 Y80.584 E-0.16211
G1 X105.418 Y80.257 E-0.16211
G1 X106.108 Y80.125 E-0.16211
G1 X106.537 Y80.125 E-0.09920
;WIPE_END
G1 E-0.04000 F2100.000
G1 Z0.600 F10800.000
G1 X123.423 Y99.550
G1 Z0.200
G1 E0.80000 F2100.000
;TYPE:Perimeter
G1 F1200.000
G1 X123.745 Y100.470 E0.03058
G1 X124.476 Y100.470 E0.02290
G1 X124.476 Y101.064 E0.01863
G1 X124.349 Y100.882 E0.00695
G1 X124.048 Y100.658 E0.01177
G1 X123.838 Y100.565 E0.00722
G1 X123.475 Y100.468 E0.01177
G1 X123.132 Y100.449 E0.01077
G1 X123.404 Y99.607 E0.02776
;WIPE_START
G1 F8640.000
G1 X123.745 Y100.470 E-0.21435
G1 X124.476 Y100.470 E-0.16863
G1 X124.476 Y101.064 E-0.13721
G1 X124.349 Y100.882 E-0.05120
G1 X124.048 Y100.658 E-0.08671
G1 X123.838 Y100.565 E-0.05316
G1 X123.634 Y100.510 E-0.04875
;WIPE_END
G1 E-0.04000 F2100.000
G1 Z0.600 F10800.000
G1 X124.476 Y97.836
G1 Z0.200
G1 E0.80000 F2100.000
G1 F1200.000
G1 X124.235 Y97.196 E0.02143
G1 X124.308 Y96.994 E0.00675
G1 X124.476 Y97.005 E0.00526
G1 X124.476 Y97.776 E0.02417
;WIPE_START
G1 F8640.000
G1 X124.235 Y97.196 E-0.14493
G1 X124.308 Y96.994 E-0.04974
G1 X124.476 Y97.005 E-0.03877
G1 X124.476 Y97.776 E-0.17803
;WIPE_END
G1 E-0.38853 F2100.000
G1 Z0.600 F10800.000
G1 X131.883 Y103.336
G1 Z0.200
G1 E0.80000 F2100.000
G1 F1200.000
G1 X132.481 Y103.187 E0.01933
G1 X132.783 Y103.158 E0.00949
G1 X133.052 Y103.200 E0.00855
G1 X133.181 Y103.307 E0.00525
G1 X133.257 Y103.441 E0.00484
G1 X133.319 Y103.670 E0.00743
G1 X133.343 Y103.989 E0.01002
G1 X133.316 Y104.290 E0.00948
G1 X133.247 Y104.516 E0.00741
G1 X133.160 Y104.662 E0.00532
G1 X133.048 Y104.764 E0.00478
G1 X132.972 Y104.800 E0.00262
G1 X132.775 Y104.826 E0.00622
G1 X132.601 Y104.811 E0.00547
G1 X131.883 Y104.523 E0.02426
G1 X131.883 Y103.396 E0.03534
;WIPE_START
G1 F8640.000
G1 X132.481 Y103.187 E-0.14632
G1 X132.783 Y103.158 E-0.06989
G1 X133.052 Y103.200 E-0.06299
G1 X133.181 Y103.307 E-0.03866
G1 X133.257 Y103.441 E-0.03562
G1 X133.319 Y103.670 E-0.05473
G1 X133.343 Y103.989 E-0.07379
G1 X133.316 Y104.290 E-0.06979
G1 X133.247 Y104.516 E-0.05457
G1 X133.160 Y104.662 E-0.03918
G1 X133.048 Y104.764 E-0.03520
G1 X132.972 Y104.800 E-0.01929
G1 X132.775 Y104.826 E-0.04579
G1 X132.714 Y104.820 E-0.01418
;WIPE_END
G1 E-0.04000 F2100.000
G1 Z0.600 F10800.000
G1 X125.164 Y95.570
G1 Z0.200
G1 E0.80000 F2100.000
G1 F1200.000
G1 X125.164 Y96.634 E0.03336
G1 X127.350 Y96.634 E0.06854
G1 X127.353 Y98.951 E0.07266
G1 X127.393 Y98.699 E0.00801
G1 X127.398 Y96.634 E0.06475
G1 X129.011 Y96.634 E0.05056
G1 X129.011 Y97.117 E0.01514
G1 X129.336 Y96.841 E0.01337
G1 X129.573 Y96.717 E0.00840
G1 X129.814 Y96.638 E0.00795
G1 X130.116 Y96.591 E0.00958
G1 X130.508 Y96.594 E0.01228
G1 X130.753 Y96.642 E0.00783
G1 X130.999 Y96.726 E0.00817
G1 X131.367 Y96.958 E0.01362
G1 X131.569 Y97.156 E0.00886
G1 X131.818 Y97.546 E0.01454
G1 X131.971 Y98.010 E0.01531
G1 X132.010 Y98.286 E0.00873
G1 X132.023 Y98.565 E0.00878
G1 X131.981 Y99.055 E0.01542
G1 X131.913 Y99.335 E0.00901
G1 X131.715 Y99.762 E0.01477
G1 X131.418 Y100.111 E0.01437
G1 X131.185 Y100.281 E0.00905
G1 X130.778 Y100.453 E0.01384
G1 X130.519 Y100.503 E0.00827
G1 X130.249 Y100.520 E0.00847
G1 X129.798 Y100.459 E0.01428
G1 X129.385 Y100.279 E0.01410
G1 X129.157 Y100.113 E0.00887
G1 X129.011 Y99.944 E0.00698
G1 X129.011 Y100.470 E0.01649
G1 X127.578 Y100.470 E0.04494
G1 X127.466 Y100.501 E0.00364
G1 X127.206 Y100.519 E0.00817
G1 X126.815 Y100.482 E0.01230
G1 X126.441 Y100.351 E0.01243
G1 X126.115 Y100.109 E0.01273
G1 X126.089 Y100.071 E0.00144
G1 X126.089 Y101.578 E0.04726
G1 X124.673 Y101.578 E0.04439
G1 X124.680 Y101.948 E0.01161
G1 X124.543 Y102.364 E0.01373
G1 X124.321 Y102.644 E0.01119
G1 X124.343 Y102.764 E0.00383
G1 X124.318 Y103.027 E0.00827
G1 X124.242 Y103.212 E0.00628
G1 X124.384 Y103.485 E0.00963
G1 X124.456 Y103.741 E0.00836
G1 X124.471 Y103.919 E0.00560
G1 X124.637 Y103.931 E0.00519
G1 X124.703 Y103.786 E0.00499
G1 X124.717 Y103.628 E0.00497
G1 X124.717 Y101.634 E0.06252
G1 X127.344 Y101.641 E0.08236
G1 X127.704 Y101.585 E0.01144
G1 X127.981 Y101.591 E0.00868
G1 X128.301 Y101.663 E0.01029
G1 X128.606 Y101.810 E0.01061
G1 X128.606 Y101.634 E0.00552
G1 X130.223 Y101.634 E0.05070
G1 X130.226 Y103.951 E0.07266
G1 X130.266 Y103.699 E0.00801
G1 X130.271 Y101.634 E0.06475
G1 X131.883 Y101.634 E0.05053
G1 X131.883 Y101.735 E0.00317
G1 X132.203 Y101.639 E0.01049
G1 X132.779 Y101.583 E0.01814
G1 X133.184 Y101.600 E0.01271
G1 X133.500 Y101.659 E0.01007
G1 X133.793 Y101.762 E0.00974
G1 X134.057 Y101.907 E0.00945
G1 X134.291 Y102.087 E0.00924
G1 X134.500 Y102.309 E0.00957
G1 X134.701 Y102.626 E0.01177
G1 X134.881 Y103.079 E0.01529
G1 X134.949 Y103.397 E0.01020
G1 X134.995 Y103.988 E0.01858
G1 X134.979 Y104.327 E0.01064
G1 X134.869 Y104.896 E0.01818
G1 X134.755 Y105.192 E0.00994
G1 X134.614 Y105.451 E0.00926
G1 X134.440 Y105.690 E0.00927
G1 X134.229 Y105.902 E0.00937
G1 X133.987 Y106.080 E0.00940
G1 X133.721 Y106.219 E0.00942
G1 X133.429 Y106.324 E0.00974
G1 X133.114 Y106.385 E0.01004
G1 X132.785 Y106.404 E0.01034
G1 X132.377 Y106.375 E0.01285
G1 X132.150 Y106.333 E0.00724
G1 X131.883 Y106.249 E0.00877
G1 X131.883 Y106.578 E0.01031
G1 X130.270 Y106.578 E0.05058
G1 X130.270 Y105.500 E0.03379
G1 X130.090 Y105.520 E0.00568
G1 X129.688 Y105.482 E0.01266
G1 X129.314 Y105.351 E0.01243
G1 X128.988 Y105.109 E0.01273
G1 X128.962 Y105.070 E0.00145
G1 X128.332 Y105.363 E0.02177
G1 X127.946 Y105.479 E0.01262
G1 X127.528 Y105.519 E0.01319
G1 X127.117 Y105.488 E0.01291
G1 X126.738 Y105.382 E0.01236
G1 X126.392 Y105.160 E0.01287
G1 X126.330 Y105.078 E0.00324
G1 X126.330 Y105.470 E0.01230
G1 X124.902 Y105.470 E0.04476
G1 X124.765 Y105.517 E0.00455
G1 X123.609 Y105.460 E0.03628
G1 X123.620 Y105.386 E0.00237
G1 X123.361 Y105.478 E0.00864
G1 X122.934 Y105.521 E0.01345
G1 X122.557 Y105.470 E0.01191
G1 X121.128 Y105.470 E0.04482
G1 X121.128 Y105.265 E0.00644
G1 X120.738 Y105.447 E0.01348
G1 X120.483 Y105.502 E0.00818
G1 X120.225 Y105.520 E0.00812
G1 X119.782 Y105.460 E0.01401
G1 X119.390 Y105.283 E0.01351
G1 X119.180 Y105.124 E0.00825
G1 X118.922 Y104.822 E0.01245
G1 X118.806 Y104.612 E0.00753
G1 X118.717 Y104.389 E0.00752
G1 X118.634 Y103.969 E0.01342
G1 X118.614 Y102.870 E0.03447
G1 X118.746 Y102.870 E0.00412
G1 X118.746 Y101.939 E0.02919
G1 X119.506 Y101.654 E0.02544
G1 X120.060 Y101.583 E0.01753
G1 X120.382 Y101.596 E0.01012
G1 X120.624 Y101.641 E0.00769
G1 X120.872 Y101.721 E0.00818
G1 X121.160 Y101.890 E0.01048
G1 X121.215 Y101.501 E0.01233
G1 X121.394 Y101.129 E0.01294
G1 X121.569 Y100.921 E0.00853
G1 X121.909 Y100.677 E0.01312
G1 X122.318 Y100.526 E0.01366
G1 X122.618 Y100.470 E0.00959
G1 X121.413 Y100.470 E0.03780
G1 X122.746 Y96.669 E0.12631
G1 X122.921 Y96.244 E0.01440
G1 X123.188 Y95.852 E0.01488
G1 X123.476 Y95.623 E0.01154
G1 X123.815 Y95.482 E0.01150
G1 X124.139 Y95.442 E0.01026
G1 X124.408 Y95.448 E0.00842
G1 X125.105 Y95.561 E0.02213
;WIPE_START
G1 F8640.000
G1 X125.164 Y96.634 E-0.24823
G1 X127.350 Y96.634 E-0.50475
G1 X127.350 Y96.664 E-0.00702
;WIPE_END
G1 E-0.04000 F2100.000
G1 Z0.600 F10800.000
G1 X125.094 Y102.011
G1 Z0.200
G1 E0.80000 F2100.000
;TYPE:External perimeter
G1 F1200.000
G1 X125.953 Y102.011 E0.02693
G1 X125.953 Y105.093 E0.09663
G1 X125.197 Y105.093 E0.02369
M73 Q1 S39
G1 X125.178 Y104.913 E0.00568
G1 X124.999 Y105.039 E0.00685
G1 X124.712 Y105.137 E0.00953
G1 X124.044 Y105.104 E0.02097
G1 X124.169 Y104.265 E0.02660
G1 X124.615 Y104.314 E0.01405
G1 X124.756 Y104.294 E0.00448
G1 X124.849 Y104.249 E0.00324
G1 X124.949 Y104.154 E0.00430
G1 X125.022 Y104.028 E0.00459
G1 X125.075 Y103.859 E0.00554
G1 X125.094 Y103.645 E0.00675
G1 X125.094 Y102.071 E0.04934
M73 P1 R39
G1 X125.095 Y101.611 F10800.000
;WIPE_START
G1 F8640.000
G1 X125.953 Y102.011 E-0.19883
G1 X125.953 Y104.441 E-0.56117
;WIPE_END
G1 E-0.04000 F2100.000
G1 Z0.600 F10800.000
G1 X126.351 Y102.071
G1 Z0.200
G1 E0.80000 F2100.000
G1 F1200.000
G1 X126.351 Y102.011 E0.00188
G1 X127.046 Y102.011 E0.02181
G1 X127.089 Y102.183 E0.00555
G1 X127.225 Y102.079 E0.00538
G1 X127.490 Y101.990 E0.00875
G1 X127.722 Y101.963 E0.00733
G1 X127.935 Y101.967 E0.00669
G1 X128.176 Y102.021 E0.00774
G1 X128.400 Y102.129 E0.00780
G1 X128.583 Y102.305 E0.00793
G1 X128.709 Y102.536 E0.00825
G1 X128.771 Y102.806 E0.00868
G1 X128.778 Y102.972 E0.00524
G1 X128.741 Y103.268 E0.00934
G1 X128.620 Y103.534 E0.00916
G1 X128.419 Y103.743 E0.00910
G1 X128.152 Y103.893 E0.00958
G1 X127.824 Y103.983 E0.01067
G1 X127.213 Y104.025 E0.01922
G1 X127.214 Y104.076 E0.00161
G1 X127.234 Y104.200 E0.00392
G1 X127.266 Y104.264 E0.00226
G1 X127.365 Y104.331 E0.00374
G1 X127.452 Y104.347 E0.00279
G1 X127.737 Y104.328 E0.00894
G1 X127.932 Y104.267 E0.00640
G1 X128.327 Y104.083 E0.01367
G1 X128.658 Y104.796 E0.02465
G1 X128.198 Y105.010 E0.01590
G1 X127.873 Y105.107 E0.01061
G1 X127.524 Y105.141 E0.01101
G1 X127.183 Y105.115 E0.01072
G1 X126.894 Y105.034 E0.00942
G1 X126.652 Y104.879 E0.00900
G1 X126.480 Y104.652 E0.00893
G1 X126.381 Y104.372 E0.00929
G1 X126.351 Y104.050 E0.01016
G1 X126.351 Y102.131 E0.06016
G1 X126.299 Y102.041 F10800.000
;WIPE_START
G1 F8640.000
G1 X126.351 Y102.011 E-0.02771
G1 X127.046 Y102.011 E-0.16059
G1 X127.089 Y102.183 E-0.04084
G1 X127.225 Y102.079 E-0.03959
G1 X127.490 Y101.990 E-0.06444
G1 X127.722 Y101.963 E-0.05397
G1 X127.935 Y101.967 E-0.04927
G1 X128.176 Y102.021 E-0.05703
G1 X128.400 Y102.129 E-0.05744
G1 X128.583 Y102.305 E-0.05842
G1 X128.709 Y102.536 E-0.06075
G1 X128.771 Y102.806 E-0.06391
G1 X128.776 Y102.918 E-0.02602
;WIPE_END
G1 E-0.04000 F2100.000
G1 Z0.600 F10800.000
G1 X128.983 Y102.131
G1 Z0.200
G1 E0.80000 F2100.000
G1 F1200.000
G1 X128.983 Y102.011 E0.00376
G1 X129.846 Y102.011 E0.02706
G1 X129.858 Y104.089 E0.06516
G1 X129.888 Y104.200 E0.00360
G1 X129.975 Y104.310 E0.00439
G1 X130.159 Y104.351 E0.00592
G1 X130.337 Y104.329 E0.00560
G1 X130.450 Y104.276 E0.00393
G1 X130.531 Y104.192 E0.00366
G1 X130.590 Y104.063 E0.00446
G1 X130.643 Y103.729 E0.01058
G1 X130.647 Y102.011 E0.05387
G1 X131.506 Y102.011 E0.02692
G1 X131.506 Y106.201 E0.13137
G1 X130.647 Y106.201 E0.02693
G1 X130.647 Y105.001 E0.03763
G1 X130.361 Y105.111 E0.00960
G1 X130.087 Y105.141 E0.00864
G1 X129.769 Y105.111 E0.01001
G1 X129.492 Y105.014 E0.00920
G1 X129.264 Y104.844 E0.00892
G1 X129.101 Y104.603 E0.00912
G1 X129.010 Y104.304 E0.00979
G1 X128.983 Y103.967 E0.01063
G1 X128.983 Y102.191 E0.05567
G1 X128.879 Y102.071 F10800.000
;WIPE_START
G1 F8640.000
G1 X128.983 Y102.011 E-0.04156
G1 X129.846 Y102.011 E-0.19927
G1 X129.858 Y104.089 E-0.47989
G1 X129.888 Y104.200 E-0.02652
G1 X129.922 Y104.243 E-0.01275
;WIPE_END
G1 E-0.04000 F2100.000
G1 Z0.600 F10800.000
G1 X131.786 Y102.191
G1 Z0.200
G1 E0.80000 F2100.000
G1 F1200.000
G1 X131.786 Y102.158 E0.00105
G1 X132.276 Y102.011 E0.01605
G1 X132.790 Y101.961 E0.01617
G1 X133.142 Y101.976 E0.01104
G1 X133.402 Y102.025 E0.00831
G1 X133.639 Y102.108 E0.00786
G1 X133.850 Y102.224 E0.00756
G1 X134.037 Y102.368 E0.00740
G1 X134.201 Y102.541 E0.00750
G1 X134.364 Y102.798 E0.00951
G1 X134.518 Y103.189 E0.01320
G1 X134.575 Y103.452 E0.00843
G1 X134.617 Y103.994 E0.01705
G1 X134.604 Y104.282 E0.00905
G1 X134.505 Y104.791 E0.01627
G1 X134.412 Y105.033 E0.00813
G1 X134.295 Y105.249 E0.00771
G1 X134.152 Y105.445 E0.00758
G1 X133.982 Y105.616 E0.00755
G1 X133.787 Y105.759 E0.00758
G1 X133.569 Y105.873 E0.00771
G1 X133.329 Y105.959 E0.00802
G1 X133.067 Y106.010 E0.00835
G1 X132.788 Y106.026 E0.00878
G1 X132.425 Y106.001 E0.01140
G1 X132.241 Y105.966 E0.00587
G1 X131.917 Y105.865 E0.01065
G1 X131.576 Y105.702 E0.01184
G1 X131.949 Y104.958 E0.02611
G1 X132.446 Y105.161 E0.01684
G1 X132.541 Y105.184 E0.00306
G1 X132.784 Y105.205 E0.00764
G1 X133.063 Y105.168 E0.00883
G1 X133.270 Y105.072 E0.00715
G1 X133.456 Y104.903 E0.00788
G1 X133.594 Y104.669 E0.00852
G1 X133.688 Y104.363 E0.01004
G1 X133.721 Y103.991 E0.01168
G1 X133.692 Y103.606 E0.01211
G1 X133.609 Y103.297 E0.01004
G1 X133.480 Y103.069 E0.00823
G1 X133.301 Y102.907 E0.00755
G1 X133.204 Y102.854 E0.00347
G1 X133.091 Y102.815 E0.00376
G1 X132.787 Y102.779 E0.00961
G1 X132.417 Y102.815 E0.01163
G1 X131.786 Y102.972 E0.02041
G1 X131.786 Y102.251 E0.02259
G1 X131.754 Y102.182 F10800.000
;WIPE_START
G1 F8640.000
G1 X131.786 Y102.158 E-0.02156
G1 X132.276 Y102.011 E-0.11820
G1 X132.790 Y101.961 E-0.11910
G1 X133.142 Y101.976 E-0.08132
G1 X133.402 Y102.025 E-0.06123
G1 X133.639 Y102.108 E-0.05789
G1 X133.850 Y102.224 E-0.05569
G1 X134.037 Y102.368 E-0.05448
G1 X134.201 Y102.541 E-0.05520
G1 X134.364 Y102.798 E-0.07002
G1 X134.468 Y103.061 E-0.06531
;WIPE_END
G1 E-0.04000 F2100.000
G1 Z0.600 F10800.000
G1 X130.655 Y97.008
G1 Z0.200
G1 E0.80000 F2100.000
G1 F1200.000
G1 X130.836 Y97.069 E0.00598
G1 X131.132 Y97.255 E0.01096
G1 X131.274 Y97.395 E0.00624
G1 X131.475 Y97.709 E0.01170
G1 X131.602 Y98.096 E0.01277
G1 X131.634 Y98.321 E0.00713
G1 X131.645 Y98.558 E0.00743
G1 X131.608 Y98.994 E0.01372
G1 X131.555 Y99.210 E0.00695
G1 X131.394 Y99.557 E0.01201
G1 X131.160 Y99.833 E0.01136
G1 X130.998 Y99.951 E0.00628
G1 X130.668 Y100.090 E0.01122
G1 X130.471 Y100.128 E0.00628
G1 X130.262 Y100.141 E0.00656
G1 X129.900 Y100.092 E0.01147
G1 X129.574 Y99.950 E0.01115
G1 X129.414 Y99.833 E0.00622
G1 X129.181 Y99.564 E0.01116
G1 X129.081 Y99.385 E0.00642
G1 X128.955 Y99.010 E0.01242
G1 X128.920 Y98.781 E0.00725
G1 X128.919 Y98.326 E0.01426
G1 X128.950 Y98.104 E0.00705
G1 X129.003 Y97.895 E0.00676
G1 X129.159 Y97.549 E0.01190
