; generated by PrusaSlicer 2.3.0+win64 on 2021-06-16 at 14:06:42 UTC

; 

; external perimeters extrusion width = 0.45mm
; perimeters extrusion width = 0.45mm
; infill extrusion width = 0.45mm
; solid infill extrusion width = 0.45mm
; top infill extrusion width = 0.40mm
; first layer extrusion width = 0.42mm

M73 P0 R33
M73 Q0 S33
M201 X1000 Y1000 Z200 E5000 ; sets maximum accelerations, mm/sec^2
M203 X200 Y200 Z12 E120 ; sets maximum feedrates, mm/sec
M204 P1250 R1250 T1250 ; sets acceleration (P, T) and retract acceleration (R), mm/sec^2
M205 X8.00 Y8.00 Z0.40 E4.50 ; sets the jerk limits, mm/sec
M205 S0 T0 ; sets the minimum extruding and travel feed rate, mm/sec
M107
;TYPE:Custom
M862.3 P "MK3" ; printer model check
M862.1 P0.4 ; nozzle diameter check
M115 U3.9.2 ; tell printer latest fw version
G90 ; use absolute coordinates
M83 ; extruder relative mode
M104 S215 ; set extruder temp
M140 S60 ; set bed temp
M190 S60 ; wait for bed temp
M109 S215 ; wait for extruder temp
G28 W ; home all without mesh bed level
G80 ; mesh bed leveling
G1 Y-3.0 F1000.0 ; go outside print area
G92 E0.0
G1 X60.0 E9.0 F1000.0 ; intro line
G1 X100.0 E12.5 F1000.0 ; intro line
G92 E0.0
M221 S95

; Don't change E values below. Excessive value can damage the printer.
M907 E430 ; set extruder motor current
G21 ; set units to millimeters
G90 ; use absolute coordinates
M83 ; use relative distances for extrusion
M900 K0.05 ; Filament gcode LA 1.5
M900 K30 ; Filament gcode LA 1.0
;LAYER_CHANGE
;Z:0.2
;HEIGHT:0.2
;BEFORE_LAYER_CHANGE
G92 E0.0
;0.2


G1 E-0.80000 F2100.000
G1 Z0.400 F10800.000
;AFTER_LAYER_CHANGE
;0.2
G1 X99.653 Y84.927
G1 Z0.200
G1 E0.80000 F2100.000
M204 S1000
;TYPE:Skirt
;WIDTH:0.42
G1 F1200.000
G1 X101.743 Y82.540 E0.09950
G1 X104.057 Y80.368 E0.09950
G1 X106.572 Y78.434 E0.09947
G1 X109.264 Y76.756 E0.09946
G1 X112.108 Y75.350 E0.09949
G1 X115.076 Y74.228 E0.09947
G1 X118.141 Y73.404 E0.09951
G1 X121.271 Y72.884 E0.09949
G1 X124.479 Y72.673 E0.10080
G1 X127.608 Y72.774 E0.09816
G1 X130.754 Y73.184 E0.09947
G1 X133.846 Y73.902 E0.09953
G1 X136.851 Y74.919 E0.09946
G1 X139.742 Y76.225 E0.09947
G1 X142.491 Y77.809 E0.09948
G1 X145.073 Y79.654 E0.09950
G1 X147.460 Y81.743 E0.09945
G1 X149.632 Y84.057 E0.09952
G1 X151.566 Y86.572 E0.09947
G1 X153.244 Y89.265 E0.09950
G1 X154.650 Y92.109 E0.09948
G1 X155.771 Y95.078 E0.09949
G1 X156.595 Y98.141 E0.09945
G1 X157.115 Y101.271 E0.09950
G1 X157.327 Y104.436 E0.09947
G1 X157.226 Y107.608 E0.09949
G1 X156.815 Y110.755 E0.09950
G1 X156.098 Y113.845 E0.09947
G1 X155.081 Y116.851 E0.09949
G1 X153.775 Y119.742 E0.09947
G1 X152.192 Y122.492 E0.09950
G1 X150.345 Y125.073 E0.09950
G1 X148.256 Y127.460 E0.09948
G1 X145.943 Y129.632 E0.09946
G1 X143.428 Y131.566 E0.09948
G1 X140.735 Y133.244 E0.09950
G1 X137.891 Y134.650 E0.09948
G1 X134.923 Y135.772 E0.09947
G1 X131.861 Y136.595 E0.09941
G1 X128.729 Y137.115 E0.09955
G1 X125.564 Y137.327 E0.09947
G1 X122.391 Y137.226 E0.09952
G1 X119.249 Y136.815 E0.09935
G1 X116.155 Y136.098 E0.09959
G1 X113.148 Y135.081 E0.09951
G1 X110.257 Y133.775 E0.09948
G1 X107.508 Y132.191 E0.09948
G1 X104.927 Y130.345 E0.09949
G1 X102.540 Y128.256 E0.09948
G1 X100.368 Y125.943 E0.09946
G1 X98.434 Y123.428 E0.09948
G1 X96.756 Y120.735 E0.09950
G1 X95.350 Y117.891 E0.09948
G1 X94.228 Y114.923 E0.09947
G1 X93.404 Y111.859 E0.09947
G1 X92.884 Y108.729 E0.09950
G1 X92.673 Y105.563 E0.09949
G1 X92.774 Y102.392 E0.09947
G1 X93.184 Y99.246 E0.09947
G1 X93.901 Y96.158 E0.09941
G1 X94.918 Y93.150 E0.09955
G1 X96.223 Y90.261 E0.09941
G1 X97.808 Y87.508 E0.09960
G1 X99.618 Y84.976 E0.09758
; printing object FED3angled_June2020_disk.stl id:0 copy 0
;WIPE_START
G1 F8640.000
G1 X101.743 Y82.540 E-0.74653
G1 X101.786 Y82.500 E-0.01347
;WIPE_END
G1 E-0.04000 F2100.000
G1 Z0.600 F10800.000
G1 X133.705 Y127.367
G1 Z0.200
G1 E0.80000 F2100.000
;TYPE:External perimeter
G1 F1200.000
G1 X134.164 Y127.122 E0.01631
G1 X134.661 Y126.971 E0.01631
G1 X135.146 Y126.922 E0.01526
G1 X135.438 Y126.933 E0.00917
G1 X135.702 Y126.972 E0.00837
G1 X136.195 Y127.122 E0.01616
G1 X136.654 Y127.367 E0.01632
G1 X137.057 Y127.697 E0.01633
G1 X137.386 Y128.099 E0.01629
G1 X137.630 Y128.554 E0.01617
G1 X137.721 Y128.809 E0.00849
G1 X137.821 Y129.313 E0.01612
G1 X137.821 Y129.836 E0.01638
G1 X137.716 Y130.342 E0.01622
G1 X137.616 Y130.594 E0.00849
G1 X137.488 Y130.829 E0.00841
G1 X137.324 Y131.042 E0.00841
G1 X137.140 Y131.226 E0.00818
G1 X136.936 Y131.384 E0.00808
G1 X136.335 Y131.747 E0.02200
G1 X135.899 Y131.928 E0.01482
G1 X135.218 Y132.096 E0.02199
G1 X134.962 Y132.129 E0.00809
G1 X134.699 Y132.128 E0.00824
G1 X134.435 Y132.094 E0.00837
G1 X134.178 Y132.018 E0.00838
G1 X133.929 Y131.912 E0.00849
G1 X133.496 Y131.626 E0.01628
G1 X133.127 Y131.258 E0.01633
G1 X132.838 Y130.826 E0.01631
G1 X132.640 Y130.344 E0.01632
G1 X132.538 Y129.834 E0.01631
G1 X132.538 Y129.314 E0.01633
G1 X132.640 Y128.803 E0.01631
G1 X132.838 Y128.323 E0.01629
G1 X133.124 Y127.894 E0.01617
G1 X133.306 Y127.694 E0.00849
G1 X133.658 Y127.405 E0.01428
G1 X133.685 Y126.967 F10800.000
;WIPE_START
G1 F8640.000
G1 X134.164 Y127.122 E-0.13373
G1 X134.661 Y126.971 E-0.12011
G1 X135.146 Y126.922 E-0.11240
G1 X135.438 Y126.933 E-0.06756
G1 X135.702 Y126.972 E-0.06163
G1 X136.195 Y127.122 E-0.11902
G1 X136.654 Y127.367 E-0.12018
G1 X136.739 Y127.437 E-0.02538
;WIPE_END
G1 E-0.04000 F2100.000
G1 Z0.600 F10800.000
G1 X117.424 Y129.057
G1 Z0.200
G1 E0.80000 F2100.000
G1 F1200.000
G1 X117.475 Y129.574 E0.01630
G1 X117.424 Y130.092 E0.01633
G1 X117.273 Y130.590 E0.01632
G1 X117.028 Y131.049 E0.01629
G1 X116.701 Y131.447 E0.01615
G1 X116.504 Y131.626 E0.00835
G1 X116.293 Y131.780 E0.00821
G1 X116.066 Y131.913 E0.00823
M73 Q1 S33
G1 X115.823 Y132.018 E0.00831
G1 X115.565 Y132.094 E0.00841
G1 X115.301 Y132.128 E0.00837
G1 X115.035 Y132.129 E0.00833
G1 X114.550 Y132.052 E0.01540
G1 X113.881 Y131.849 E0.02191
G1 X113.460 Y131.637 E0.01479
G1 X113.062 Y131.383 E0.01480
G1 X112.860 Y131.226 E0.00801
G1 X112.676 Y131.041 E0.00819
G1 X112.512 Y130.830 E0.00837
G1 X112.384 Y130.594 E0.00842
G1 X112.286 Y130.347 E0.00833
G1 X112.220 Y130.094 E0.00821
G1 X112.179 Y129.830 E0.00837
G1 X112.179 Y129.314 E0.01619
G1 X112.280 Y128.804 E0.01630
G1 X112.479 Y128.323 E0.01632
G1 X112.769 Y127.890 E0.01632
G1 X113.137 Y127.522 E0.01633
M73 P1 R33
G1 X113.569 Y127.233 E0.01630
G1 X114.045 Y127.037 E0.01613
G1 X114.304 Y126.971 E0.00838
G1 X114.594 Y126.931 E0.00918
G1 X115.081 Y126.933 E0.01526
G1 X115.591 Y127.035 E0.01633
G1 X116.072 Y127.233 E0.01629
G1 X116.505 Y127.522 E0.01633
G1 X116.869 Y127.887 E0.01616
G1 X117.031 Y128.104 E0.00850
G1 X117.273 Y128.559 E0.01614
G1 X117.407 Y128.999 E0.01444
G1 X117.803 Y129.185 F10800.000
;WIPE_START
G1 F8640.000
G1 X117.475 Y129.574 E-0.13365
G1 X117.424 Y130.092 E-0.12028
G1 X117.273 Y130.590 E-0.12015
G1 X117.028 Y131.049 E-0.12000
G1 X116.701 Y131.447 E-0.11895
G1 X116.504 Y131.626 E-0.06148
G1 X116.293 Y131.780 E-0.06045
G1 X116.199 Y131.835 E-0.02504
;WIPE_END
G1 E-0.04000 F2100.000
G1 Z0.600 F10800.000
G1 X102.632 Y116.653
G1 Z0.200
G1 E0.80000 F2100.000
G1 F1200.000
G1 X102.302 Y117.056 E0.01633
G1 X101.899 Y117.386 E0.01633
G1 X101.440 Y117.631 E0.01631
G1 X100.943 Y117.782 E0.01629
G1 X100.425 Y117.833 E0.01634
G1 X99.911 Y117.781 E0.01620
G1 X99.651 Y117.713 E0.00842
G1 X99.406 Y117.615 E0.00827
G1 X99.171 Y117.487 E0.00837
G1 X98.959 Y117.324 E0.00838
G1 X98.770 Y117.137 E0.00834
G1 X98.482 Y116.739 E0.01542
G1 X98.151 Y116.121 E0.02198
G1 X97.948 Y115.450 E0.02196
G1 X97.871 Y114.964 E0.01542
G1 X97.871 Y114.698 E0.00835
G1 X97.907 Y114.434 E0.00836
G1 X97.981 Y114.177 E0.00838
G1 X98.086 Y113.933 E0.00832
G1 X98.219 Y113.707 E0.00823
G1 X98.373 Y113.496 E0.00819
G1 X98.552 Y113.299 E0.00835
G1 X98.951 Y112.972 E0.01616
G1 X99.409 Y112.726 E0.01632
G1 X99.907 Y112.576 E0.01630
G1 X100.392 Y112.527 E0.01528
G1 X100.684 Y112.538 E0.00917
G1 X100.948 Y112.577 E0.00835
G1 X101.441 Y112.726 E0.01615
G1 X101.899 Y112.972 E0.01632
G1 X102.302 Y113.302 E0.01632
G1 X102.632 Y113.704 E0.01632
G1 X102.877 Y114.162 E0.01628
G1 X103.028 Y114.661 E0.01634
G1 X103.079 Y115.179 E0.01632
G1 X103.029 Y115.690 E0.01611
G1 X102.965 Y115.949 E0.00837
G1 X102.874 Y116.200 E0.00834
G1 X102.660 Y116.600 E0.01424
G1 X102.803 Y117.015 F10800.000
;WIPE_START
G1 F8640.000
G1 X102.302 Y117.056 E-0.13385
G1 X101.899 Y117.386 E-0.12024
G1 X101.440 Y117.631 E-0.12010
G1 X100.943 Y117.782 E-0.11994
G1 X100.425 Y117.833 E-0.12036
G1 X99.911 Y117.781 E-0.11933
G1 X99.801 Y117.752 E-0.02618
;WIPE_END
G1 E-0.04000 F2100.000
G1 Z0.600 F10800.000
G1 X100.685 Y97.461
G1 Z0.200
G1 E0.80000 F2100.000
G1 F1200.000
G1 X100.165 Y97.461 E0.01631
G1 X99.654 Y97.361 E0.01631
G1 X99.174 Y97.161 E0.01631
G1 X98.741 Y96.872 E0.01632
G1 X98.373 Y96.503 E0.01635
G1 X98.088 Y96.069 E0.01627
G1 X97.982 Y95.821 E0.00847
G1 X97.907 Y95.565 E0.00835
G1 X97.871 Y95.301 E0.00837
G1 X97.871 Y95.038 E0.00825
G1 X97.904 Y94.781 E0.00811
G1 X98.072 Y94.101 E0.02197
G1 X98.253 Y93.665 E0.01481
G1 X98.615 Y93.065 E0.02197
G1 X98.773 Y92.860 E0.00811
G1 X98.959 Y92.675 E0.00824
G1 X99.171 Y92.512 E0.00838
G1 X99.406 Y92.384 E0.00837
G1 X99.651 Y92.286 E0.00828
G1 X99.908 Y92.219 E0.00832
G1 X100.197 Y92.178 E0.00918
G1 X100.686 Y92.179 E0.01531
G1 X101.195 Y92.281 E0.01630
G1 X101.677 Y92.479 E0.01633
G1 X102.109 Y92.768 E0.01629
G1 X102.477 Y93.136 E0.01632
G1 X102.766 Y93.569 E0.01632
G1 X102.966 Y94.049 E0.01631
G1 X103.066 Y94.560 E0.01632
G1 X103.066 Y95.080 E0.01631
G1 X102.966 Y95.591 E0.01632
G1 X102.766 Y96.071 E0.01631
G1 X102.477 Y96.504 E0.01632
G1 X102.109 Y96.872 E0.01632
G1 X101.677 Y97.161 E0.01629
G1 X101.195 Y97.361 E0.01635
G1 X100.744 Y97.450 E0.01443
G1 X100.520 Y97.826 F10800.000
;WIPE_START
G1 F8640.000
G1 X100.165 Y97.461 E-0.13374
G1 X99.654 Y97.361 E-0.12012
G1 X99.174 Y97.161 E-0.12010
G1 X98.741 Y96.872 E-0.12019
G1 X98.373 Y96.503 E-0.12040
G1 X98.088 Y96.069 E-0.11984
G1 X98.044 Y95.967 E-0.02560
;WIPE_END
G1 E-0.04000 F2100.000
G1 Z0.600 F10800.000
G1 X112.944 Y82.302
G1 Z0.200
G1 E0.80000 F2100.000
G1 F1200.000
G1 X112.614 Y81.899 E0.01633
G1 X112.369 Y81.440 E0.01631
G1 X112.218 Y80.942 E0.01632
G1 X112.167 Y80.425 E0.01631
G1 X112.219 Y79.910 E0.01620
G1 X112.287 Y79.651 E0.00841
G1 X112.385 Y79.405 E0.00830
G1 X112.513 Y79.170 E0.00840
G1 X112.676 Y78.959 E0.00835
G1 X112.863 Y78.770 E0.00833
G1 X113.261 Y78.482 E0.01542
G1 X113.877 Y78.152 E0.02191
G1 X114.324 Y78.005 E0.01475
G1 X114.785 Y77.903 E0.01479
G1 X115.039 Y77.870 E0.00803
G1 X115.302 Y77.871 E0.00824
G1 X115.566 Y77.905 E0.00834
G1 X115.823 Y77.981 E0.00840
G1 X116.066 Y78.086 E0.00831
G1 X116.293 Y78.219 E0.00823
G1 X116.504 Y78.373 E0.00821
G1 X116.701 Y78.552 E0.00835
G1 X117.028 Y78.950 E0.01615
G1 X117.273 Y79.408 E0.01628
G1 X117.424 Y79.907 E0.01634
G1 X117.475 Y80.425 E0.01632
G1 X117.425 Y80.936 E0.01611
G1 X117.361 Y81.195 E0.00837
G1 X117.270 Y81.446 E0.00834
G1 X117.028 Y81.899 E0.01612
G1 X116.698 Y82.302 E0.01633
G1 X116.295 Y82.632 E0.01633
G1 X115.836 Y82.877 E0.01631
G1 X115.339 Y83.028 E0.01629
G1 X114.821 Y83.079 E0.01633
G1 X114.303 Y83.028 E0.01633
G1 X113.806 Y82.877 E0.01629
G1 X113.347 Y82.632 E0.01631
G1 X112.991 Y82.340 E0.01445
G1 X112.558 Y82.405 F10800.000
;WIPE_START
G1 F8640.000
G1 X112.614 Y81.899 E-0.13385
G1 X112.369 Y81.440 E-0.12011
G1 X112.218 Y80.942 E-0.12017
G1 X112.167 Y80.425 E-0.12010
G1 X112.219 Y79.910 E-0.11934
G1 X112.287 Y79.651 E-0.06196
G1 X112.385 Y79.405 E-0.06114
G1 X112.433 Y79.316 E-0.02332
;WIPE_END
G1 E-0.04000 F2100.000
G1 Z0.600 F10800.000
G1 X124.999 Y101.564
G1 Z0.200
G1 E0.80000 F2100.000
;TYPE:Perimeter
G1 F1200.000
G1 X125.944 Y101.827 E0.03077
G1 X126.680 Y102.485 E0.03095
G1 X126.783 Y102.667 E0.00657
G1 X127.108 Y102.668 E0.01018
G1 X127.507 Y102.798 E0.01315
G1 X127.826 Y103.018 E0.01217
G1 X127.996 Y103.191 E0.00760
G1 X128.286 Y103.628 E0.01644
G1 X128.437 Y104.000 E0.01259
G1 X128.562 Y104.552 E0.01774
G1 X128.589 Y105.126 E0.01800
G1 X128.551 Y105.528 E0.01267
G1 X128.416 Y106.064 E0.01734
G1 X128.256 Y106.419 E0.01222
G1 X128.053 Y106.719 E0.01136
G1 X127.898 Y106.887 E0.00716
G1 X127.586 Y107.119 E0.01220
G1 X127.207 Y107.257 E0.01262
G1 X126.997 Y107.277 E0.00662
G1 X122.897 Y107.333 E0.12857
G1 X122.493 Y107.202 E0.01331
G1 X122.160 Y106.971 E0.01271
G1 X121.904 Y106.683 E0.01207
G1 X121.709 Y106.360 E0.01184
G1 X121.565 Y106.007 E0.01194
G1 X121.470 Y105.636 E0.01202
G1 X121.418 Y105.253 E0.01210
G1 X121.412 Y104.864 E0.01222
G1 X121.448 Y104.481 E0.01206
G1 X121.530 Y104.106 E0.01204
G1 X121.659 Y103.751 E0.01185
G1 X121.834 Y103.433 E0.01138
G1 X121.967 Y103.255 E0.00695
G1 X122.241 Y102.991 E0.01193
G1 X122.605 Y102.793 E0.01299
G1 X122.973 Y102.723 E0.01174
G1 X123.186 Y102.720 E0.00669
G1 X123.319 Y102.485 E0.00845
G1 X124.055 Y101.827 E0.03094
G1 X124.941 Y101.580 E0.02884
G1 X124.999 Y101.955 F10800.000
;TYPE:External perimeter
G1 F1200.000
G1 X125.758 Y102.167 E0.02471
G1 X126.382 Y102.725 E0.02625
G1 X126.564 Y103.044 E0.01151
G1 X127.048 Y103.045 E0.01517
G1 X127.337 Y103.140 E0.00956
G1 X127.583 Y103.309 E0.00935
G1 X127.702 Y103.430 E0.00533
G1 X127.951 Y103.805 E0.01412
G1 X128.076 Y104.114 E0.01044
G1 X128.187 Y104.603 E0.01573
G1 X128.211 Y105.116 E0.01612
G1 X128.178 Y105.463 E0.01092
G1 X128.058 Y105.939 E0.01540
G1 X127.925 Y106.235 E0.01016
G1 X127.756 Y106.485 E0.00945
G1 X127.645 Y106.606 E0.00516
G1 X127.405 Y106.784 E0.00937
G1 X127.124 Y106.886 E0.00937
G1 X126.977 Y106.900 E0.00463
G1 X122.954 Y106.955 E0.12615
G1 X122.663 Y106.860 E0.00961
G1 X122.412 Y106.686 E0.00957
G1 X122.209 Y106.459 E0.00956
G1 X122.047 Y106.190 E0.00982
G1 X121.924 Y105.889 E0.01021
G1 X121.841 Y105.563 E0.01053
G1 X121.795 Y105.225 E0.01072
G1 X121.789 Y104.879 E0.01085
G1 X121.821 Y104.539 E0.01069
G1 X121.893 Y104.211 E0.01053
G1 X122.004 Y103.907 E0.01014
G1 X122.152 Y103.637 E0.00967
G1 X122.250 Y103.505 E0.00515
G1 X122.466 Y103.298 E0.00936
G1 X122.734 Y103.152 E0.00957
G1 X123.012 Y103.099 E0.00887
G1 X123.408 Y103.093 E0.01242
G1 X123.617 Y102.725 E0.01327
G1 X124.241 Y102.167 E0.02626
G1 X124.941 Y101.972 E0.02279
G1 X125.203 Y101.611 F10800.000
;WIPE_START
G1 F8640.000
G1 X125.758 Y102.167 E-0.19399
G1 X126.382 Y102.725 E-0.19334
G1 X126.564 Y103.044 E-0.08478
G1 X127.048 Y103.045 E-0.11172
G1 X127.337 Y103.140 E-0.07044
G1 X127.583 Y103.309 E-0.06883
G1 X127.695 Y103.423 E-0.03689
;WIPE_END
G1 E-0.04000 F2100.000
G1 Z0.600 F10800.000
G1 X112.043 Y79.244
G1 Z0.200
G1 E0.80000 F2100.000
;TYPE:Perimeter
G1 F1200.000
G1 X111.928 Y79.533 E0.00973
G1 X111.847 Y79.843 E0.01006
G1 X111.788 Y80.424 E0.01831
G1 X111.846 Y81.016 E0.01866
G1 X112.019 Y81.585 E0.01864
G1 X112.299 Y82.110 E0.01863
G1 X112.676 Y82.570 E0.01866
G1 X113.136 Y82.947 E0.01866
G1 X113.661 Y83.227 E0.01863
G1 X114.228 Y83.400 E0.01861
G1 X114.821 Y83.458 E0.01867
G1 X115.414 Y83.400 E0.01867
G1 X115.981 Y83.227 E0.01861
G1 X116.506 Y82.947 E0.01863
G1 X116.966 Y82.570 E0.01866
G1 X117.343 Y82.110 E0.01866
G1 X117.616 Y81.599 E0.01814
G1 X117.722 Y81.305 E0.00981
G1 X117.798 Y81.001 E0.00984
G1 X117.854 Y80.425 E0.01813
G1 X117.796 Y79.833 E0.01865
G1 X117.623 Y79.263 E0.01868
G1 X117.343 Y78.740 E0.01861
G1 X116.975 Y78.292 E0.01819
G1 X116.743 Y78.081 E0.00984
G1 X116.500 Y77.903 E0.00944
G1 X116.237 Y77.749 E0.00956
G1 X115.907 Y77.613 E0.01117
G1 X116.613 Y77.377 E0.02334
G1 X119.368 Y76.688 E0.08904
G1 X122.171 Y76.272 E0.08883
G1 X125.000 Y76.133 E0.08882
G1 X127.829 Y76.272 E0.08882
G1 X130.632 Y76.688 E0.08883
G1 X133.387 Y77.377 E0.08904
G1 X134.093 Y77.613 E0.02334
G1 X133.763 Y77.748 E0.01116
G1 X133.499 Y77.904 E0.00962
G1 X133.257 Y78.081 E0.00939
G1 X133.025 Y78.291 E0.00982
G1 X132.657 Y78.739 E0.01817
G1 X132.377 Y79.264 E0.01866
G1 X132.204 Y79.833 E0.01864
G1 X132.146 Y80.425 E0.01867
G1 X132.204 Y81.016 E0.01863
G1 X132.377 Y81.585 E0.01864
G1 X132.657 Y82.110 E0.01863
G1 X133.034 Y82.570 E0.01866
G1 X133.494 Y82.947 E0.01866
G1 X134.019 Y83.227 E0.01863
G1 X134.586 Y83.400 E0.01861
