; generated by PrusaSlicer 2.3.0+win64 on 2021-06-15 at 03:57:21 UTC

; 

; external perimeters extrusion width = 0.45mm
; perimeters extrusion width = 0.45mm
; infill extrusion width = 0.45mm
; solid infill extrusion width = 0.45mm
; top infill extrusion width = 0.40mm
; first layer extrusion width = 0.42mm

M73 P0 R39
M73 Q0 S39
M201 X1000 Y1000 Z200 E5000 ; sets maximum accelerations, mm/sec^2
M203 X200 Y200 Z12 E120 ; sets maximum feedrates, mm/sec
M204 P1250 R1250 T1250 ; sets acceleration (P, T) and retract acceleration (R), mm/sec^2
M205 X8.00 Y8.00 Z0.40 E4.50 ; sets the jerk limits, mm/sec
M205 S0 T0 ; sets the minimum extruding and travel feed rate, mm/sec
M107
;TYPE:Custom
M862.3 P "MK3" ; printer model check
M862.1 P0.4 ; nozzle diameter check
M115 U3.9.2 ; tell printer latest fw version
G90 ; use absolute coordinates
M83 ; extruder relative mode
M104 S215 ; set extruder temp
M140 S60 ; set bed temp
M190 S60 ; wait for bed temp
M109 S215 ; wait for extruder temp
G28 W ; home all without mesh bed level
G80 ; mesh bed leveling
G1 Y-3.0 F1000.0 ; go outside print area
G92 E0.0
G1 X60.0 E9.0 F1000.0 ; intro line
G1 X100.0 E12.5 F1000.0 ; intro line
G92 E0.0
M221 S95

; Don't change E values below. Excessive value can damage the printer.
M907 E430 ; set extruder motor current
G21 ; set units to millimeters
G90 ; use absolute coordinates
M83 ; use relative distances for extrusion
M900 K0.05 ; Filament gcode LA 1.5
M900 K30 ; Filament gcode LA 1.0
;LAYER_CHANGE
;Z:0.2
;HEIGHT:0.2
;BEFORE_LAYER_CHANGE
G92 E0.0
;0.2


G1 E-0.80000 F2100.000
G1 Z0.400 F10800.000
;AFTER_LAYER_CHANGE
;0.2
G1 X100.226 Y91.803
G1 Z0.200
G1 E0.80000 F2100.000
M204 S1000
;TYPE:Skirt
;WIDTH:0.42
G1 F1200.000
G1 X102.356 Y89.452 E0.09948
G1 X104.707 Y87.321 E0.09948
G1 X107.256 Y85.431 E0.09949
G1 X109.978 Y83.800 E0.09950
G1 X112.846 Y82.443 E0.09948
G1 X115.834 Y81.375 E0.09950
G1 X118.911 Y80.604 E0.09946
G1 X122.050 Y80.139 E0.09949
G1 X125.222 Y79.983 E0.09957
G1 X128.388 Y80.139 E0.09940
G1 X131.526 Y80.605 E0.09946
G1 X134.603 Y81.375 E0.09947
G1 X137.591 Y82.444 E0.09948
G1 X140.460 Y83.801 E0.09951
G1 X143.178 Y85.431 E0.09939
G1 X145.729 Y87.323 E0.09958
G1 X148.080 Y89.454 E0.09948
G1 X150.211 Y91.805 E0.09948
G1 X152.098 Y94.350 E0.09936
G1 X153.732 Y97.074 E0.09959
G1 X155.087 Y99.941 E0.09941
G1 X156.157 Y102.931 E0.09957
G1 X156.928 Y106.009 E0.09948
G1 X157.393 Y109.144 E0.09938
G1 X157.549 Y112.316 E0.09957
G1 X157.393 Y115.482 E0.09940
G1 X156.928 Y118.624 E0.09958
G1 X156.157 Y121.701 E0.09948
G1 X155.088 Y124.686 E0.09939
G1 X153.731 Y127.556 E0.09956
G1 X152.099 Y130.279 E0.09953
G1 X150.209 Y132.827 E0.09948
G1 X148.078 Y135.178 E0.09947
G1 X145.727 Y137.308 E0.09947
G1 X143.179 Y139.198 E0.09948
G1 X140.458 Y140.829 E0.09947
G1 X137.589 Y142.186 E0.09950
G1 X134.601 Y143.255 E0.09948
G1 X131.523 Y144.026 E0.09948
G1 X128.385 Y144.491 E0.09949
G1 X125.216 Y144.646 E0.09948
G1 X122.047 Y144.490 E0.09947
G1 X118.908 Y144.025 E0.09948
G1 X115.831 Y143.254 E0.09948
G1 X112.846 Y142.186 E0.09939
G1 X109.979 Y140.829 E0.09947
G1 X107.254 Y139.197 E0.09960
G1 X104.705 Y137.306 E0.09949
G1 X102.354 Y135.176 E0.09948
G1 X100.224 Y132.825 E0.09948
G1 X98.334 Y130.276 E0.09948
G1 X96.702 Y127.554 E0.09950
G1 X95.346 Y124.686 E0.09948
G1 X94.277 Y121.699 E0.09948
G1 X93.507 Y118.625 E0.09936
G1 X93.042 Y115.486 E0.09949
G1 X92.885 Y112.314 E0.09957
G1 X93.042 Y109.144 E0.09952
G1 X93.507 Y106.006 E0.09946
G1 X94.278 Y102.928 E0.09947
G1 X95.346 Y99.944 E0.09939
G1 X96.703 Y97.073 E0.09957
G1 X98.336 Y94.350 E0.09953
G1 X100.190 Y91.851 E0.09757
; printing object FED3_Mar2021_disk.STL id:0 copy 0
;WIPE_START
G1 F8640.000
G1 X102.356 Y89.452 E-0.74641
G1 X102.400 Y89.412 E-0.01359
;WIPE_END
G1 E-0.04000 F2100.000
G1 Z0.600 F10800.000
G1 X123.318 Y136.678
G1 Z0.200
G1 E0.80000 F2100.000
;TYPE:External perimeter
G1 F1200.000
G1 X123.780 Y136.440 E0.01632
G1 X124.280 Y136.298 E0.01629
G1 X124.767 Y136.257 E0.01532
G1 X125.059 Y136.274 E0.00917
G1 X125.321 Y136.317 E0.00833
G1 X125.812 Y136.476 E0.01618
G1 X126.267 Y136.729 E0.01631
G1 X126.663 Y137.066 E0.01633
G1 X126.986 Y137.474 E0.01631
G1 X127.223 Y137.937 E0.01631
G1 X127.366 Y138.438 E0.01631
G1 X127.407 Y138.956 E0.01630
G1 X127.347 Y139.473 E0.01634
G1 X127.189 Y139.964 E0.01615
G1 X127.071 Y140.202 E0.00834
G1 X126.931 Y140.424 E0.00823
G1 X126.769 Y140.630 E0.00820
G1 X126.582 Y140.816 E0.00830
G1 X126.370 Y140.981 E0.00841
G1 X126.136 Y141.110 E0.00839
G1 X125.889 Y141.208 E0.00831
G1 X125.409 Y141.314 E0.01540
G1 X124.710 Y141.371 E0.02199
G1 X124.015 Y141.289 E0.02196
G1 X123.539 Y141.167 E0.01541
G1 X123.295 Y141.060 E0.00833
G1 X123.065 Y140.923 E0.00840
G1 X122.861 Y140.751 E0.00837
G1 X122.680 Y140.560 E0.00827
G1 X122.521 Y140.342 E0.00844
G1 X122.284 Y139.883 E0.01622
G1 X122.141 Y139.382 E0.01634
G1 X122.100 Y138.864 E0.01628
G1 X122.159 Y138.346 E0.01634
G1 X122.319 Y137.852 E0.01628
G1 X122.572 Y137.397 E0.01632
G1 X122.910 Y137.001 E0.01632
G1 X123.271 Y136.715 E0.01443
G1 X123.298 Y136.279 F10800.000
;WIPE_START
G1 F8640.000
G1 X123.780 Y136.440 E-0.13378
G1 X124.280 Y136.298 E-0.11996
G1 X124.767 Y136.257 E-0.11279
G1 X125.059 Y136.274 E-0.06753
G1 X125.321 Y136.317 E-0.06138
G1 X125.812 Y136.476 E-0.11916
G1 X126.267 Y136.729 E-0.12008
G1 X126.350 Y136.800 E-0.02533
;WIPE_END
G1 E-0.04000 F2100.000
G1 Z0.600 F10800.000
G1 X141.084 Y131.920
G1 Z0.200
G1 E0.80000 F2100.000
G1 F1200.000
G1 X141.041 Y131.402 E0.01631
G1 X141.101 Y130.885 E0.01632
G1 X141.261 Y130.390 E0.01631
G1 X141.514 Y129.936 E0.01629
G1 X141.852 Y129.539 E0.01634
G1 X142.259 Y129.216 E0.01630
G1 X142.722 Y128.978 E0.01633
G1 X143.219 Y128.837 E0.01619
G1 X143.514 Y128.802 E0.00932
G1 X144.002 Y128.811 E0.01528
G1 X144.511 Y128.923 E0.01633
G1 X144.987 Y129.130 E0.01630
G1 X145.414 Y129.427 E0.01631
G1 X145.777 Y129.801 E0.01633
G1 X146.057 Y130.239 E0.01631
G1 X146.249 Y130.723 E0.01634
G1 X146.337 Y131.233 E0.01622
G1 X146.336 Y131.504 E0.00849
G1 X146.302 Y131.770 E0.00840
G1 X146.229 Y132.026 E0.00835
G1 X146.123 Y132.270 E0.00835
G1 X145.859 Y132.684 E0.01540
G1 X145.405 Y133.219 E0.02200
G1 X144.855 Y133.653 E0.02197
G1 X144.432 Y133.903 E0.01540
G1 X144.184 Y134.000 E0.00837
G1 X143.925 Y134.065 E0.00836
G1 X143.659 Y134.089 E0.00838
G1 X143.394 Y134.080 E0.00832
G1 X143.129 Y134.039 E0.00842
G1 X142.638 Y133.882 E0.01616
G1 X142.182 Y133.629 E0.01636
G1 X141.786 Y133.293 E0.01627
G1 X141.463 Y132.884 E0.01632
G1 X141.226 Y132.421 E0.01634
G1 X141.100 Y131.978 E0.01444
G1 X140.707 Y131.785 F10800.000
;WIPE_START
G1 F8640.000
G1 X141.041 Y131.402 E-0.13372
G1 X141.101 Y130.885 E-0.12016
G1 X141.261 Y130.390 E-0.12011
G1 X141.514 Y129.936 E-0.11997
G1 X141.852 Y129.539 E-0.12032
G1 X142.259 Y129.216 E-0.12005
G1 X142.358 Y129.165 E-0.02566
;WIPE_END
G1 E-0.04000 F2100.000
G1 Z0.600 F10800.000
G1 X150.754 Y115.213
G1 Z0.200
G1 E0.80000 F2100.000
G1 F1200.000
G1 X150.300 Y114.960 E0.01629
G1 X149.904 Y114.623 E0.01632
G1 X149.584 Y114.219 E0.01614
G1 X149.451 Y113.989 E0.00834
G1 X149.342 Y113.746 E0.00834
G1 X149.200 Y113.251 E0.01614
G1 X149.159 Y112.732 E0.01631
G1 X149.219 Y112.216 E0.01631
G1 X149.379 Y111.720 E0.01633
G1 X149.632 Y111.265 E0.01631
G1 X149.968 Y110.869 E0.01629
G1 X150.377 Y110.546 E0.01636
G1 X150.840 Y110.309 E0.01630
G1 X151.339 Y110.167 E0.01628
G1 X151.826 Y110.126 E0.01531
G1 X152.118 Y110.143 E0.00916
G1 X152.381 Y110.186 E0.00837
G1 X152.866 Y110.343 E0.01598
G1 X153.104 Y110.461 E0.00833
G1 X153.326 Y110.601 E0.00822
G1 X153.534 Y110.763 E0.00827
G1 X153.720 Y110.952 E0.00830
G1 X153.883 Y111.162 E0.00834
G1 X154.012 Y111.396 E0.00839
G1 X154.111 Y111.643 E0.00833
G1 X154.216 Y112.123 E0.01541
G1 X154.273 Y112.822 E0.02198
G1 X154.192 Y113.517 E0.02196
G1 X154.070 Y113.994 E0.01543
G1 X153.963 Y114.237 E0.00831
G1 X153.825 Y114.466 E0.00839
G1 X153.655 Y114.671 E0.00835
G1 X153.462 Y114.853 E0.00832
G1 X153.245 Y115.011 E0.00842
G1 X152.786 Y115.248 E0.01619
G1 X152.286 Y115.390 E0.01631
G1 X151.766 Y115.433 E0.01636
G1 X151.250 Y115.373 E0.01628
G1 X150.811 Y115.231 E0.01447
G1 X150.432 Y115.451 F10800.000
;WIPE_START
G1 F8640.000
G1 X150.300 Y114.960 E-0.13358
G1 X149.904 Y114.623 E-0.12020
G1 X149.584 Y114.219 E-0.11889
G1 X149.451 Y113.989 E-0.06140
G1 X149.342 Y113.746 E-0.06140
G1 X149.200 Y113.251 E-0.11889
G1 X149.159 Y112.732 E-0.12013
G1 X149.172 Y112.623 E-0.02552
;WIPE_END
G1 E-0.04000 F2100.000
G1 Z0.600 F10800.000
G1 X145.078 Y96.390
G1 Z0.200
G1 E0.80000 F2100.000
G1 F1200.000
G1 X144.565 Y96.483 E0.01632
G1 X144.046 Y96.473 E0.01630
G1 X143.537 Y96.363 E0.01632
G1 X143.060 Y96.155 E0.01631
G1 X142.632 Y95.859 E0.01632
G1 X142.271 Y95.485 E0.01630
G1 X141.989 Y95.048 E0.01631
G1 X141.799 Y94.563 E0.01632
G1 X141.706 Y94.051 E0.01632
G1 X141.715 Y93.531 E0.01631
G1 X141.826 Y93.022 E0.01632
G1 X142.033 Y92.545 E0.01631
G1 X142.329 Y92.117 E0.01632
G1 X142.700 Y91.760 E0.01615
G1 X142.916 Y91.605 E0.00834
G1 X143.147 Y91.473 E0.00833
G1 X143.626 Y91.283 E0.01617
G1 X144.136 Y91.195 E0.01623
G1 X144.407 Y91.196 E0.00850
G1 X144.673 Y91.230 E0.00839
G1 X144.929 Y91.304 E0.00836
G1 X145.173 Y91.409 E0.00834
G1 X145.587 Y91.674 E0.01542
G1 X146.122 Y92.128 E0.02197
G1 X146.556 Y92.677 E0.02196
G1 X146.807 Y93.100 E0.01541
G1 X146.904 Y93.348 E0.00836
G1 X146.968 Y93.607 E0.00837
G1 X146.992 Y93.873 E0.00837
G1 X146.984 Y94.144 E0.00848
G1 X146.878 Y94.650 E0.01623
G1 X146.671 Y95.129 E0.01635
G1 X146.373 Y95.556 E0.01633
G1 X146.004 Y95.913 E0.01612
G1 X145.787 Y96.069 E0.00837
G1 X145.556 Y96.201 E0.00833
G1 X145.134 Y96.368 E0.01426
G1 X144.974 Y96.777 F10800.000
;WIPE_START
G1 F8640.000
G1 X144.565 Y96.483 E-0.13381
G1 X144.046 Y96.473 E-0.12004
G1 X143.537 Y96.363 E-0.12021
G1 X143.060 Y96.155 E-0.12011
M73 Q1 S39
G1 X142.632 Y95.859 E-0.12015
G1 X142.271 Y95.485 E-0.12005
G1 X142.211 Y95.392 E-0.02563
;WIPE_END
G1 E-0.04000 F2100.000
G1 Z0.600 F10800.000
G1 X128.000 Y87.011
G1 Z0.200
G1 E0.80000 F2100.000
M73 P1 R39
G1 F1200.000
G1 X127.705 Y87.438 E0.01629
G1 X127.329 Y87.800 E0.01635
G1 X126.892 Y88.082 E0.01630
G1 X126.408 Y88.272 E0.01632
G1 X125.896 Y88.365 E0.01631
G1 X125.375 Y88.355 E0.01633
G1 X124.867 Y88.245 E0.01630
G1 X124.390 Y88.038 E0.01631
G1 X123.963 Y87.741 E0.01630
G1 X123.601 Y87.367 E0.01633
G1 X123.319 Y86.929 E0.01634
G1 X123.129 Y86.445 E0.01630
G1 X123.036 Y85.933 E0.01631
G1 X123.046 Y85.413 E0.01630
G1 X123.156 Y84.905 E0.01632
G1 X123.364 Y84.427 E0.01633
G1 X123.663 Y84.002 E0.01629
G1 X123.855 Y83.813 E0.00846
G1 X124.065 Y83.649 E0.00835
G1 X124.299 Y83.520 E0.00839
G1 X124.546 Y83.422 E0.00834
G1 X125.024 Y83.317 E0.01533
G1 X125.509 Y83.266 E0.01529
G1 X125.961 Y83.275 E0.01419
G1 X126.651 Y83.392 E0.02194
G1 X126.901 Y83.464 E0.00814
G1 X127.140 Y83.569 E0.00820
G1 X127.370 Y83.707 E0.00840
G1 X127.574 Y83.877 E0.00834
G1 X127.760 Y84.074 E0.00849
G1 X128.044 Y84.509 E0.01627
G1 X128.235 Y84.993 E0.01634
G1 X128.328 Y85.505 E0.01632
G1 X128.319 Y86.025 E0.01630
G1 X128.209 Y86.534 E0.01632
G1 X128.024 Y86.956 E0.01444
G1 X128.206 Y87.354 F10800.000
;WIPE_START
G1 F8640.000
G1 X127.705 Y87.438 E-0.13360
G1 X127.329 Y87.800 E-0.12039
G1 X126.892 Y88.082 E-0.12005
G1 X126.408 Y88.272 E-0.12017
G1 X125.896 Y88.365 E-0.12013
G1 X125.375 Y88.355 E-0.12024
G1 X125.268 Y88.332 E-0.02543
;WIPE_END
G1 E-0.04000 F2100.000
G1 Z0.600 F10800.000
G1 X125.453 Y106.931
G1 Z0.200
G1 E0.80000 F2100.000
;TYPE:Perimeter
G1 F1200.000
G1 X126.355 Y107.197 E0.02948
G1 X127.067 Y107.815 E0.02956
G1 X127.554 Y108.653 E0.03040
G1 X127.754 Y109.367 E0.02324
G1 X127.983 Y109.693 E0.01249
G1 X128.218 Y110.199 E0.01748
G1 X128.363 Y110.757 E0.01808
G1 X128.486 Y110.934 E0.00677
G1 X128.690 Y111.447 E0.01730
G1 X128.774 Y111.840 E0.01259
G1 X128.808 Y112.403 E0.01768
G1 X128.775 Y112.806 E0.01270
G1 X128.646 Y113.360 E0.01784
G1 X128.415 Y113.865 E0.01740
G1 X128.182 Y114.180 E0.01229
G1 X127.886 Y114.441 E0.01237
G1 X127.511 Y114.625 E0.01308
G1 X127.142 Y114.677 E0.01170
G1 X123.014 Y114.554 E0.12949
G1 X122.637 Y114.412 E0.01262
G1 X122.432 Y114.279 E0.00768
G1 X122.163 Y114.016 E0.01179
G1 X121.947 Y113.690 E0.01227
G1 X121.745 Y113.182 E0.01713
G1 X121.663 Y112.797 E0.01234
G1 X121.629 Y112.411 E0.01214
G1 X121.638 Y112.024 E0.01217
G1 X121.693 Y111.631 E0.01244
G1 X121.852 Y111.102 E0.01731
G1 X122.024 Y110.758 E0.01206
G1 X122.106 Y110.645 E0.00438
G1 X122.214 Y110.204 E0.01423
G1 X122.452 Y109.693 E0.01768
G1 X122.772 Y109.237 E0.01746
G1 X123.007 Y109.002 E0.01044
G1 X123.209 Y108.463 E0.01802
G1 X123.768 Y107.671 E0.03040
G1 X124.531 Y107.117 E0.02957
G1 X125.394 Y106.943 E0.02761
G1 X125.436 Y107.319 F10800.000
;TYPE:External perimeter
G1 F1200.000
G1 X126.170 Y107.535 E0.02398
G1 X126.772 Y108.059 E0.02503
G1 X127.204 Y108.801 E0.02693
G1 X127.408 Y109.531 E0.02376
G1 X127.655 Y109.882 E0.01346
G1 X127.862 Y110.328 E0.01540
G1 X127.989 Y110.802 E0.01537
G1 X127.996 Y110.889 E0.00276
G1 X128.151 Y111.114 E0.00855
G1 X128.328 Y111.557 E0.01496
G1 X128.399 Y111.891 E0.01070
G1 X128.430 Y112.399 E0.01596
G1 X128.401 Y112.748 E0.01099
G1 X128.287 Y113.238 E0.01577
G1 X128.089 Y113.672 E0.01497
G1 X127.903 Y113.924 E0.00980
G1 X127.675 Y114.125 E0.00953
G1 X127.399 Y114.260 E0.00962
G1 X127.121 Y114.299 E0.00881
G1 X123.088 Y114.179 E0.12651
G1 X122.808 Y114.073 E0.00937
G1 X122.668 Y113.983 E0.00522
G1 X122.455 Y113.774 E0.00936
G1 X122.282 Y113.514 E0.00979
G1 X122.107 Y113.072 E0.01490
G1 X122.036 Y112.741 E0.01062
G1 X122.006 Y112.399 E0.01075
G1 X122.014 Y112.054 E0.01082
G1 X122.062 Y111.711 E0.01086
G1 X122.203 Y111.241 E0.01539
G1 X122.347 Y110.954 E0.01007
G1 X122.454 Y110.806 E0.00572
G1 X122.572 Y110.330 E0.01538
G1 X122.780 Y109.882 E0.01548
G1 X123.062 Y109.481 E0.01539
G1 X123.332 Y109.210 E0.01197
G1 X123.545 Y108.641 E0.01906
G1 X124.040 Y107.940 E0.02692
G1 X124.686 Y107.470 E0.02504
G1 X125.377 Y107.331 E0.02210
G1 X125.654 Y106.983 F10800.000
;WIPE_START
G1 F8640.000
G1 X126.170 Y107.535 E-0.18897
G1 X126.772 Y108.059 E-0.18433
G1 X127.204 Y108.801 E-0.19830
G1 X127.408 Y109.531 E-0.17498
G1 X127.442 Y109.579 E-0.01344
;WIPE_END
G1 E-0.04000 F2100.000
G1 Z0.600 F10800.000
G1 X127.833 Y83.602
G1 Z0.200
G1 E0.80000 F2100.000
;TYPE:Perimeter
G1 F1200.000
G1 X127.805 Y83.579 E0.00114
G1 X128.542 Y83.641 E0.02320
G1 X131.342 Y84.106 E0.08900
G1 X134.078 Y84.842 E0.08881
G1 X136.728 Y85.843 E0.08882
G1 X139.267 Y87.098 E0.08882
G1 X141.671 Y88.597 E0.08884
G1 X143.923 Y90.328 E0.08904
G1 X144.476 Y90.825 E0.02330
G1 X144.105 Y90.818 E0.01162
G1 X143.524 Y90.918 E0.01849
G1 X142.983 Y91.132 E0.01823
G1 X142.712 Y91.287 E0.00980
G1 X142.458 Y91.470 E0.00981
G1 X142.040 Y91.872 E0.01817
G1 X141.702 Y92.361 E0.01867
G1 X141.465 Y92.906 E0.01862
G1 X141.338 Y93.487 E0.01865
G1 X141.329 Y94.082 E0.01865
G1 X141.434 Y94.667 E0.01864
G1 X141.652 Y95.220 E0.01866
G1 X141.974 Y95.720 E0.01864
G1 X142.387 Y96.148 E0.01864
G1 X142.876 Y96.486 E0.01864
G1 X143.420 Y96.724 E0.01863
G1 X144.002 Y96.850 E0.01866
G1 X144.596 Y96.860 E0.01862
G1 X145.182 Y96.755 E0.01867
G1 X145.720 Y96.542 E0.01816
G1 X145.991 Y96.387 E0.00979
G1 X146.246 Y96.204 E0.00984
G1 X146.662 Y95.802 E0.01813
G1 X147.002 Y95.313 E0.01867
G1 X147.239 Y94.765 E0.01873
G1 X147.360 Y94.188 E0.01847
G1 X147.366 Y93.817 E0.01163
G1 X147.844 Y94.388 E0.02336
G1 X149.495 Y96.699 E0.08904
G1 X150.909 Y99.154 E0.08884
G1 X152.075 Y101.735 E0.08881
G1 X152.983 Y104.419 E0.08882
G1 X153.623 Y107.178 E0.08882
G1 X153.991 Y109.994 E0.08905
G1 X154.031 Y110.738 E0.02334
G1 X153.785 Y110.481 E0.01112
G1 X153.543 Y110.292 E0.00963
G1 X153.289 Y110.131 E0.00943
G1 X153.008 Y109.993 E0.00982
G1 X152.470 Y109.819 E0.01772
G1 X152.159 Y109.768 E0.00988
G1 X151.821 Y109.748 E0.01063
G1 X151.271 Y109.795 E0.01730
G1 X150.702 Y109.957 E0.01857
G1 X150.173 Y110.227 E0.01862
G1 X149.705 Y110.597 E0.01870
G1 X149.321 Y111.050 E0.01862
G1 X149.032 Y111.569 E0.01863
G1 X148.849 Y112.135 E0.01866
G1 X148.780 Y112.726 E0.01863
G1 X148.827 Y113.319 E0.01865
