; generated by PrusaSlicer 2.3.0+win64 on 2021-06-15 at 04:04:38 UTC

; 

; external perimeters extrusion width = 0.45mm
; perimeters extrusion width = 0.45mm
; infill extrusion width = 0.45mm
; solid infill extrusion width = 0.45mm
; top infill extrusion width = 0.40mm
; first layer extrusion width = 0.42mm

M73 P0 R77
M73 Q0 S77
M201 X1000 Y1000 Z200 E5000 ; sets maximum accelerations, mm/sec^2
M203 X200 Y200 Z12 E120 ; sets maximum feedrates, mm/sec
M204 P1250 R1250 T1250 ; sets acceleration (P, T) and retract acceleration (R), mm/sec^2
M205 X8.00 Y8.00 Z0.40 E4.50 ; sets the jerk limits, mm/sec
M205 S0 T0 ; sets the minimum extruding and travel feed rate, mm/sec
M107
;TYPE:Custom
M862.3 P "MK3" ; printer model check
M862.1 P0.4 ; nozzle diameter check
M115 U3.9.2 ; tell printer latest fw version
G90 ; use absolute coordinates
M83 ; extruder relative mode
M104 S215 ; set extruder temp
M140 S60 ; set bed temp
M190 S60 ; wait for bed temp
M109 S215 ; wait for extruder temp
G28 W ; home all without mesh bed level
G80 ; mesh bed leveling
G1 Y-3.0 F1000.0 ; go outside print area
G92 E0.0
G1 X60.0 E9.0 F1000.0 ; intro line
M73 P0 R76
G1 X100.0 E12.5 F1000.0 ; intro line
G92 E0.0
M221 S95

; Don't change E values below. Excessive value can damage the printer.
M907 E430 ; set extruder motor current
G21 ; set units to millimeters
G90 ; use absolute coordinates
M83 ; use relative distances for extrusion
M900 K0.05 ; Filament gcode LA 1.5
M900 K30 ; Filament gcode LA 1.0
;LAYER_CHANGE
;Z:0.2
;HEIGHT:0.2
;BEFORE_LAYER_CHANGE
G92 E0.0
;0.2


G1 E-0.80000 F2100.000
G1 Z0.400 F10800.000
;AFTER_LAYER_CHANGE
;0.2
G1 X91.895 Y87.979
G1 Z0.200
G1 E0.80000 F2100.000
M204 S1000
;TYPE:Skirt
;WIDTH:0.42
G1 F1200.000
G1 X92.252 Y87.469 E0.01953
G1 X104.572 Y74.118 E0.56961
G1 X105.032 Y73.733 E0.01882
G1 X105.574 Y73.475 E0.01882
G1 X122.928 Y67.964 E0.57088
G1 X123.637 Y67.857 E0.02249
G1 X124.128 Y67.909 E0.01550
G1 X141.821 Y71.728 E0.56753
G1 X142.391 Y71.930 E0.01894
G1 X142.907 Y72.285 E0.01965
G1 X156.230 Y84.404 E0.56471
G1 X156.625 Y84.871 E0.01917
G1 X156.888 Y85.423 E0.01917
G1 X162.272 Y102.618 E0.56495
G1 X162.375 Y103.229 E0.01941
G1 X162.318 Y103.845 E0.01941
G1 X158.309 Y121.465 E0.56657
G1 X158.104 Y122.021 E0.01858
G1 X157.747 Y122.531 E0.01953
G1 X145.431 Y135.879 E0.56946
M73 Q0 S76
G1 X144.971 Y136.265 E0.01882
G1 X144.430 Y136.524 E0.01882
G1 X127.075 Y142.035 E0.57093
G1 X126.457 Y142.141 E0.01965
G1 X125.874 Y142.092 E0.01835
G1 X108.185 Y138.274 E0.56739
G1 X107.613 Y138.071 E0.01906
G1 X107.096 Y137.716 E0.01965
G1 X93.773 Y125.598 E0.56468
G1 X93.375 Y125.129 E0.01929
G1 X93.112 Y124.576 E0.01917
G1 X87.728 Y107.382 E0.56494
G1 X87.625 Y106.771 E0.01941
G1 X87.682 Y106.155 E0.01941
G1 X91.690 Y88.535 E0.56656
G1 X91.874 Y88.036 E0.01670
; printing object FED3angled_June2020_lid.STL id:0 copy 0
;WIPE_START
G1 F8640.000
G1 X92.252 Y87.469 E-0.15727
G1 X94.022 Y85.551 E-0.60273
;WIPE_END
G1 E-0.04000 F2100.000
G1 Z0.600 F10800.000
G1 X94.726 Y89.453
G1 Z0.200
G1 E0.80000 F2100.000
;TYPE:Perimeter
G1 F1200.000
G1 X106.753 Y76.420 E0.55606
G1 X123.671 Y71.048 E0.55655
G1 X140.943 Y74.775 E0.55402
G1 X153.940 Y86.599 E0.55090
G1 X159.185 Y103.350 E0.55038
G1 X155.273 Y120.547 E0.55296
G1 X143.247 Y133.580 E0.55604
G1 X126.328 Y138.952 E0.55659
G1 X109.057 Y135.225 E0.55399
G1 X96.060 Y123.401 E0.55090
G1 X90.815 Y106.650 E0.55037
G1 X94.713 Y89.512 E0.55108
G1 X94.345 Y89.428 F10800.000
;TYPE:External perimeter
G1 F1200.000
G1 X94.381 Y89.271 E0.00504
G1 X106.544 Y76.091 E0.56235
G1 X123.653 Y70.658 E0.56283
G1 X141.122 Y74.428 E0.56035
G1 X154.269 Y86.389 E0.55729
G1 X159.576 Y103.335 E0.55677
G1 X155.618 Y120.729 E0.55931
G1 X143.456 Y133.909 E0.56233
G1 X126.346 Y139.342 E0.56287
G1 X108.878 Y135.572 E0.56031
G1 X95.731 Y123.611 E0.55729
G1 X90.424 Y106.665 E0.55677
G1 X94.332 Y89.487 E0.55239
G1 X94.494 Y89.367 F10800.000
;WIPE_START
G1 F8640.000
G1 X94.381 Y89.271 E-0.05095
G1 X96.463 Y87.015 E-0.70905
;WIPE_END
G1 E-0.04000 F2100.000
G1 Z0.600 F10800.000
G1 X145.277 Y78.871
G1 Z0.200
G1 E0.80000 F2100.000
;TYPE:Solid infill
;WIDTH:0.420095
G1 F1200.000
G1 X153.935 Y87.529 E0.38401
G1 X154.178 Y88.305 E0.02552
G1 X141.910 Y76.037 E0.54414
G1 X140.809 Y75.036 E0.04665
G1 X140.256 Y74.916 E0.01776
G1 X154.421 Y89.082 E0.62829
G1 X154.664 Y89.858 E0.02552
G1 X139.575 Y74.769 E0.66924
G1 X138.895 Y74.623 E0.02182
G1 X154.908 Y90.635 E0.71019
M73 P1 R76
M73 Q1 S76
G1 X155.151 Y91.412 E0.02552
G1 X138.215 Y74.476 E0.75115
G1 X137.535 Y74.329 E0.02182
G1 X155.394 Y92.188 E0.79210
G1 X155.637 Y92.965 E0.02552
G1 X136.855 Y74.182 E0.83306
G1 X136.174 Y74.035 E0.02182
G1 X155.880 Y93.741 E0.87401
G1 X156.123 Y94.518 E0.02552
G1 X135.494 Y73.889 E0.91497
G1 X134.814 Y73.742 E0.02182
G1 X156.367 Y95.294 E0.95592
G1 X156.610 Y96.071 E0.02552
G1 X134.134 Y73.595 E0.99688
G1 X133.454 Y73.448 E0.02182
G1 X156.853 Y96.848 E1.03783
G1 X157.096 Y97.624 E0.02552
G1 X132.773 Y73.301 E1.07878
G1 X132.093 Y73.155 E0.02182
G1 X157.339 Y98.401 E1.11974
G1 X157.582 Y99.177 E0.02552
G1 X131.413 Y73.008 E1.16069
M73 P1 R75
G1 X130.733 Y72.861 E0.02182
G1 X157.826 Y99.954 E1.20165
G1 X158.069 Y100.730 E0.02552
G1 X130.052 Y72.714 E1.24260
G1 X129.372 Y72.567 E0.02182
G1 X158.312 Y101.507 E1.28356
G1 X158.555 Y102.283 E0.02552
G1 X128.692 Y72.420 E1.32451
G1 X128.012 Y72.274 E0.02182
G1 X158.798 Y103.060 E1.36547
M73 Q1 S75
G1 X158.893 Y103.362 E0.00992
G1 X158.832 Y103.628 E0.00854
G1 X127.332 Y72.127 E1.39715
G1 X126.651 Y71.980 E0.02182
G1 X158.733 Y104.062 E1.42293
G1 X158.635 Y104.497 E0.01398
G1 X125.971 Y71.833 E1.44872
G1 X125.291 Y71.686 E0.02182
G1 X158.536 Y104.931 E1.47450
G1 X158.437 Y105.366 E0.01398
G1 X124.611 Y71.540 E1.50029
G1 X123.931 Y71.393 E0.02182
G1 X158.338 Y105.800 E1.52607
G1 X158.239 Y106.235 E0.01398
G1 X123.426 Y71.422 E1.54405
G1 X123.021 Y71.551 E0.01332
G1 X158.140 Y106.669 E1.55762
M73 P2 R75
M73 Q2 S75
G1 X158.041 Y107.104 E0.01398
G1 X122.617 Y71.679 E1.57119
G1 X122.212 Y71.808 E0.01332
G1 X157.943 Y107.538 E1.58476
G1 X157.844 Y107.973 E0.01398
G1 X121.807 Y71.936 E1.59833
G1 X121.402 Y72.065 E0.01332
G1 X157.745 Y108.408 E1.61190
G1 X157.646 Y108.842 E0.01398
G1 X120.997 Y72.193 E1.62548
G1 X120.592 Y72.322 E0.01332
G1 X157.547 Y109.277 E1.63905
G1 X157.448 Y109.711 E0.01398
G1 X120.188 Y72.450 E1.65262
G1 X119.783 Y72.579 E0.01332
G1 X157.349 Y110.146 E1.66619
G1 X157.250 Y110.580 E0.01398
G1 X119.378 Y72.708 E1.67976
G1 X118.973 Y72.836 E0.01332
G1 X157.152 Y111.015 E1.69333
G1 X157.053 Y111.449 E0.01398
G1 X118.568 Y72.965 E1.70690
G1 X118.163 Y73.093 E0.01332
G1 X156.954 Y111.884 E1.72047
M73 P2 R74
G1 X156.855 Y112.318 E0.01398
G1 X117.758 Y73.222 E1.73404
G1 X117.354 Y73.350 E0.01332
G1 X156.756 Y112.753 E1.74761
G1 X156.657 Y113.187 E0.01398
G1 X116.949 Y73.479 E1.76119
M73 Q2 S74
G1 X116.544 Y73.608 E0.01332
G1 X156.558 Y113.622 E1.77476
G1 X156.460 Y114.057 E0.01398
G1 X116.139 Y73.736 E1.78833
M73 P3 R74
M73 Q3 S74
G1 X115.734 Y73.865 E0.01332
G1 X156.361 Y114.491 E1.80190
G1 X156.262 Y114.926 E0.01398
G1 X115.329 Y73.993 E1.81547
G1 X114.925 Y74.122 E0.01332
G1 X156.163 Y115.360 E1.82904
G1 X156.064 Y115.795 E0.01398
G1 X114.520 Y74.250 E1.84261
G1 X114.115 Y74.379 E0.01332
G1 X155.965 Y116.229 E1.85618
G1 X155.866 Y116.664 E0.01398
G1 X113.710 Y74.507 E1.86975
G1 X113.305 Y74.636 E0.01332
G1 X155.767 Y117.098 E1.88333
G1 X155.669 Y117.533 E0.01398
G1 X112.900 Y74.765 E1.89690
G1 X112.495 Y74.893 E0.01332
G1 X155.570 Y117.967 E1.91047
G1 X155.471 Y118.402 E0.01398
G1 X112.091 Y75.022 E1.92404
G1 X111.686 Y75.150 E0.01332
G1 X155.372 Y118.836 E1.93761
G1 X155.273 Y119.271 E0.01398
G1 X111.281 Y75.279 E1.95118
G1 X110.876 Y75.407 E0.01332
G1 X155.174 Y119.706 E1.96475
G1 X155.075 Y120.140 E0.01398
G1 X110.471 Y75.536 E1.97832
G1 X110.066 Y75.665 E0.01332
G1 X154.917 Y120.515 E1.98926
M73 P4 R73
M73 Q4 S74
G1 X154.661 Y120.793 E0.01184
G1 X109.662 Y75.793 E1.99586
G1 X109.257 Y75.922 E0.01332
G1 X154.405 Y121.070 E2.00247
G1 X154.149 Y121.348 E0.01184
G1 X108.852 Y76.050 E2.00907
M73 Q4 S73
G1 X108.447 Y76.179 E0.01332
G1 X153.893 Y121.625 E2.01567
G1 X153.637 Y121.902 E0.01184
G1 X108.042 Y76.307 E2.02227
G1 X107.637 Y76.436 E0.01332
G1 X153.381 Y122.180 E2.02888
G1 X153.125 Y122.457 E0.01184
G1 X107.233 Y76.564 E2.03548
G1 X106.910 Y76.667 E0.01060
G1 X106.858 Y76.723 E0.00242
G1 X152.869 Y122.735 E2.04073
G1 X152.613 Y123.012 E0.01184
G1 X106.602 Y77.001 E2.04073
G1 X106.346 Y77.278 E0.01184
G1 X152.357 Y123.289 E2.04073
G1 X152.101 Y123.567 E0.01184
G1 X106.090 Y77.556 E2.04073
G1 X105.834 Y77.833 E0.01184
G1 X151.845 Y123.844 E2.04074
G1 X151.589 Y124.122 E0.01184
G1 X105.578 Y78.110 E2.04074
G1 X105.322 Y78.388 E0.01184
G1 X151.333 Y124.399 E2.04074
M73 P5 R73
M73 Q5 S73
G1 X151.077 Y124.677 E0.01184
G1 X105.066 Y78.665 E2.04074
G1 X104.810 Y78.943 E0.01184
G1 X150.821 Y124.954 E2.04074
G1 X150.565 Y125.231 E0.01184
G1 X104.554 Y79.220 E2.04074
G1 X104.298 Y79.497 E0.01184
G1 X150.309 Y125.509 E2.04074
M73 P5 R72
G1 X150.053 Y125.786 E0.01184
G1 X104.042 Y79.775 E2.04074
G1 X103.786 Y80.052 E0.01184
G1 X149.797 Y126.064 E2.04074
G1 X149.542 Y126.341 E0.01184
G1 X103.530 Y80.330 E2.04074
M73 Q5 S72
G1 X103.274 Y80.607 E0.01184
G1 X149.286 Y126.619 E2.04074
G1 X149.030 Y126.896 E0.01184
G1 X103.018 Y80.885 E2.04074
G1 X102.762 Y81.162 E0.01184
G1 X148.774 Y127.173 E2.04074
G1 X148.518 Y127.451 E0.01184
G1 X102.506 Y81.439 E2.04074
G1 X102.250 Y81.717 E0.01184
G1 X148.262 Y127.728 E2.04074
G1 X148.006 Y128.006 E0.01184
G1 X101.994 Y81.994 E2.04074
G1 X101.738 Y82.272 E0.01184
G1 X147.750 Y128.283 E2.04074
M73 P6 R72
M73 Q6 S72
G1 X147.494 Y128.561 E0.01184
G1 X101.482 Y82.549 E2.04075
G1 X101.226 Y82.826 E0.01184
G1 X147.238 Y128.838 E2.04075
G1 X146.982 Y129.115 E0.01184
G1 X100.970 Y83.104 E2.04075
G1 X100.714 Y83.381 E0.01184
G1 X146.726 Y129.393 E2.04075
G1 X146.470 Y129.670 E0.01184
G1 X100.458 Y83.659 E2.04075
G1 X100.202 Y83.936 E0.01184
G1 X146.214 Y129.948 E2.04075
G1 X145.958 Y130.225 E0.01184
G1 X99.946 Y84.213 E2.04075
G1 X99.690 Y84.491 E0.01184
G1 X145.702 Y130.502 E2.04075
G1 X145.446 Y130.780 E0.01184
G1 X99.434 Y84.768 E2.04075
M73 P6 R71
G1 X99.178 Y85.046 E0.01184
G1 X145.190 Y131.057 E2.04075
G1 X144.934 Y131.335 E0.01184
G1 X98.922 Y85.323 E2.04075
G1 X98.666 Y85.600 E0.01184
G1 X144.678 Y131.612 E2.04075
M73 Q6 S71
G1 X144.422 Y131.890 E0.01184
G1 X98.410 Y85.878 E2.04075
G1 X98.154 Y86.155 E0.01184
G1 X144.166 Y132.167 E2.04075
M73 P7 R71
M73 Q7 S71
G1 X143.910 Y132.444 E0.01184
G1 X97.898 Y86.433 E2.04075
G1 X97.642 Y86.710 E0.01184
G1 X143.654 Y132.722 E2.04075
G1 X143.398 Y132.999 E0.01184
G1 X97.386 Y86.987 E2.04075
G1 X97.130 Y87.265 E0.01184
G1 X143.142 Y133.277 E2.04076
G1 X143.090 Y133.333 E0.00241
G1 X142.767 Y133.436 E0.01061
G1 X96.874 Y87.542 E2.03550
G1 X96.618 Y87.820 E0.01184
G1 X142.363 Y133.564 E2.02890
G1 X141.958 Y133.693 E0.01332
G1 X96.362 Y88.097 E2.02229
G1 X96.106 Y88.375 E0.01184
G1 X141.553 Y133.821 E2.01569
G1 X141.148 Y133.950 E0.01332
G1 X95.850 Y88.652 E2.00909
G1 X95.594 Y88.929 E0.01184
G1 X140.743 Y134.078 E2.00249
G1 X140.338 Y134.207 E0.01332
G1 X95.338 Y89.207 E1.99589
G1 X95.082 Y89.484 E0.01184
G1 X139.933 Y134.335 E1.98928
G1 X139.529 Y134.464 E0.01332
G1 X94.924 Y89.859 E1.97836
M73 P7 R70
G1 X94.825 Y90.294 E0.01398
G1 X139.124 Y134.593 E1.96479
M73 P8 R70
M73 Q8 S71
G1 X138.719 Y134.721 E0.01332
G1 X94.726 Y90.728 E1.95121
G1 X94.627 Y91.163 E0.01398
G1 X138.314 Y134.850 E1.93764
M73 Q8 S70
G1 X137.909 Y134.978 E0.01332
G1 X94.528 Y91.597 E1.92407
G1 X94.429 Y92.032 E0.01398
G1 X137.504 Y135.107 E1.91050
G1 X137.099 Y135.235 E0.01332
G1 X94.331 Y92.466 E1.89692
G1 X94.232 Y92.901 E0.01398
G1 X136.695 Y135.364 E1.88335
G1 X136.290 Y135.492 E0.01332
G1 X94.133 Y93.336 E1.86978
G1 X94.034 Y93.770 E0.01398
G1 X135.885 Y135.621 E1.85621
G1 X135.480 Y135.750 E0.01332
G1 X93.935 Y94.205 E1.84263
G1 X93.836 Y94.639 E0.01398
G1 X135.075 Y135.878 E1.82906
G1 X134.670 Y136.007 E0.01332
G1 X93.738 Y95.074 E1.81549
G1 X93.639 Y95.508 E0.01398
G1 X134.266 Y136.135 E1.80192
G1 X133.861 Y136.264 E0.01332
G1 X93.540 Y95.943 E1.78834
G1 X93.441 Y96.378 E0.01398
G1 X133.456 Y136.392 E1.77477
G1 X133.051 Y136.521 E0.01332
G1 X93.342 Y96.812 E1.76120
G1 X93.243 Y97.247 E0.01398
G1 X132.646 Y136.649 E1.74763
M73 P9 R70
M73 Q9 S70
G1 X132.241 Y136.778 E0.01332
G1 X93.144 Y97.681 E1.73405
G1 X93.046 Y98.116 E0.01398
G1 X131.836 Y136.907 E1.72048
G1 X131.432 Y137.035 E0.01332
G1 X92.947 Y98.550 E1.70691
M73 P9 R69
G1 X92.848 Y98.985 E0.01398
G1 X131.027 Y137.164 E1.69334
G1 X130.622 Y137.292 E0.01332
G1 X92.749 Y99.419 E1.67977
G1 X92.650 Y99.854 E0.01398
G1 X130.217 Y137.421 E1.66619
G1 X129.812 Y137.549 E0.01332
G1 X92.551 Y100.289 E1.65262
M73 Q9 S69
G1 X92.453 Y100.723 E0.01398
G1 X129.407 Y137.678 E1.63905
G1 X129.002 Y137.806 E0.01332
G1 X92.354 Y101.158 E1.62548
G1 X92.255 Y101.592 E0.01398
G1 X128.598 Y137.935 E1.61190
G1 X128.193 Y138.064 E0.01332
G1 X92.156 Y102.027 E1.59833
G1 X92.057 Y102.461 E0.01398
G1 X127.788 Y138.192 E1.58476
G1 X127.383 Y138.321 E0.01332
G1 X91.958 Y102.896 E1.57119
G1 X91.860 Y103.331 E0.01398
G1 X126.978 Y138.449 E1.55761
G1 X126.573 Y138.578 E0.01332
G1 X91.761 Y103.765 E1.54404
G1 X91.662 Y104.200 E0.01398
G1 X126.070 Y138.607 E1.52608
G1 X125.389 Y138.461 E0.02182
G1 X91.563 Y104.634 E1.50030
M73 P10 R69
M73 Q10 S69
G1 X91.464 Y105.069 E0.01398
G1 X124.709 Y138.314 E1.47451
G1 X124.029 Y138.167 E0.02182
G1 X91.365 Y105.503 E1.44873
G1 X91.267 Y105.938 E0.01398
G1 X123.349 Y138.020 E1.42294
G1 X122.669 Y137.873 E0.02182
G1 X91.168 Y106.373 E1.39715
G1 X91.107 Y106.638 E0.00854
G1 X91.202 Y106.940 E0.00992
G1 X121.988 Y137.727 E1.36547
G1 X121.308 Y137.580 E0.02182
G1 X91.445 Y107.717 E1.32451
G1 X91.688 Y108.493 E0.02552
G1 X120.628 Y137.433 E1.28356
G1 X119.948 Y137.286 E0.02182
G1 X91.931 Y109.270 E1.24260
G1 X92.174 Y110.046 E0.02552
G1 X119.267 Y137.139 E1.20165
G1 X118.587 Y136.992 E0.02182
G1 X92.418 Y110.823 E1.16069
G1 X92.661 Y111.599 E0.02552
G1 X117.907 Y136.846 E1.11974
M73 P10 R68
G1 X117.227 Y136.699 E0.02182
G1 X92.904 Y112.376 E1.07878
G1 X93.147 Y113.153 E0.02552
G1 X116.546 Y136.552 E1.03783
G1 X115.866 Y136.405 E0.02182
G1 X93.390 Y113.929 E0.99687
G1 X93.633 Y114.706 E0.02552
G1 X115.186 Y136.258 E0.95592
G1 X114.506 Y136.112 E0.02182
G1 X93.877 Y115.482 E0.91496
G1 X94.120 Y116.259 E0.02552
G1 X113.826 Y135.965 E0.87401
M73 Q10 S68
G1 X113.145 Y135.818 E0.02182
G1 X94.363 Y117.035 E0.83305
G1 X94.606 Y117.812 E0.02552
G1 X112.465 Y135.671 E0.79210
G1 X111.785 Y135.524 E0.02182
G1 X94.849 Y118.589 E0.75114
G1 X95.092 Y119.365 E0.02552
G1 X111.105 Y135.377 E0.71019
G1 X110.424 Y135.231 E0.02182
G1 X95.336 Y120.142 E0.66923
G1 X95.579 Y120.918 E0.02552
G1 X109.744 Y135.084 E0.62828
G1 X109.191 Y134.964 E0.01775
G1 X108.089 Y133.962 E0.04671
G1 X95.822 Y121.695 E0.54408
G1 X96.065 Y122.471 E0.02552
G1 X104.722 Y131.128 E0.38395
; stop printing object FED3angled_June2020_lid.STL id:0 copy 0
M106 S84.15
;LAYER_CHANGE
;Z:0.35
;HEIGHT:0.15
;BEFORE_LAYER_CHANGE
G92 E0.0
;0.35


;WIPE_START
G1 F8640.000
G1 X102.394 Y128.801 E-0.76000
;WIPE_END
G1 E-0.04000 F2100.000
G1 Z0.600 F10800.000
;AFTER_LAYER_CHANGE
;0.35
M104 S210 ; set temperature
G1 X93.375 Y125.129
G1 Z0.350
G1 E0.80000 F2100.000
;TYPE:Skirt
;WIDTH:0.42
G1 F3000.000
G1 X93.112 Y124.576 E0.01479
G1 X87.728 Y107.382 E0.43576
G1 X87.625 Y106.771 E0.01497
G1 X87.682 Y106.155 E0.01497
G1 X91.690 Y88.535 E0.43701
G1 X91.895 Y87.979 E0.01433
G1 X92.252 Y87.469 E0.01506
G1 X104.572 Y74.118 E0.43937
G1 X105.032 Y73.733 E0.01452
G1 X105.574 Y73.475 E0.01452
G1 X122.928 Y67.964 E0.44035
G1 X123.637 Y67.857 E0.01734
G1 X124.128 Y67.909 E0.01195
G1 X141.821 Y71.728 E0.43776
G1 X142.391 Y71.930 E0.01461
G1 X142.907 Y72.285 E0.01516
G1 X156.230 Y84.404 E0.43558
G1 X156.625 Y84.871 E0.01479
G1 X156.888 Y85.423 E0.01479
G1 X162.272 Y102.618 E0.43577
M73 P11 R68
G1 X162.375 Y103.229 E0.01497
G1 X162.318 Y103.845 E0.01497
