; generated by PrusaSlicer 2.3.0+win64 on 2021-06-15 at 03:54:49 UTC

; 

; external perimeters extrusion width = 0.45mm
; perimeters extrusion width = 0.45mm
; infill extrusion width = 0.45mm
; solid infill extrusion width = 0.45mm
; top infill extrusion width = 0.40mm
; support material extrusion width = 0.35mm
; first layer extrusion width = 0.42mm

M73 P0 R14
M73 Q0 S14
M201 X1000 Y1000 Z200 E5000 ; sets maximum accelerations, mm/sec^2
M203 X200 Y200 Z12 E120 ; sets maximum feedrates, mm/sec
M204 P1250 R1250 T1250 ; sets acceleration (P, T) and retract acceleration (R), mm/sec^2
M205 X8.00 Y8.00 Z0.40 E4.50 ; sets the jerk limits, mm/sec
M205 S0 T0 ; sets the minimum extruding and travel feed rate, mm/sec
M107
;TYPE:Custom
M862.3 P "MK3" ; printer model check
M862.1 P0.4 ; nozzle diameter check
M115 U3.9.2 ; tell printer latest fw version
G90 ; use absolute coordinates
M83 ; extruder relative mode
M104 S215 ; set extruder temp
M140 S60 ; set bed temp
M190 S60 ; wait for bed temp
M109 S215 ; wait for extruder temp
G28 W ; home all without mesh bed level
G80 ; mesh bed leveling
G1 Y-3.0 F1000.0 ; go outside print area
G92 E0.0
G1 X60.0 E9.0 F1000.0 ; intro line
G1 X100.0 E12.5 F1000.0 ; intro line
G92 E0.0
M221 S95

; Don't change E values below. Excessive value can damage the printer.
M907 E430 ; set extruder motor current
G21 ; set units to millimeters
G90 ; use absolute coordinates
M83 ; use relative distances for extrusion
M900 K0.05 ; Filament gcode LA 1.5
M900 K30 ; Filament gcode LA 1.0
;LAYER_CHANGE
;Z:0.2
;HEIGHT:0.2
;BEFORE_LAYER_CHANGE
G92 E0.0
;0.2


G1 E-0.80000 F2100.000
G1 Z0.400 F10800.000
;AFTER_LAYER_CHANGE
;0.2
G1 X114.783 Y88.608
G1 Z0.200
G1 E0.80000 F2100.000
M204 S1000
;TYPE:Skirt
;WIDTH:0.42
G1 F1200.000
G1 X115.304 Y88.154 E0.02167
G1 X115.921 Y87.844 E0.02167
G1 X116.601 Y87.697 E0.02180
G1 X133.435 Y87.517 E0.52786
G1 X136.712 Y87.699 E0.10291
M73 Q1 S14
G1 X137.542 Y87.914 E0.02689
G1 X138.134 Y88.263 E0.02154
G1 X138.620 Y88.749 E0.02154
G1 X138.971 Y89.339 E0.02154
M73 P1 R14
G1 X139.165 Y89.998 E0.02154
G1 X139.201 Y119.754 E0.93297
G1 X139.120 Y120.391 E0.02014
G1 X138.894 Y120.992 E0.02014
G1 X138.484 Y121.583 E0.02256
G1 X137.938 Y122.045 E0.02243
G1 X137.291 Y122.351 E0.02243
G1 X136.587 Y122.480 E0.02243
G1 X116.798 Y122.483 E0.62048
G1 X116.169 Y122.400 E0.01988
G1 X115.576 Y122.177 E0.01988
G1 X114.979 Y121.760 E0.02282
G1 X114.512 Y121.202 E0.02282
G1 X114.207 Y120.542 E0.02282
G1 X114.086 Y119.828 E0.02269
G1 X114.085 Y90.412 E0.92232
G1 X114.166 Y89.775 E0.02014
G1 X114.391 Y89.178 E0.02001
G1 X114.749 Y88.658 E0.01979
G1 X115.057 Y88.872 F10800.000
G1 F1200.000
G1 X115.529 Y88.457 E0.01969
G1 X116.067 Y88.192 E0.01882
G1 X116.655 Y88.071 E0.01882
G1 X133.433 Y87.894 E0.52608
G1 X136.656 Y88.073 E0.10123
G1 X137.342 Y88.239 E0.02213
G1 X137.875 Y88.540 E0.01917
G1 X138.310 Y88.964 E0.01906
G1 X138.625 Y89.488 E0.01917
G1 X138.796 Y90.076 E0.01917
G1 X138.824 Y119.748 E0.93036
G1 X138.753 Y120.306 E0.01763
G1 X138.555 Y120.828 E0.01752
G1 X138.197 Y121.338 E0.01953
G1 X137.722 Y121.735 E0.01941
G1 X137.161 Y121.996 E0.01941
G1 X136.551 Y122.104 E0.01941
G1 X116.808 Y122.106 E0.61901
M73 P2 R14
M73 Q2 S14
G1 X116.258 Y122.034 E0.01740
G1 X115.740 Y121.837 E0.01740
G1 X115.224 Y121.474 E0.01977
G1 X114.824 Y120.991 E0.01965
G1 X114.565 Y120.421 E0.01965
G1 X114.463 Y119.802 E0.01965
G1 X114.462 Y90.422 E0.92122
G1 X114.533 Y89.864 E0.01763
G1 X114.731 Y89.341 E0.01752
G1 X115.023 Y88.921 E0.01604
; printing object FED3angled_June2020_nose.STL id:0 copy 0
;WIPE_START
G1 F8640.000
G1 X115.529 Y88.457 E-0.15849
G1 X116.067 Y88.192 E-0.13859
G1 X116.655 Y88.071 E-0.13859
G1 X118.060 Y88.056 E-0.32433
;WIPE_END
G1 E-0.04000 F2100.000
G1 Z0.600 F10800.000
G1 X129.232 Y93.268
G1 Z0.200
G1 E0.80000 F2100.000
;TYPE:Support material interface
;WIDTH:0.35
G1 F1200.000
G1 X129.232 Y116.589 E0.59548
G1 X129.750 Y116.589 E0.01322
G1 X129.750 Y93.411 E0.59183
G1 X130.268 Y93.411 E0.01322
G1 X130.267 Y116.589 E0.59183
G1 X130.785 Y116.589 E0.01322
G1 X130.785 Y93.411 E0.59183
G1 X131.303 Y93.411 E0.01322
G1 X131.303 Y116.589 E0.59183
M73 P2 R13
M73 Q3 S14
G1 X131.821 Y116.589 E0.01322
M73 P3 R13
G1 X131.821 Y93.411 E0.59183
G1 X132.339 Y93.411 E0.01322
G1 X132.339 Y116.589 E0.59183
G1 X132.857 Y116.589 E0.01322
G1 X132.857 Y93.411 E0.59183
M73 Q3 S13
G1 X133.374 Y93.411 E0.01322
G1 X133.374 Y116.732 E0.59548
G1 X136.447 Y119.729 F10800.000
;TYPE:Support material
;WIDTH:0.42
G1 F1200.000
G1 X136.447 Y90.441 E0.91832
G1 X135.693 Y90.441 E0.02365
G1 X135.693 Y119.559 E0.91300
G1 X134.939 Y119.559 E0.02365
G1 X134.939 Y90.441 E0.91300
M73 P4 R13
M73 Q4 S13
G1 X134.184 Y90.441 E0.02365
G1 X134.184 Y119.559 E0.91300
G1 X133.430 Y119.559 E0.02365
G1 X133.430 Y116.936 E0.08224
G1 X132.676 Y116.936 E0.02365
G1 X132.676 Y119.559 E0.08224
G1 X131.922 Y119.559 E0.02365
G1 X131.922 Y116.936 E0.08224
G1 X131.168 Y116.936 E0.02365
G1 X131.168 Y119.559 E0.08224
G1 X130.414 Y119.559 E0.02365
G1 X130.414 Y116.936 E0.08224
G1 X129.659 Y116.936 E0.02365
G1 X129.659 Y119.559 E0.08224
G1 X128.905 Y119.559 E0.02365
G1 X128.905 Y116.936 E0.08224
G1 X128.613 Y116.936 E0.00916
G1 X128.613 Y93.063 E0.74852
G1 X128.905 Y93.063 E0.00916
G1 X128.905 Y90.441 E0.08224
G1 X129.659 Y90.441 E0.02365
G1 X129.659 Y93.063 E0.08224
G1 X130.414 Y93.063 E0.02365
G1 X130.414 Y90.441 E0.08224
G1 X131.168 Y90.441 E0.02365
G1 X131.168 Y93.063 E0.08224
G1 X131.922 Y93.063 E0.02365
G1 X131.922 Y90.441 E0.08224
G1 X132.676 Y90.441 E0.02365
G1 X132.676 Y93.063 E0.08224
G1 X133.430 Y93.063 E0.02365
G1 X133.430 Y90.271 E0.08756
G1 X128.151 Y119.729 F10800.000
G1 F1200.000
G1 X128.151 Y90.441 E0.91832
G1 X127.397 Y90.441 E0.02365
M73 Q5 S13
G1 X127.397 Y119.559 E0.91300
M73 P5 R13
G1 X126.643 Y119.559 E0.02365
G1 X126.643 Y90.441 E0.91300
G1 X125.889 Y90.441 E0.02365
G1 X125.889 Y119.559 E0.91300
G1 X125.135 Y119.559 E0.02365
G1 X125.135 Y90.441 E0.91300
G1 X124.380 Y90.441 E0.02365
G1 X124.380 Y100.973 E0.33025
G1 X123.626 Y100.973 E0.02365
G1 X123.626 Y90.441 E0.33025
G1 X122.872 Y90.441 E0.02365
G1 X122.872 Y100.973 E0.33025
G1 X122.683 Y100.973 E0.00592
G1 X122.375 Y101.282 E0.01366
G1 X122.375 Y108.717 E0.23314
G1 X122.683 Y109.026 E0.01366
G1 X122.872 Y109.026 E0.00592
G1 X122.872 Y119.559 E0.33028
M73 P6 R13
M73 Q6 S13
G1 X123.626 Y119.559 E0.02365
G1 X123.626 Y109.026 E0.33028
G1 X124.380 Y109.026 E0.02365
G1 X124.380 Y119.729 E0.33560
G1 X122.118 Y119.729 F10800.000
G1 F1200.000
G1 X122.118 Y90.441 E0.91832
G1 X121.364 Y90.441 E0.02365
G1 X121.364 Y119.559 E0.91300
G1 X120.610 Y119.559 E0.02365
G1 X120.610 Y90.441 E0.91300
G1 X119.855 Y90.441 E0.02365
G1 X119.855 Y119.559 E0.91300
G1 X119.101 Y119.559 E0.02365
G1 X119.101 Y90.441 E0.91300
M73 P7 R13
M73 Q7 S13
G1 X118.347 Y90.441 E0.02365
G1 X118.347 Y119.559 E0.91300
G1 X117.593 Y119.559 E0.02365
G1 X117.593 Y90.441 E0.91300
G1 X116.839 Y90.441 E0.02365
G1 X116.839 Y119.729 E0.91832
;WIPE_START
G1 F8640.000
G1 X116.839 Y116.438 E-0.76000
;WIPE_END
G1 E-0.04000 F2100.000
G1 Z0.600 F10800.000
G1 X123.311 Y108.089
G1 Z0.200
G1 E0.80000 F2100.000
;TYPE:External perimeter
G1 F1200.000
G1 X123.311 Y101.909 E0.19377
G1 X124.033 Y101.909 E0.02264
G1 X124.033 Y103.838 E0.06045
G1 X123.816 Y103.838 E0.00682
G1 X123.816 Y106.162 E0.07290
G1 X124.033 Y106.162 E0.00682
G1 X124.033 Y108.089 E0.06042
G1 X123.371 Y108.089 E0.02076
G1 X123.359 Y107.692 F10800.000
G1 X123.672 Y107.901
;TYPE:Gap fill
;WIDTH:0.388058
G1 F1200.000
G1 X123.672 Y106.351 E0.04448
G1 X123.845 Y106.914 F10800.000
;WIDTH:0.297892
G1 F1200.000
G1 X123.751 Y106.726 E0.00445
;WIDTH:0.170406
G1 X123.563 Y106.351 E0.00445
G1 X123.563 Y103.649 E0.02864
;WIDTH:0.212902
G1 X123.657 Y103.461 E0.00296
;WIDTH:0.255397
G1 X123.751 Y103.274 E0.00371
;WIDTH:0.297892
G1 X123.845 Y103.086 E0.00445
G1 X123.672 Y103.649 F10800.000
;WIDTH:0.388058
G1 F1200.000
G1 X123.672 Y102.098 E0.04451
; stop printing object FED3angled_June2020_nose.STL id:0 copy 0
M106 S84.15
;LAYER_CHANGE
;Z:0.35
;HEIGHT:0.15
;BEFORE_LAYER_CHANGE
G92 E0.0
;0.35


;WIPE_START
G1 F8640.000
G1 X123.672 Y103.649 E-0.35811
;WIPE_END
G1 E-0.44189 F2100.000
G1 Z0.600 F10800.000
;AFTER_LAYER_CHANGE
;0.35
M104 S210 ; set temperature
G1 X139.165 Y89.998
G1 Z0.350
G1 E0.80000 F2100.000
;TYPE:Skirt
;WIDTH:0.42
G1 F1091
G1 X139.201 Y119.754 E0.71964
M73 P8 R13
M73 Q8 S13
G1 X139.120 Y120.391 E0.01553
G1 X138.894 Y120.992 E0.01553
G1 X138.484 Y121.583 E0.01740
G1 X137.938 Y122.045 E0.01730
G1 X137.291 Y122.351 E0.01730
G1 X136.587 Y122.480 E0.01730
G1 X116.798 Y122.483 E0.47860
G1 X116.169 Y122.400 E0.01534
G1 X115.576 Y122.177 E0.01534
G1 X114.979 Y121.760 E0.01760
G1 X114.512 Y121.202 E0.01760
G1 X114.207 Y120.542 E0.01760
G1 X114.086 Y119.828 E0.01750
G1 X114.085 Y90.412 E0.71143
G1 X114.166 Y89.775 E0.01553
G1 X114.391 Y89.178 E0.01543
G1 X114.783 Y88.608 E0.01671
G1 X115.304 Y88.154 E0.01671
G1 X115.921 Y87.844 E0.01671
G1 X116.601 Y87.697 E0.01681
G1 X133.435 Y87.517 E0.40716
G1 X136.712 Y87.699 E0.07938
G1 X137.542 Y87.914 E0.02074
G1 X138.134 Y88.263 E0.01662
G1 X138.620 Y88.749 E0.01662
G1 X138.971 Y89.339 E0.01662
G1 X139.148 Y89.940 E0.01516
G1 X138.787 Y90.046 F10800.000
G1 F1091
G1 X138.824 Y119.748 E0.71835
G1 X138.753 Y120.306 E0.01360
G1 X138.555 Y120.828 E0.01351
G1 X138.197 Y121.338 E0.01506
G1 X137.722 Y121.735 E0.01497
G1 X137.161 Y121.996 E0.01497
G1 X136.551 Y122.104 E0.01497
G1 X116.808 Y122.106 E0.47747
M73 P9 R13
M73 Q9 S13
G1 X116.258 Y122.034 E0.01342
G1 X115.740 Y121.837 E0.01342
G1 X115.224 Y121.474 E0.01525
G1 X114.824 Y120.991 E0.01516
G1 X114.565 Y120.421 E0.01516
G1 X114.463 Y119.802 E0.01516
G1 X114.462 Y90.422 E0.71057
G1 X114.533 Y89.864 E0.01360
G1 X114.731 Y89.341 E0.01351
G1 X115.074 Y88.849 E0.01452
G1 X115.529 Y88.457 E0.01452
G1 X116.067 Y88.192 E0.01452
G1 X116.655 Y88.071 E0.01452
G1 X133.433 Y87.894 E0.40579
G1 X136.656 Y88.073 E0.07809
G1 X137.342 Y88.239 E0.01707
G1 X137.875 Y88.540 E0.01479
G1 X138.310 Y88.964 E0.01470
G1 X138.625 Y89.488 E0.01479
G1 X138.770 Y89.988 E0.01258
; printing object FED3angled_June2020_nose.STL id:0 copy 0
;WIPE_START
G1 F8640.000
G1 X138.776 Y93.279 E-0.76000
;WIPE_END
G1 E-0.04000 F2100.000
G1 Z0.750 F10800.000
G1 X123.479 Y103.605
G1 Z0.350
G1 E0.80000 F2100.000
M204 S800
;TYPE:Perimeter
;WIDTH:0.45
G1 F1091
G1 X123.479 Y106.395 E0.07271
G1 X124.291 Y106.395 E0.02116
G1 X124.291 Y107.857 E0.03808
G1 X123.060 Y107.857 E0.03209
G1 X123.060 Y102.142 E0.14889
G1 X124.291 Y102.142 E0.03209
G1 X124.291 Y103.605 E0.03810
G1 X123.539 Y103.605 E0.01959
M204 S1000
G1 X123.897 Y104.023 F10800.000
M204 S800
;TYPE:External perimeter
G1 F1091
G1 X123.897 Y105.977 E0.05094
G1 X124.643 Y105.977 E0.01945
;TYPE:Overhang perimeter
;WIDTH:0.357771
;HEIGHT:0.357771
G1 F1500.000
G1 X124.709 Y105.977 E0.00274
G1 X124.709 Y108.274 E0.09601
G1 X124.643 Y108.274 E0.00274
;TYPE:External perimeter
;WIDTH:0.45
;HEIGHT:0.15
G1 F1091
G1 X122.701 Y108.274 E0.05061
;TYPE:Overhang perimeter
;WIDTH:0.357771
;HEIGHT:0.357771
G1 F1500.000
G1 X122.642 Y108.274 E0.00248
G1 X122.642 Y101.724 E0.27376
G1 X122.701 Y101.724 E0.00248
;TYPE:External perimeter
;WIDTH:0.45
;HEIGHT:0.15
G1 F1091
G1 X124.643 Y101.724 E0.05061
;TYPE:Overhang perimeter
;WIDTH:0.357771
;HEIGHT:0.357771
G1 F1500.000
G1 X124.709 Y101.724 E0.00274
G1 X124.709 Y104.023 E0.09605
G1 X124.643 Y104.023 E0.00274
;TYPE:External perimeter
;WIDTH:0.45
;HEIGHT:0.15
G1 F1091
G1 X123.957 Y104.023 E0.01788
M204 S1000
G1 X123.185 Y103.438 F10800.000
;TYPE:Solid infill
;WIDTH:0.533561
G1 F1091
G1 X123.978 Y102.646 E0.03505
G1 X123.978 Y102.456 E0.00594
G1 X123.458 Y102.456 E0.01623
G1 X123.185 Y102.729 E0.01210
;WIPE_START
G1 F8640.000
G1 X123.458 Y102.456 E-0.08933
G1 X123.978 Y102.456 E-0.11988
G1 X123.978 Y102.646 E-0.04384
G1 X123.185 Y103.438 E-0.25887
;WIPE_END
G1 E-0.28808 F2100.000
G1 Z0.750 F10800.000
G1 X123.185 Y106.981
G1 Z0.350
G1 E0.80000 F2100.000
G1 F1091
G1 X123.457 Y106.709 E0.01205
G1 X123.978 Y106.709 E0.01626
G1 X123.978 Y106.898 E0.00591
G1 X123.185 Y107.690 E0.03505
; stop printing object FED3angled_June2020_nose.STL id:0 copy 0
;LAYER_CHANGE
;Z:0.45
;HEIGHT:0.1
;BEFORE_LAYER_CHANGE
G92 E0.0
;0.45


;WIPE_START
G1 F8640.000
G1 X123.978 Y106.898 E-0.25886
G1 X123.978 Y106.709 E-0.04361
G1 X123.457 Y106.709 E-0.12011
G1 X123.185 Y106.981 E-0.08900
;WIPE_END
G1 E-0.28841 F2100.000
G1 Z0.750 F10800.000
;AFTER_LAYER_CHANGE
;0.45
; printing object FED3angled_June2020_nose.STL id:0 copy 0
G1 X121.093 Y107.318
G1 Z0.450
G1 E0.80000 F2100.000
;TYPE:Support material
;WIDTH:0.35
;HEIGHT:0.25
G1 F1849
G1 X121.409 Y107.318 E0.00971
G1 X121.409 Y105.000 E0.07139
G1 X119.689 Y105.000 E0.05296
G1 X119.689 Y103.000 E0.06160
G1 X121.236 Y103.000 E0.04765
G1 X121.236 Y102.682 E0.00979
G1 X121.552 Y102.682 E0.00971
;WIPE_START
G1 F8640.000
G1 X121.236 Y102.682 E-0.07282
G1 X121.236 Y103.000 E-0.07338
G1 X119.689 Y103.000 E-0.35721
G1 X119.689 Y104.111 E-0.25658
;WIPE_END
G1 E-0.04000 F2100.000
G1 Z0.850 F10800.000
G1 X126.252 Y102.682
G1 Z0.450
G1 E0.80000 F2100.000
G1 F1849
G1 X125.797 Y102.682 E0.01403
;WIPE_START
G1 F8640.000
G1 X126.252 Y102.682 E-0.10517
;WIPE_END
G1 E-0.69483 F2100.000
G1 Z0.850 F10800.000
G1 X125.089 Y104.601
G1 Z0.450
G1 E0.80000 F2100.000
;TYPE:Support material interface
G1 F1849
G1 X125.089 Y105.256 E0.02018
G1 X125.607 Y105.256 E0.01595
G1 X125.607 Y104.744 E0.01578
G1 X126.125 Y104.744 E0.01595
M73 P10 R13
M73 Q10 S13
G1 X126.125 Y105.447 E0.02167
G1 X126.252 Y107.318 F10800.000
;TYPE:Support material
G1 F1849
G1 X125.797 Y107.318 E0.01403
;WIPE_START
G1 F8640.000
G1 X126.252 Y107.318 E-0.10517
;WIPE_END
G1 E-0.69483 F2100.000
G1 Z0.850 F10800.000
G1 X126.125 Y109.779
G1 Z0.450
G1 E0.80000 F2100.000
;TYPE:Support material interface
G1 F1849
G1 X126.125 Y108.996 E0.02411
G1 X125.607 Y108.996 E0.01595
G1 X125.607 Y109.636 E0.01971
G1 X125.089 Y109.636 E0.01595
G1 X125.089 Y108.996 E0.01971
G1 X124.572 Y108.996 E0.01595
G1 X124.572 Y109.779 E0.02411
G1 X124.150 Y109.636 F10800.000
;TYPE:Support material
M73 P10 R12
G1 F1849
G1 X122.182 Y109.636 E0.06062
;WIPE_START
G1 F8640.000
G1 X124.150 Y109.636 E-0.45446
;WIPE_END
G1 E-0.34554 F2100.000
G1 Z0.850 F10800.000
G1 X119.911 Y107.175
G1 Z0.450
G1 E0.80000 F2100.000
;TYPE:Support material interface
G1 F1849
G1 X119.911 Y116.589 E0.28998
G1 X120.429 Y116.589 E0.01595
G1 X120.429 Y107.318 E0.28557
G1 X120.919 Y107.318 E0.01508
G1 X120.919 Y108.705 E0.04273
G1 X120.947 Y108.733 E0.00123
G1 X120.947 Y116.589 E0.24197
G1 X121.465 Y116.589 E0.01595
G1 X121.465 Y108.996 E0.23389
G1 X121.983 Y108.996 E0.01595
G1 X121.983 Y116.732 E0.23829
G1 X124.150 Y116.589 F10800.000
;TYPE:Support material
G1 F1849
G1 X122.325 Y116.589 E0.05622
G1 X122.325 Y114.271 E0.07139
G1 X124.150 Y114.271 E0.05622
G1 X124.572 Y114.128 F10800.000
;TYPE:Support material interface
G1 F1849
G1 X124.572 Y116.589 E0.07580
G1 X125.089 Y116.589 E0.01595
G1 X125.089 Y114.271 E0.07140
G1 X125.607 Y114.271 E0.01595
G1 X125.607 Y116.589 E0.07140
G1 X126.125 Y116.589 E0.01595
G1 X126.125 Y114.271 E0.07140
G1 X126.643 Y114.271 E0.01595
G1 X126.643 Y116.589 E0.07140
G1 X127.161 Y116.589 E0.01595
G1 X127.161 Y114.271 E0.07140
G1 X127.678 Y114.271 E0.01595
G1 X127.678 Y116.589 E0.07139
G1 X128.196 Y116.589 E0.01595
G1 X128.196 Y114.271 E0.07139
G1 X128.714 Y114.271 E0.01595
G1 X128.714 Y116.732 E0.07580
;WIPE_START
G1 F8640.000
G1 X128.714 Y114.271 E-0.56822
G1 X128.196 Y114.271 E-0.11956
G1 X128.196 Y114.584 E-0.07221
;WIPE_END
G1 E-0.04000 F2100.000
G1 Z0.850 F10800.000
G1 X133.374 Y116.732
G1 Z0.450
M73 Q10 S12
G1 E0.80000 F2100.000
G1 F1849
G1 X133.374 Y93.411 E0.71834
G1 X132.857 Y93.411 E0.01595
G1 X132.857 Y116.589 E0.71393
G1 X132.339 Y116.589 E0.01595
G1 X132.339 Y93.411 E0.71393
G1 X131.821 Y93.411 E0.01595
G1 X131.821 Y116.589 E0.71393
G1 X131.303 Y116.589 E0.01595
G1 X131.303 Y93.411 E0.71393
M73 P11 R12
M73 Q11 S12
G1 X130.785 Y93.411 E0.01595
G1 X130.785 Y116.589 E0.71393
G1 X130.267 Y116.589 E0.01595
