; generated by PrusaSlicer 2.3.0+win64 on 2021-06-15 at 03:59:17 UTC

; 

; external perimeters extrusion width = 0.45mm
; perimeters extrusion width = 0.45mm
; infill extrusion width = 0.45mm
; solid infill extrusion width = 0.45mm
; top infill extrusion width = 0.40mm
; first layer extrusion width = 0.42mm

M73 P0 R32
M73 Q0 S32
M201 X1000 Y1000 Z200 E5000 ; sets maximum accelerations, mm/sec^2
M203 X200 Y200 Z12 E120 ; sets maximum feedrates, mm/sec
M204 P1250 R1250 T1250 ; sets acceleration (P, T) and retract acceleration (R), mm/sec^2
M205 X8.00 Y8.00 Z0.40 E4.50 ; sets the jerk limits, mm/sec
M205 S0 T0 ; sets the minimum extruding and travel feed rate, mm/sec
M107
;TYPE:Custom
M862.3 P "MK3" ; printer model check
M862.1 P0.4 ; nozzle diameter check
M115 U3.9.2 ; tell printer latest fw version
G90 ; use absolute coordinates
M83 ; extruder relative mode
M104 S215 ; set extruder temp
M140 S60 ; set bed temp
M190 S60 ; wait for bed temp
M109 S215 ; wait for extruder temp
G28 W ; home all without mesh bed level
G80 ; mesh bed leveling
G1 Y-3.0 F1000.0 ; go outside print area
G92 E0.0
G1 X60.0 E9.0 F1000.0 ; intro line
G1 X100.0 E12.5 F1000.0 ; intro line
G92 E0.0
M221 S95

; Don't change E values below. Excessive value can damage the printer.
M907 E430 ; set extruder motor current
G21 ; set units to millimeters
G90 ; use absolute coordinates
M83 ; use relative distances for extrusion
M900 K0.05 ; Filament gcode LA 1.5
M900 K30 ; Filament gcode LA 1.0
;LAYER_CHANGE
;Z:0.2
;HEIGHT:0.2
;BEFORE_LAYER_CHANGE
G92 E0.0
;0.2


G1 E-0.80000 F2100.000
G1 Z0.400 F10800.000
;AFTER_LAYER_CHANGE
;0.2
G1 X99.653 Y84.927
G1 Z0.200
G1 E0.80000 F2100.000
M204 S1000
;TYPE:Skirt
;WIDTH:0.42
G1 F1200.000
G1 X101.743 Y82.540 E0.09950
G1 X104.057 Y80.368 E0.09950
G1 X106.572 Y78.434 E0.09947
G1 X109.264 Y76.756 E0.09946
G1 X112.108 Y75.350 E0.09949
G1 X115.076 Y74.228 E0.09948
G1 X118.141 Y73.404 E0.09951
G1 X121.271 Y72.884 E0.09949
G1 X124.479 Y72.673 E0.10080
G1 X127.608 Y72.774 E0.09815
G1 X130.754 Y73.184 E0.09947
G1 X133.846 Y73.902 E0.09952
G1 X136.851 Y74.919 E0.09946
G1 X139.742 Y76.225 E0.09947
G1 X142.491 Y77.809 E0.09948
G1 X145.073 Y79.654 E0.09950
G1 X147.460 Y81.743 E0.09945
G1 X149.632 Y84.057 E0.09952
G1 X151.566 Y86.572 E0.09947
G1 X153.244 Y89.266 E0.09950
G1 X154.650 Y92.109 E0.09947
G1 X155.771 Y95.078 E0.09949
G1 X156.595 Y98.141 E0.09945
G1 X157.115 Y101.271 E0.09950
G1 X157.327 Y104.436 E0.09946
G1 X157.226 Y107.608 E0.09950
G1 X156.815 Y110.751 E0.09938
G1 X156.098 Y113.845 E0.09959
G1 X155.081 Y116.851 E0.09949
G1 X153.775 Y119.742 E0.09947
G1 X152.192 Y122.492 E0.09950
G1 X150.345 Y125.073 E0.09950
G1 X148.256 Y127.460 E0.09948
G1 X145.943 Y129.632 E0.09947
G1 X143.428 Y131.566 E0.09948
G1 X140.735 Y133.244 E0.09950
G1 X137.891 Y134.651 E0.09948
G1 X134.923 Y135.772 E0.09947
G1 X131.861 Y136.595 E0.09941
G1 X128.729 Y137.115 E0.09955
G1 X125.563 Y137.327 E0.09947
G1 X122.391 Y137.226 E0.09952
G1 X119.249 Y136.816 E0.09935
G1 X116.155 Y136.098 E0.09959
G1 X113.148 Y135.081 E0.09951
G1 X110.257 Y133.775 E0.09948
G1 X107.508 Y132.191 E0.09948
G1 X104.927 Y130.345 E0.09949
G1 X102.540 Y128.256 E0.09948
G1 X100.368 Y125.943 E0.09946
G1 X98.434 Y123.428 E0.09949
G1 X96.756 Y120.735 E0.09950
G1 X95.350 Y117.891 E0.09948
G1 X94.228 Y114.923 E0.09947
G1 X93.404 Y111.859 E0.09947
G1 X92.884 Y108.729 E0.09950
G1 X92.673 Y105.563 E0.09949
G1 X92.773 Y102.396 E0.09935
G1 X93.184 Y99.246 E0.09959
G1 X93.901 Y96.158 E0.09941
G1 X94.918 Y93.150 E0.09955
G1 X96.225 Y90.258 E0.09953
G1 X97.808 Y87.508 E0.09948
G1 X99.618 Y84.976 E0.09758
; printing object FED3angled_August2020_disk.STL id:0 copy 0
;WIPE_START
G1 F8640.000
G1 X101.743 Y82.540 E-0.74653
G1 X101.786 Y82.500 E-0.01347
;WIPE_END
G1 E-0.04000 F2100.000
G1 Z0.600 F10800.000
G1 X133.705 Y127.367
G1 Z0.200
G1 E0.80000 F2100.000
;TYPE:External perimeter
G1 F1200.000
G1 X134.164 Y127.122 E0.01631
G1 X134.661 Y126.971 E0.01631
G1 X135.146 Y126.922 E0.01526
G1 X135.438 Y126.933 E0.00917
G1 X135.702 Y126.972 E0.00837
G1 X136.195 Y127.122 E0.01616
G1 X136.655 Y127.367 E0.01632
G1 X137.057 Y127.697 E0.01633
G1 X137.386 Y128.099 E0.01629
G1 X137.630 Y128.554 E0.01617
G1 X137.721 Y128.809 E0.00849
G1 X137.821 Y129.313 E0.01612
G1 X137.821 Y129.836 E0.01638
G1 X137.716 Y130.342 E0.01622
G1 X137.616 Y130.594 E0.00849
G1 X137.488 Y130.829 E0.00841
G1 X137.324 Y131.042 E0.00841
G1 X137.140 Y131.226 E0.00818
G1 X136.936 Y131.384 E0.00808
G1 X136.335 Y131.747 E0.02200
G1 X135.899 Y131.928 E0.01482
G1 X135.218 Y132.096 E0.02199
G1 X134.962 Y132.129 E0.00809
G1 X134.699 Y132.128 E0.00824
G1 X134.435 Y132.094 E0.00837
G1 X134.178 Y132.018 E0.00838
G1 X133.929 Y131.912 E0.00848
G1 X133.496 Y131.626 E0.01628
G1 X133.127 Y131.258 E0.01633
G1 X132.838 Y130.826 E0.01631
G1 X132.639 Y130.344 E0.01632
G1 X132.538 Y129.834 E0.01631
G1 X132.538 Y129.314 E0.01632
G1 X132.639 Y128.803 E0.01631
G1 X132.838 Y128.323 E0.01629
G1 X133.124 Y127.894 E0.01617
G1 X133.306 Y127.694 E0.00849
G1 X133.658 Y127.405 E0.01428
G1 X133.685 Y126.967 F10800.000
;WIPE_START
G1 F8640.000
G1 X134.164 Y127.122 E-0.13371
M73 Q1 S32
G1 X134.661 Y126.971 E-0.12013
G1 X135.146 Y126.922 E-0.11239
G1 X135.438 Y126.933 E-0.06755
G1 X135.702 Y126.972 E-0.06164
G1 X136.195 Y127.122 E-0.11902
G1 X136.655 Y127.367 E-0.12018
G1 X136.740 Y127.437 E-0.02539
;WIPE_END
G1 E-0.04000 F2100.000
G1 Z0.600 F10800.000
G1 X117.424 Y129.057
M73 P1 R32
G1 Z0.200
G1 E0.80000 F2100.000
G1 F1200.000
G1 X117.475 Y129.574 E0.01630
G1 X117.424 Y130.092 E0.01633
G1 X117.273 Y130.590 E0.01631
G1 X117.028 Y131.048 E0.01629
G1 X116.701 Y131.447 E0.01615
G1 X116.504 Y131.626 E0.00835
G1 X116.293 Y131.780 E0.00821
G1 X116.066 Y131.913 E0.00823
G1 X115.823 Y132.018 E0.00831
G1 X115.566 Y132.094 E0.00841
G1 X115.301 Y132.128 E0.00837
G1 X115.035 Y132.129 E0.00833
G1 X114.550 Y132.052 E0.01540
G1 X113.881 Y131.849 E0.02191
G1 X113.460 Y131.637 E0.01479
G1 X113.062 Y131.383 E0.01480
G1 X112.860 Y131.226 E0.00801
G1 X112.676 Y131.041 E0.00820
G1 X112.512 Y130.830 E0.00837
G1 X112.384 Y130.594 E0.00842
G1 X112.286 Y130.347 E0.00833
G1 X112.220 Y130.094 E0.00821
G1 X112.179 Y129.830 E0.00837
G1 X112.179 Y129.314 E0.01619
G1 X112.280 Y128.804 E0.01630
G1 X112.479 Y128.323 E0.01632
G1 X112.769 Y127.890 E0.01632
G1 X113.137 Y127.522 E0.01633
G1 X113.569 Y127.233 E0.01630
G1 X114.045 Y127.037 E0.01613
G1 X114.304 Y126.971 E0.00838
G1 X114.594 Y126.931 E0.00918
G1 X115.081 Y126.933 E0.01526
G1 X115.592 Y127.035 E0.01633
G1 X116.072 Y127.233 E0.01629
G1 X116.505 Y127.522 E0.01633
G1 X116.869 Y127.887 E0.01616
G1 X117.031 Y128.104 E0.00850
G1 X117.273 Y128.559 E0.01614
G1 X117.407 Y128.999 E0.01444
G1 X117.803 Y129.185 F10800.000
;WIPE_START
G1 F8640.000
G1 X117.475 Y129.574 E-0.13365
G1 X117.424 Y130.092 E-0.12028
G1 X117.273 Y130.590 E-0.12014
G1 X117.028 Y131.048 E-0.12000
G1 X116.701 Y131.447 E-0.11895
G1 X116.504 Y131.626 E-0.06148
G1 X116.293 Y131.780 E-0.06046
G1 X116.199 Y131.835 E-0.02503
;WIPE_END
G1 E-0.04000 F2100.000
G1 Z0.600 F10800.000
G1 X102.477 Y116.863
G1 Z0.200
G1 E0.80000 F2100.000
G1 F1200.000
G1 X102.109 Y117.231 E0.01633
G1 X101.676 Y117.520 E0.01632
G1 X101.196 Y117.718 E0.01629
G1 X100.685 Y117.820 E0.01632
G1 X100.170 Y117.820 E0.01617
G1 X99.905 Y117.780 E0.00838
G1 X99.651 Y117.713 E0.00826
G1 X99.406 Y117.615 E0.00828
G1 X99.171 Y117.487 E0.00837
G1 X98.959 Y117.324 E0.00837
G1 X98.771 Y117.137 E0.00834
G1 X98.482 Y116.739 E0.01543
G1 X98.151 Y116.121 E0.02198
G1 X97.948 Y115.450 E0.02196
G1 X97.871 Y114.964 E0.01542
G1 X97.871 Y114.698 E0.00835
G1 X97.907 Y114.434 E0.00836
G1 X97.981 Y114.177 E0.00838
G1 X98.086 Y113.933 E0.00832
G1 X98.219 Y113.707 E0.00823
G1 X98.373 Y113.496 E0.00819
G1 X98.552 Y113.299 E0.00835
G1 X98.951 Y112.972 E0.01616
G1 X99.409 Y112.727 E0.01629
G1 X99.903 Y112.577 E0.01619
G1 X100.198 Y112.536 E0.00933
G1 X100.685 Y112.538 E0.01529
G1 X101.196 Y112.638 E0.01631
G1 X101.676 Y112.838 E0.01631
G1 X102.109 Y113.127 E0.01632
G1 X102.477 Y113.495 E0.01632
G1 X102.766 Y113.927 E0.01629
G1 X102.966 Y114.409 E0.01635
G1 X103.066 Y114.919 E0.01631
G1 X103.066 Y115.439 E0.01631
G1 X102.966 Y115.950 E0.01631
G1 X102.766 Y116.430 E0.01631
G1 X102.510 Y116.813 E0.01444
G1 X102.618 Y117.237 F10800.000
;WIPE_START
G1 F8640.000
G1 X102.109 Y117.231 E-0.13385
G1 X101.676 Y117.520 E-0.12021
G1 X101.196 Y117.718 E-0.11995
G1 X100.685 Y117.820 E-0.12017
G1 X100.170 Y117.820 E-0.11908
G1 X99.905 Y117.780 E-0.06169
G1 X99.651 Y117.713 E-0.06081
G1 X99.553 Y117.674 E-0.02424
;WIPE_END
G1 E-0.04000 F2100.000
G1 Z0.600 F10800.000
G1 X100.685 Y97.461
G1 Z0.200
G1 E0.80000 F2100.000
G1 F1200.000
G1 X100.165 Y97.461 E0.01633
G1 X99.654 Y97.359 E0.01631
G1 X99.174 Y97.161 E0.01629
G1 X98.741 Y96.872 E0.01633
G1 X98.373 Y96.503 E0.01635
G1 X98.088 Y96.069 E0.01627
G1 X97.982 Y95.821 E0.00847
G1 X97.907 Y95.565 E0.00835
G1 X97.871 Y95.301 E0.00837
G1 X97.871 Y95.038 E0.00825
G1 X97.904 Y94.781 E0.00811
G1 X98.072 Y94.101 E0.02197
G1 X98.253 Y93.665 E0.01481
G1 X98.615 Y93.065 E0.02197
G1 X98.773 Y92.860 E0.00811
G1 X98.959 Y92.675 E0.00824
G1 X99.171 Y92.512 E0.00838
G1 X99.406 Y92.384 E0.00837
G1 X99.651 Y92.286 E0.00828
G1 X99.907 Y92.219 E0.00832
G1 X100.197 Y92.178 E0.00918
G1 X100.686 Y92.179 E0.01531
G1 X101.195 Y92.281 E0.01630
G1 X101.677 Y92.479 E0.01633
G1 X102.109 Y92.768 E0.01630
G1 X102.477 Y93.136 E0.01632
G1 X102.766 Y93.569 E0.01632
G1 X102.966 Y94.049 E0.01630
G1 X103.066 Y94.560 E0.01632
G1 X103.066 Y95.080 E0.01631
G1 X102.966 Y95.591 E0.01632
G1 X102.766 Y96.071 E0.01631
G1 X102.477 Y96.504 E0.01632
G1 X102.109 Y96.872 E0.01632
G1 X101.677 Y97.161 E0.01630
G1 X101.195 Y97.359 E0.01633
G1 X100.744 Y97.450 E0.01443
G1 X100.520 Y97.826 F10800.000
;WIPE_START
G1 F8640.000
G1 X100.165 Y97.461 E-0.13385
G1 X99.654 Y97.359 E-0.12012
G1 X99.174 Y97.161 E-0.11997
G1 X98.741 Y96.872 E-0.12024
G1 X98.373 Y96.503 E-0.12041
G1 X98.088 Y96.069 E-0.11983
G1 X98.044 Y95.967 E-0.02559
;WIPE_END
G1 E-0.04000 F2100.000
G1 Z0.600 F10800.000
G1 X112.944 Y82.302
G1 Z0.200
G1 E0.80000 F2100.000
G1 F1200.000
G1 X112.614 Y81.899 E0.01633
G1 X112.369 Y81.440 E0.01631
G1 X112.218 Y80.942 E0.01632
G1 X112.167 Y80.425 E0.01631
G1 X112.219 Y79.911 E0.01620
G1 X112.287 Y79.651 E0.00841
G1 X112.385 Y79.405 E0.00830
G1 X112.513 Y79.170 E0.00840
G1 X112.676 Y78.959 E0.00835
G1 X112.863 Y78.770 E0.00832
G1 X113.261 Y78.482 E0.01542
G1 X113.877 Y78.152 E0.02191
G1 X114.324 Y78.005 E0.01475
G1 X114.785 Y77.903 E0.01479
G1 X115.039 Y77.870 E0.00803
G1 X115.302 Y77.871 E0.00824
G1 X115.566 Y77.906 E0.00834
G1 X115.823 Y77.981 E0.00840
G1 X116.066 Y78.086 E0.00831
G1 X116.293 Y78.219 E0.00823
G1 X116.504 Y78.373 E0.00821
G1 X116.701 Y78.552 E0.00835
G1 X117.028 Y78.950 E0.01615
G1 X117.273 Y79.408 E0.01628
G1 X117.424 Y79.907 E0.01634
G1 X117.475 Y80.425 E0.01632
G1 X117.425 Y80.936 E0.01611
G1 X117.361 Y81.195 E0.00837
G1 X117.270 Y81.446 E0.00834
G1 X117.028 Y81.899 E0.01612
G1 X116.698 Y82.302 E0.01633
G1 X116.295 Y82.632 E0.01633
G1 X115.836 Y82.877 E0.01631
G1 X115.339 Y83.028 E0.01629
G1 X114.821 Y83.079 E0.01633
G1 X114.302 Y83.028 E0.01634
G1 X113.806 Y82.877 E0.01628
G1 X113.347 Y82.632 E0.01631
G1 X112.991 Y82.340 E0.01444
G1 X112.558 Y82.405 F10800.000
;WIPE_START
G1 F8640.000
G1 X112.614 Y81.899 E-0.13386
G1 X112.369 Y81.440 E-0.12012
G1 X112.218 Y80.942 E-0.12016
G1 X112.167 Y80.425 E-0.12010
G1 X112.219 Y79.911 E-0.11934
G1 X112.287 Y79.651 E-0.06195
G1 X112.385 Y79.405 E-0.06114
G1 X112.433 Y79.316 E-0.02333
;WIPE_END
G1 E-0.04000 F2100.000
G1 Z0.600 F10800.000
G1 X122.160 Y98.447
G1 Z0.200
G1 E0.80000 F2100.000
;TYPE:Perimeter
G1 F1200.000
G1 X127.839 Y98.447 E0.17807
G1 X127.839 Y103.028 E0.14363
G1 X128.077 Y103.293 E0.01118
G1 X128.212 Y103.494 E0.00758
G1 X128.435 Y103.990 E0.01704
G1 X128.562 Y104.552 E0.01808
G1 X128.589 Y105.126 E0.01800
G1 X128.551 Y105.528 E0.01266
G1 X128.416 Y106.064 E0.01734
G1 X128.255 Y106.419 E0.01222
G1 X128.042 Y106.734 E0.01192
G1 X127.774 Y106.992 E0.01168
G1 X127.568 Y107.126 E0.00770
G1 X127.186 Y107.265 E0.01273
G1 X123.057 Y107.340 E0.12950
G1 X122.709 Y107.286 E0.01103
G1 X122.492 Y107.196 E0.00738
G1 X122.301 Y107.081 E0.00698
G1 X122.036 Y106.843 E0.01117
G1 X121.897 Y106.673 E0.00689
G1 X121.704 Y106.350 E0.01179
G1 X121.514 Y105.833 E0.01726
G1 X121.439 Y105.447 E0.01235
G1 X121.409 Y105.058 E0.01222
G1 X121.425 Y104.671 E0.01214
G1 X121.484 Y104.282 E0.01234
G1 X121.650 Y103.773 E0.01679
G1 X121.749 Y103.572 E0.00702
G1 X121.957 Y103.264 E0.01167
G1 X122.160 Y103.069 E0.00881
G1 X122.160 Y98.507 E0.14305
G1 X122.537 Y98.824 F10800.000
;TYPE:External perimeter
G1 F1200.000
G1 X127.462 Y98.824 E0.15442
G1 X127.462 Y103.225 E0.13799
G1 X127.587 Y103.312 E0.00478
G1 X127.779 Y103.525 E0.00900
G1 X127.881 Y103.678 E0.00575
G1 X128.075 Y104.110 E0.01486
G1 X128.187 Y104.603 E0.01585
G1 X128.211 Y105.116 E0.01612
G1 X128.178 Y105.463 E0.01092
G1 X128.058 Y105.940 E0.01540
G1 X127.925 Y106.235 E0.01016
G1 X127.753 Y106.490 E0.00965
G1 X127.538 Y106.695 E0.00930
G1 X127.398 Y106.786 E0.00523
G1 X127.117 Y106.889 E0.00940
G1 X123.082 Y106.962 E0.12651
G1 X122.812 Y106.921 E0.00858
G1 X122.662 Y106.858 E0.00509
G1 X122.526 Y106.777 E0.00498
G1 X122.310 Y106.582 E0.00911
G1 X122.206 Y106.456 E0.00512
G1 X122.045 Y106.187 E0.00983
G1 X121.878 Y105.732 E0.01519
G1 X121.813 Y105.396 E0.01072
G1 X121.787 Y105.051 E0.01085
G1 X121.800 Y104.708 E0.01078
G1 X121.852 Y104.370 E0.01071
G1 X122.000 Y103.915 E0.01499
G1 X122.076 Y103.762 E0.00536
G1 X122.247 Y103.508 E0.00959
G1 X122.464 Y103.301 E0.00942
G1 X122.537 Y103.258 E0.00266
G1 X122.537 Y98.884 E0.13713
G1 X122.539 Y98.424 F10800.000
;WIPE_START
G1 F8640.000
G1 X125.828 Y98.844 E-0.76000
;WIPE_END
G1 E-0.04000 F2100.000
G1 Z0.600 F10800.000
G1 X112.043 Y79.245
G1 Z0.200
G1 E0.80000 F2100.000
;TYPE:Perimeter
G1 F1200.000
G1 X111.928 Y79.533 E0.00973
G1 X111.847 Y79.843 E0.01006
G1 X111.788 Y80.424 E0.01832
G1 X111.846 Y81.016 E0.01866
G1 X112.019 Y81.585 E0.01864
G1 X112.299 Y82.110 E0.01864
G1 X112.676 Y82.570 E0.01866
G1 X113.136 Y82.947 E0.01866
G1 X113.661 Y83.227 E0.01863
G1 X114.228 Y83.400 E0.01861
G1 X114.821 Y83.458 E0.01867
G1 X115.414 Y83.400 E0.01867
G1 X115.981 Y83.227 E0.01861
G1 X116.506 Y82.947 E0.01863
G1 X116.966 Y82.570 E0.01866
G1 X117.343 Y82.110 E0.01866
G1 X117.616 Y81.599 E0.01814
G1 X117.722 Y81.305 E0.00980
G1 X117.798 Y81.001 E0.00984
G1 X117.854 Y80.425 E0.01813
G1 X117.796 Y79.833 E0.01865
G1 X117.623 Y79.263 E0.01868
G1 X117.343 Y78.740 E0.01861
G1 X116.975 Y78.292 E0.01818
G1 X116.743 Y78.081 E0.00984
G1 X116.500 Y77.903 E0.00944
G1 X116.237 Y77.749 E0.00955
G1 X115.907 Y77.613 E0.01118
G1 X116.613 Y77.377 E0.02334
G1 X119.368 Y76.688 E0.08904
G1 X122.171 Y76.272 E0.08883
G1 X125.000 Y76.133 E0.08882
G1 X127.829 Y76.272 E0.08882
G1 X130.632 Y76.688 E0.08883
G1 X133.387 Y77.377 E0.08904
G1 X134.093 Y77.613 E0.02333
G1 X133.763 Y77.748 E0.01116
G1 X133.499 Y77.904 E0.00962
G1 X133.257 Y78.081 E0.00939
G1 X133.025 Y78.292 E0.00984
G1 X132.657 Y78.740 E0.01818
G1 X132.377 Y79.263 E0.01861
G1 X132.204 Y79.833 E0.01868
G1 X132.146 Y80.425 E0.01865
G1 X132.202 Y81.001 E0.01813
G1 X132.278 Y81.305 E0.00984
G1 X132.384 Y81.599 E0.00980
G1 X132.657 Y82.110 E0.01814
G1 X133.034 Y82.570 E0.01866
G1 X133.494 Y82.947 E0.01866
G1 X134.019 Y83.227 E0.01863
G1 X134.586 Y83.400 E0.01861
G1 X135.179 Y83.458 E0.01867
G1 X135.772 Y83.400 E0.01867
G1 X136.339 Y83.227 E0.01861
G1 X136.864 Y82.947 E0.01863
G1 X137.324 Y82.570 E0.01866
G1 X137.701 Y82.110 E0.01866
G1 X137.981 Y81.585 E0.01864
G1 X138.154 Y81.016 E0.01864
G1 X138.212 Y80.424 E0.01866
G1 X138.153 Y79.843 E0.01832
G1 X138.072 Y79.533 E0.01006
G1 X137.935 Y79.204 E0.01116
G1 X138.602 Y79.537 E0.02338
G1 X141.038 Y80.998 E0.08905
G1 X143.313 Y82.685 E0.08883
G1 X145.412 Y84.588 E0.08882
G1 X147.315 Y86.687 E0.08882
G1 X149.002 Y88.962 E0.08883
G1 X150.463 Y91.398 E0.08905
G1 X150.796 Y92.065 E0.02336
G1 X150.467 Y91.927 E0.01116
G1 X150.170 Y91.849 E0.00964
