; generated by PrusaSlicer 2.3.0+win64 on 2021-06-15 at 03:51:57 UTC

; 

; external perimeters extrusion width = 0.45mm
; perimeters extrusion width = 0.45mm
; infill extrusion width = 0.45mm
; solid infill extrusion width = 0.45mm
; top infill extrusion width = 0.40mm
; first layer extrusion width = 0.42mm

M73 P0 R38
M73 Q0 S38
M201 X1000 Y1000 Z200 E5000 ; sets maximum accelerations, mm/sec^2
M203 X200 Y200 Z12 E120 ; sets maximum feedrates, mm/sec
M204 P1250 R1250 T1250 ; sets acceleration (P, T) and retract acceleration (R), mm/sec^2
M205 X8.00 Y8.00 Z0.40 E4.50 ; sets the jerk limits, mm/sec
M205 S0 T0 ; sets the minimum extruding and travel feed rate, mm/sec
M107
;TYPE:Custom
M862.3 P "MK3" ; printer model check
M862.1 P0.4 ; nozzle diameter check
M115 U3.9.2 ; tell printer latest fw version
G90 ; use absolute coordinates
M83 ; extruder relative mode
M104 S215 ; set extruder temp
M140 S60 ; set bed temp
M190 S60 ; wait for bed temp
M109 S215 ; wait for extruder temp
G28 W ; home all without mesh bed level
G80 ; mesh bed leveling
G1 Y-3.0 F1000.0 ; go outside print area
G92 E0.0
G1 X60.0 E9.0 F1000.0 ; intro line
G1 X100.0 E12.5 F1000.0 ; intro line
G92 E0.0
M221 S95

; Don't change E values below. Excessive value can damage the printer.
M907 E430 ; set extruder motor current
G21 ; set units to millimeters
G90 ; use absolute coordinates
M83 ; use relative distances for extrusion
M900 K0.05 ; Filament gcode LA 1.5
M900 K30 ; Filament gcode LA 1.0
;LAYER_CHANGE
;Z:0.2
;HEIGHT:0.2
;BEFORE_LAYER_CHANGE
G92 E0.0
;0.2


G1 E-0.80000 F2100.000
G1 Z0.400 F10800.000
;AFTER_LAYER_CHANGE
;0.2
G1 X104.048 Y91.309
G1 Z0.200
G1 E0.80000 F2100.000
M204 S1000
;TYPE:Skirt
;WIDTH:0.42
G1 F1200.000
G1 X104.379 Y90.694 E0.02190
G1 X104.877 Y90.199 E0.02201
G1 X105.499 Y89.872 E0.02201
G1 X106.188 Y89.740 E0.02201
G1 X143.488 Y89.738 E1.16952
M73 P0 R37
G1 X144.344 Y89.899 E0.02731
G1 X145.085 Y90.358 E0.02731
G1 X145.611 Y91.053 E0.02731
G1 X145.850 Y91.886 E0.02720
G1 X147.560 Y111.182 E0.60739
G1 X147.561 Y129.290 E0.56777
G1 X147.421 Y130.078 E0.02508
G1 X147.002 Y130.803 E0.02626
G1 X140.171 Y138.684 E0.32701
G1 X139.777 Y139.042 E0.01669
G1 X139.313 Y139.304 E0.01668
G1 X138.394 Y139.493 E0.02942
G1 X126.358 Y139.492 E0.37739
G1 X125.578 Y139.352 E0.02484
G1 X125.088 Y139.108 E0.01716
G1 X124.664 Y138.756 E0.01728
G1 X104.549 Y117.472 E0.91821
G1 X104.115 Y116.818 E0.02461
G1 X103.960 Y116.345 E0.01562
G1 X103.907 Y115.853 E0.01550
G1 X103.907 Y92.104 E0.74464
M73 Q0 S37
G1 X104.038 Y91.368 E0.02343
; printing object FED3angled_August2020_door.STL id:0 copy 0
;WIPE_START
G1 F8640.000
G1 X104.379 Y90.694 E-0.17446
G1 X104.877 Y90.199 E-0.16211
G1 X105.499 Y89.872 E-0.16211
G1 X106.188 Y89.740 E-0.16211
G1 X106.618 Y89.740 E-0.09920
;WIPE_END
G1 E-0.04000 F2100.000
G1 Z0.600 F10800.000
G1 X107.071 Y92.903
G1 Z0.200
G1 E0.80000 F2100.000
;TYPE:Perimeter
G1 F1200.000
G1 X142.697 Y92.903 E1.11702
G1 X142.697 Y109.328 E0.51502
G1 X135.040 Y109.328 E0.24008
G1 X135.040 Y132.791 E0.73564
G1 X137.597 Y132.791 E0.08018
G1 X137.597 Y136.328 E0.11093
G1 X127.171 Y136.328 E0.32690
G1 X127.171 Y123.387 E0.40576
G1 X126.695 Y122.789 E0.02398
G1 X126.293 Y122.347 E0.01872
G1 X125.726 Y121.833 E0.02400
G1 X125.151 Y121.406 E0.02248
G1 X124.544 Y121.038 E0.02224
G1 X123.983 Y120.764 E0.01957
G1 X123.374 Y120.526 E0.02051
G1 X122.736 Y120.328 E0.02093
G1 X111.878 Y120.328 E0.34047
G1 X107.071 Y115.522 E0.21313
M73 P1 R37
M73 Q1 S37
G1 X107.071 Y92.963 E0.70732
;WIPE_START
G1 F8640.000
G1 X110.363 Y92.957 E-0.76000
;WIPE_END
G1 E-0.04000 F2100.000
G1 Z0.600 F10800.000
G1 X135.417 Y109.705
G1 Z0.200
G1 E0.80000 F2100.000
;TYPE:External perimeter
G1 F1200.000
G1 X135.417 Y132.413 E0.71199
G1 X137.974 Y132.413 E0.08018
G1 X137.974 Y136.705 E0.13457
G1 X126.794 Y136.705 E0.35054
G1 X126.794 Y123.519 E0.41345
G1 X126.407 Y123.034 E0.01946
G1 X126.026 Y122.614 E0.01777
G1 X125.487 Y122.125 E0.02284
G1 X124.940 Y121.719 E0.02135
G1 X124.363 Y121.369 E0.02114
G1 X123.831 Y121.110 E0.01856
G1 X123.250 Y120.882 E0.01960
G1 X122.679 Y120.705 E0.01871
G1 X111.721 Y120.705 E0.34358
G1 X106.694 Y115.678 E0.22292
G1 X106.694 Y92.525 E0.72592
G1 X143.074 Y92.525 E1.14067
G1 X143.074 Y109.705 E0.53867
G1 X135.477 Y109.705 E0.23820
G1 X135.046 Y109.855 F10800.000
;WIPE_START
G1 F8640.000
G1 X135.469 Y112.997 E-0.76000
;WIPE_END
G1 E-0.04000 F2100.000
G1 Z0.600 F10800.000
G1 X141.816 Y93.016
G1 Z0.200
G1 E0.80000 F2100.000
;TYPE:Solid infill
;WIDTH:0.422907
G1 F1200.000
G1 X142.415 Y93.614 E0.02675
G1 X142.415 Y94.152 E0.01698
G1 X141.448 Y93.185 E0.04318
G1 X140.911 Y93.185 E0.01698
G1 X142.415 Y94.689 E0.06720
G1 X142.415 Y95.227 E0.01698
G1 X140.373 Y93.185 E0.09121
G1 X139.836 Y93.185 E0.01698
G1 X142.415 Y95.764 E0.11522
G1 X142.415 Y96.301 E0.01698
G1 X139.299 Y93.185 E0.13923
G1 X138.761 Y93.185 E0.01698
G1 X142.415 Y96.839 E0.16325
G1 X142.415 Y97.376 E0.01698
G1 X138.224 Y93.185 E0.18726
G1 X137.686 Y93.185 E0.01698
G1 X142.415 Y97.913 E0.21127
G1 X142.415 Y98.451 E0.01698
G1 X137.149 Y93.185 E0.23528
G1 X136.612 Y93.185 E0.01698
G1 X142.415 Y98.988 E0.25929
G1 X142.415 Y99.526 E0.01698
G1 X136.074 Y93.185 E0.28331
G1 X135.537 Y93.185 E0.01698
G1 X142.415 Y100.063 E0.30732
G1 X142.415 Y100.600 E0.01698
G1 X134.999 Y93.185 E0.33133
G1 X134.462 Y93.185 E0.01698
G1 X142.415 Y101.138 E0.35534
G1 X142.415 Y101.675 E0.01698
G1 X133.925 Y93.185 E0.37935
G1 X133.387 Y93.185 E0.01698
G1 X142.415 Y102.212 E0.40337
G1 X142.415 Y102.750 E0.01698
G1 X132.850 Y93.185 E0.42738
G1 X132.313 Y93.185 E0.01698
G1 X142.415 Y103.287 E0.45139
G1 X142.415 Y103.825 E0.01698
G1 X131.775 Y93.185 E0.47540
G1 X131.238 Y93.185 E0.01698
G1 X142.415 Y104.362 E0.49942
G1 X142.415 Y104.899 E0.01698
G1 X130.700 Y93.185 E0.52343
G1 X130.163 Y93.185 E0.01698
G1 X142.415 Y105.437 E0.54744
G1 X142.415 Y105.974 E0.01698
G1 X129.626 Y93.185 E0.57145
M73 P2 R37
M73 Q2 S37
G1 X129.088 Y93.185 E0.01698
G1 X142.415 Y106.512 E0.59546
G1 X142.415 Y107.049 E0.01698
G1 X128.551 Y93.185 E0.61948
G1 X128.014 Y93.185 E0.01698
G1 X142.415 Y107.586 E0.64349
G1 X142.415 Y108.124 E0.01698
G1 X127.476 Y93.185 E0.66750
G1 X126.939 Y93.185 E0.01698
G1 X142.415 Y108.661 E0.69151
G1 X142.415 Y109.046 E0.01215
G1 X142.262 Y109.046 E0.00483
G1 X126.401 Y93.185 E0.70870
G1 X125.864 Y93.185 E0.01698
G1 X141.724 Y109.046 E0.70870
G1 X141.187 Y109.046 E0.01698
G1 X125.327 Y93.185 E0.70870
G1 X124.789 Y93.185 E0.01698
G1 X140.650 Y109.046 E0.70870
G1 X140.112 Y109.046 E0.01698
G1 X124.252 Y93.185 E0.70870
G1 X123.714 Y93.185 E0.01698
G1 X139.575 Y109.046 E0.70870
G1 X139.037 Y109.046 E0.01698
G1 X123.177 Y93.185 E0.70870
G1 X122.640 Y93.185 E0.01698
G1 X138.500 Y109.046 E0.70870
G1 X137.963 Y109.046 E0.01698
G1 X122.102 Y93.185 E0.70870
G1 X121.565 Y93.185 E0.01698
G1 X137.425 Y109.046 E0.70870
G1 X136.888 Y109.046 E0.01698
G1 X121.028 Y93.185 E0.70870
G1 X120.490 Y93.185 E0.01698
G1 X136.350 Y109.046 E0.70870
G1 X135.813 Y109.046 E0.01698
G1 X119.953 Y93.185 E0.70870
G1 X119.415 Y93.185 E0.01698
G1 X135.276 Y109.046 E0.70870
G1 X134.757 Y109.046 E0.01638
G1 X134.757 Y109.065 E0.00060
G1 X118.878 Y93.185 E0.70955
M73 P3 R36
M73 Q3 S37
G1 X118.341 Y93.185 E0.01698
G1 X134.757 Y109.602 E0.73356
G1 X134.757 Y110.139 E0.01698
G1 X117.803 Y93.185 E0.75757
G1 X117.266 Y93.185 E0.01698
G1 X134.757 Y110.677 E0.78158
G1 X134.757 Y111.214 E0.01698
G1 X116.728 Y93.185 E0.80560
G1 X116.191 Y93.185 E0.01698
G1 X134.757 Y111.752 E0.82961
G1 X134.757 Y112.289 E0.01698
G1 X115.654 Y93.185 E0.85362
M73 Q3 S36
G1 X115.116 Y93.185 E0.01698
G1 X134.757 Y112.826 E0.87763
G1 X134.757 Y113.364 E0.01698
G1 X114.579 Y93.185 E0.90164
G1 X114.042 Y93.185 E0.01698
G1 X134.757 Y113.901 E0.92566
G1 X134.757 Y114.439 E0.01698
G1 X113.504 Y93.185 E0.94967
G1 X112.967 Y93.185 E0.01698
G1 X134.757 Y114.976 E0.97368
G1 X134.757 Y115.513 E0.01698
G1 X112.429 Y93.185 E0.99769
G1 X111.892 Y93.185 E0.01698
G1 X134.757 Y116.051 E1.02171
G1 X134.757 Y116.588 E0.01698
G1 X111.355 Y93.185 E1.04572
G1 X110.817 Y93.185 E0.01698
G1 X134.757 Y117.125 E1.06973
G1 X134.757 Y117.663 E0.01698
G1 X110.280 Y93.185 E1.09374
M73 P4 R36
M73 Q4 S36
G1 X109.743 Y93.185 E0.01698
G1 X134.757 Y118.200 E1.11775
G1 X134.757 Y118.738 E0.01698
G1 X109.205 Y93.185 E1.14177
G1 X108.668 Y93.185 E0.01698
G1 X134.757 Y119.275 E1.16578
G1 X134.757 Y119.812 E0.01698
G1 X108.130 Y93.185 E1.18979
G1 X107.593 Y93.185 E0.01698
G1 X134.757 Y120.350 E1.21380
G1 X134.757 Y120.887 E0.01698
G1 X107.354 Y93.484 E1.22447
G1 X107.354 Y94.021 E0.01698
G1 X134.757 Y121.424 E1.22447
G1 X134.757 Y121.962 E0.01698
G1 X107.354 Y94.559 E1.22447
G1 X107.354 Y95.096 E0.01698
G1 X134.757 Y122.499 E1.22447
G1 X134.757 Y123.037 E0.01698
G1 X107.354 Y95.634 E1.22447
G1 X107.354 Y96.171 E0.01698
G1 X134.757 Y123.574 E1.22447
M73 P5 R36
M73 Q5 S36
G1 X134.757 Y124.111 E0.01698
G1 X107.354 Y96.708 E1.22447
G1 X107.354 Y97.246 E0.01698
G1 X134.757 Y124.649 E1.22447
G1 X134.757 Y125.186 E0.01698
G1 X107.354 Y97.783 E1.22447
G1 X107.354 Y98.320 E0.01698
G1 X134.757 Y125.724 E1.22447
G1 X134.757 Y126.261 E0.01698
G1 X107.354 Y98.858 E1.22447
G1 X107.354 Y99.395 E0.01698
G1 X134.757 Y126.798 E1.22447
G1 X134.757 Y127.336 E0.01698
G1 X107.354 Y99.933 E1.22447
G1 X107.354 Y100.470 E0.01698
G1 X134.757 Y127.873 E1.22447
M73 P5 R35
G1 X134.757 Y128.410 E0.01698
G1 X107.354 Y101.007 E1.22447
G1 X107.354 Y101.545 E0.01698
G1 X134.757 Y128.948 E1.22447
G1 X134.757 Y129.485 E0.01698
G1 X107.354 Y102.082 E1.22447
G1 X107.354 Y102.619 E0.01698
G1 X134.757 Y130.023 E1.22447
M73 P6 R35
M73 Q6 S35
G1 X134.757 Y130.560 E0.01698
G1 X107.354 Y103.157 E1.22447
G1 X107.354 Y103.694 E0.01698
G1 X124.230 Y120.570 E0.75406
G1 X123.342 Y120.220 E0.03015
G1 X107.354 Y104.232 E0.71441
G1 X107.354 Y104.769 E0.01698
G1 X122.631 Y120.046 E0.68261
G1 X122.093 Y120.046 E0.01698
G1 X107.354 Y105.306 E0.65860
G1 X107.354 Y105.844 E0.01698
G1 X121.556 Y120.046 E0.63459
G1 X121.019 Y120.046 E0.01698
G1 X107.354 Y106.381 E0.61057
G1 X107.354 Y106.919 E0.01698
G1 X120.481 Y120.046 E0.58656
G1 X119.944 Y120.046 E0.01698
G1 X107.354 Y107.456 E0.56255
G1 X107.354 Y107.993 E0.01698
G1 X119.407 Y120.046 E0.53854
G1 X118.869 Y120.046 E0.01698
G1 X107.354 Y108.531 E0.51453
G1 X107.354 Y109.068 E0.01698
G1 X118.332 Y120.046 E0.49051
G1 X117.794 Y120.046 E0.01698
G1 X107.354 Y109.605 E0.46650
G1 X107.354 Y110.143 E0.01698
G1 X117.257 Y120.046 E0.44249
G1 X116.720 Y120.046 E0.01698
G1 X107.354 Y110.680 E0.41848
G1 X107.354 Y111.218 E0.01698
G1 X116.182 Y120.046 E0.39446
G1 X115.645 Y120.046 E0.01698
G1 X107.354 Y111.755 E0.37045
G1 X107.354 Y112.292 E0.01698
G1 X115.107 Y120.046 E0.34644
G1 X114.570 Y120.046 E0.01698
G1 X107.354 Y112.830 E0.32243
G1 X107.354 Y113.367 E0.01698
G1 X114.033 Y120.046 E0.29842
G1 X113.495 Y120.046 E0.01698
G1 X107.354 Y113.905 E0.27440
G1 X107.354 Y114.442 E0.01698
G1 X112.958 Y120.046 E0.25039
G1 X112.421 Y120.046 E0.01698
G1 X107.185 Y114.810 E0.23396
;WIPE_START
G1 F8640.000
G1 X109.512 Y117.137 E-0.76000
;WIPE_END
G1 E-0.04000 F2100.000
G1 Z0.600 F10800.000
G1 X127.285 Y123.625
G1 Z0.200
G1 E0.80000 F2100.000
G1 F1200.000
G1 X134.757 Y131.097 E0.33391
G1 X134.757 Y131.635 E0.01698
G1 X127.454 Y124.332 E0.32633
G1 X127.454 Y124.869 E0.01698
G1 X134.927 Y132.342 E0.33391
;WIPE_START
M73 P7 R35
M73 Q7 S35
G1 F8640.000
G1 X132.600 Y130.014 E-0.76000
;WIPE_END
G1 E-0.04000 F2100.000
G1 Z0.600 F10800.000
G1 X137.484 Y133.287
G1 Z0.200
G1 E0.80000 F2100.000
G1 F1200.000
G1 X137.271 Y133.073 E0.00954
G1 X136.733 Y133.073 E0.01698
G1 X137.315 Y133.655 E0.02597
G1 X137.315 Y134.192 E0.01698
G1 X136.196 Y133.073 E0.04998
G1 X135.659 Y133.073 E0.01698
G1 X137.315 Y134.729 E0.07399
G1 X137.315 Y135.267 E0.01698
G1 X135.121 Y133.073 E0.09800
G1 X134.757 Y133.073 E0.01150
G1 X134.757 Y132.710 E0.01150
G1 X127.454 Y125.406 E0.32633
G1 X127.454 Y125.944 E0.01698
G1 X137.315 Y135.804 E0.44059
G1 X137.315 Y136.046 E0.00763
G1 X137.019 Y136.046 E0.00935
G1 X127.454 Y126.481 E0.42737
G1 X127.454 Y127.019 E0.01698
G1 X136.481 Y136.046 E0.40336
G1 X135.944 Y136.046 E0.01698
G1 X127.454 Y127.556 E0.37935
G1 X127.454 Y128.093 E0.01698
G1 X135.407 Y136.046 E0.35534
G1 X134.869 Y136.046 E0.01698
G1 X127.454 Y128.631 E0.33133
G1 X127.454 Y129.168 E0.01698
G1 X134.332 Y136.046 E0.30731
G1 X133.794 Y136.046 E0.01698
G1 X127.454 Y129.705 E0.28330
G1 X127.454 Y130.243 E0.01698
G1 X133.257 Y136.046 E0.25929
G1 X132.720 Y136.046 E0.01698
G1 X127.454 Y130.780 E0.23528
G1 X127.454 Y131.318 E0.01698
G1 X132.182 Y136.046 E0.21126
G1 X131.645 Y136.046 E0.01698
G1 X127.454 Y131.855 E0.18725
G1 X127.454 Y132.392 E0.01698
G1 X131.108 Y136.046 E0.16324
G1 X130.570 Y136.046 E0.01698
G1 X127.454 Y132.930 E0.13923
G1 X127.454 Y133.467 E0.01698
G1 X130.033 Y136.046 E0.11522
G1 X129.495 Y136.046 E0.01698
G1 X127.454 Y134.005 E0.09120
G1 X127.454 Y134.542 E0.01698
G1 X128.958 Y136.046 E0.06719
G1 X128.421 Y136.046 E0.01698
G1 X127.454 Y135.079 E0.04318
G1 X127.454 Y135.617 E0.01698
G1 X128.053 Y136.215 E0.02675
;WIPE_START
G1 F8640.000
G1 X127.454 Y135.617 E-0.19548
G1 X127.454 Y135.079 E-0.12408
G1 X128.421 Y136.046 E-0.31555
G1 X128.958 Y136.046 E-0.12408
G1 X128.956 Y136.043 E-0.00080
;WIPE_END
G1 E-0.04000 F2100.000
G1 Z0.600 F10800.000
G1 X143.371 Y128.484
G1 Z0.200
G1 E0.80000 F2100.000
;TYPE:Perimeter
;WIDTH:0.42
G1 F1200.000
G1 X143.371 Y112.066 E0.51480
G1 X144.397 Y112.066 E0.03216
G1 X144.397 Y128.484 E0.51480
G1 X143.431 Y128.484 E0.03028
G1 X142.994 Y128.861 F10800.000
;TYPE:External perimeter
G1 F1200.000
G1 X142.994 Y111.688 E0.53845
G1 X144.774 Y111.688 E0.05581
G1 X144.774 Y128.861 E0.53845
G1 X143.054 Y128.861 E0.05393
G1 X143.008 Y128.462 F10800.000
;WIPE_START
G1 F8640.000
G1 X143.043 Y125.570 E-0.76000
;WIPE_END
G1 E-0.04000 F2100.000
G1 Z0.600 F10800.000
G1 X143.522 Y112.179
G1 Z0.200
G1 E0.80000 F2100.000
;TYPE:Solid infill
;WIDTH:0.420065
G1 F1200.000
G1 X144.115 Y112.771 E0.02629
G1 X144.115 Y113.305 E0.01673
G1 X143.654 Y112.844 E0.02041
G1 X143.654 Y113.378 E0.01673
G1 X144.115 Y113.838 E0.02041
G1 X144.115 Y114.371 E0.01673
G1 X143.654 Y113.911 E0.02041
G1 X143.654 Y114.445 E0.01673
G1 X144.115 Y114.905 E0.02041
G1 X144.115 Y115.438 E0.01673
G1 X143.654 Y114.978 E0.02041
G1 X143.654 Y115.511 E0.01673
G1 X144.115 Y115.972 E0.02041
G1 X144.115 Y116.505 E0.01673
G1 X143.654 Y116.045 E0.02041
G1 X143.654 Y116.578 E0.01673
G1 X144.115 Y117.038 E0.02041
G1 X144.115 Y117.572 E0.01673
G1 X143.654 Y117.111 E0.02041
G1 X143.654 Y117.645 E0.01673
G1 X144.115 Y118.105 E0.02041
G1 X144.115 Y118.638 E0.01673
G1 X143.654 Y118.178 E0.02041
G1 X143.654 Y118.711 E0.01673
G1 X144.115 Y119.172 E0.02041
G1 X144.115 Y119.705 E0.01673
G1 X143.654 Y119.245 E0.02041
G1 X143.654 Y119.778 E0.01673
G1 X144.115 Y120.238 E0.02041
G1 X144.115 Y120.772 E0.01673
G1 X143.654 Y120.312 E0.02041
G1 X143.654 Y120.845 E0.01673
G1 X144.115 Y121.305 E0.02041
G1 X144.115 Y121.839 E0.01673
G1 X143.654 Y121.378 E0.02041
G1 X143.654 Y121.912 E0.01673
G1 X144.115 Y122.372 E0.02041
G1 X144.115 Y122.905 E0.01673
G1 X143.654 Y122.445 E0.02041
G1 X143.654 Y122.978 E0.01673
G1 X144.115 Y123.439 E0.02041
G1 X144.115 Y123.972 E0.01673
G1 X143.654 Y123.512 E0.02041
G1 X143.654 Y124.045 E0.01673
G1 X144.115 Y124.505 E0.02041
G1 X144.115 Y125.039 E0.01673
G1 X143.654 Y124.578 E0.02041
G1 X143.654 Y125.112 E0.01673
G1 X144.115 Y125.572 E0.02041
G1 X144.115 Y126.105 E0.01673
G1 X143.654 Y125.645 E0.02041
G1 X143.654 Y126.179 E0.01673
G1 X144.115 Y126.639 E0.02041
G1 X144.115 Y127.172 E0.01673
G1 X143.654 Y126.712 E0.02041
G1 X143.654 Y127.245 E0.01673
G1 X144.115 Y127.706 E0.02041
G1 X144.115 Y128.202 E0.01556
G1 X144.077 Y128.202 E0.00117
G1 X143.485 Y127.609 E0.02628
; stop printing object FED3angled_August2020_door.STL id:0 copy 0
M106 S84.15
;LAYER_CHANGE
;Z:0.35
;HEIGHT:0.15
;BEFORE_LAYER_CHANGE
G92 E0.0
;0.35


;WIPE_START
G1 F8640.000
G1 X144.077 Y128.202 E-0.19352
G1 X144.115 Y128.202 E-0.00862
G1 X144.115 Y127.706 E-0.11453
G1 X143.654 Y127.245 E-0.15030
