; generated by PrusaSlicer 2.3.0+win64 on 2021-06-17 at 15:18:46 UTC

; 

; external perimeters extrusion width = 0.45mm
; perimeters extrusion width = 0.45mm
; infill extrusion width = 0.45mm
; solid infill extrusion width = 0.45mm
; top infill extrusion width = 0.40mm
; first layer extrusion width = 0.42mm

M73 P0 R106
M73 Q0 S107
M201 X1000 Y1000 Z200 E5000 ; sets maximum accelerations, mm/sec^2
M203 X200 Y200 Z12 E120 ; sets maximum feedrates, mm/sec
M204 P1250 R1250 T1250 ; sets acceleration (P, T) and retract acceleration (R), mm/sec^2
M205 X8.00 Y8.00 Z0.40 E4.50 ; sets the jerk limits, mm/sec
M205 S0 T0 ; sets the minimum extruding and travel feed rate, mm/sec
M107
;TYPE:Custom
M862.3 P "MK3" ; printer model check
M862.1 P0.4 ; nozzle diameter check
M115 U3.9.2 ; tell printer latest fw version
G90 ; use absolute coordinates
M83 ; extruder relative mode
M104 S215 ; set extruder temp
M140 S60 ; set bed temp
M190 S60 ; wait for bed temp
M109 S215 ; wait for extruder temp
G28 W ; home all without mesh bed level
G80 ; mesh bed leveling
G1 Y-3.0 F1000.0 ; go outside print area
G92 E0.0
G1 X60.0 E9.0 F1000.0 ; intro line
G1 X100.0 E12.5 F1000.0 ; intro line
G92 E0.0
M221 S95

; Don't change E values below. Excessive value can damage the printer.
M907 E430 ; set extruder motor current
G21 ; set units to millimeters
G90 ; use absolute coordinates
M83 ; use relative distances for extrusion
M900 K0.05 ; Filament gcode LA 1.5
M900 K30 ; Filament gcode LA 1.0
;LAYER_CHANGE
;Z:0.2
;HEIGHT:0.2
;BEFORE_LAYER_CHANGE
G92 E0.0
;0.2


G1 E-0.80000 F2100.000
G1 Z0.400 F10800.000
;AFTER_LAYER_CHANGE
;0.2
G1 X93.024 Y51.844
G1 Z0.200
G1 E0.80000 F2100.000
M204 S1000
;TYPE:Skirt
;WIDTH:0.42
G1 F1200.000
G1 X93.428 Y51.311 E0.02095
G1 X93.967 Y50.911 E0.02107
G1 X96.582 Y49.652 E0.09099
G1 X97.407 Y49.469 E0.02649
G1 X154.899 Y49.467 E1.80263
G1 X155.798 Y49.644 E0.02872
G1 X156.563 Y50.147 E0.02872
G1 X157.083 Y50.906 E0.02884
G1 X157.276 Y51.802 E0.02872
G1 X157.276 Y158.209 E3.33632
G1 X157.198 Y158.804 E0.01882
G1 X156.976 Y159.357 E0.01870
G1 X156.607 Y159.854 E0.01941
G1 X156.125 Y160.237 E0.01929
G1 X155.558 Y160.485 E0.01941
G1 X154.950 Y160.578 E0.01929
G1 X97.488 Y160.578 E1.80168
G1 X96.572 Y160.390 E0.02931
G1 X93.946 Y159.077 E0.09206
G1 X93.446 Y158.706 E0.01953
G1 X93.057 Y158.214 E0.01965
G1 X92.812 Y157.641 E0.01953
G1 X92.724 Y157.021 E0.01965
G1 X92.724 Y52.992 E3.26175
G1 X92.802 Y52.397 E0.01882
G1 X93.002 Y51.899 E0.01682
; printing object FED3_Sept2020_base.stl id:0 copy 0
;WIPE_START
G1 F8640.000
G1 X93.428 Y51.311 E-0.16769
G1 X93.967 Y50.911 E-0.15515
G1 X95.673 Y50.089 E-0.43716
;WIPE_END
G1 E-0.04000 F2100.000
G1 Z0.600 F10800.000
G1 X95.888 Y53.787
G1 Z0.200
G1 E0.80000 F2100.000
;TYPE:Perimeter
G1 F1200.000
G1 X98.286 Y53.787 E0.07519
G1 X98.286 Y53.041 E0.02339
G1 X154.112 Y53.041 E1.75038
G1 X154.112 Y62.873 E0.30827
G1 X145.037 Y62.873 E0.28454
G1 X145.037 Y90.442 E0.86441
G1 X154.112 Y90.442 E0.28454
G1 X154.112 Y157.005 E2.08702
G1 X98.286 Y157.005 E1.75038
M73 Q0 S106
G1 X98.286 Y156.213 E0.02482
G1 X95.888 Y156.213 E0.07519
G1 X95.888 Y53.847 E3.20961
;WIPE_START
G1 F8640.000
G1 X98.286 Y53.787 E-0.55388
G1 X98.286 Y53.041 E-0.17228
G1 X98.433 Y53.041 E-0.03384
;WIPE_END
G1 E-0.04000 F2100.000
G1 Z0.600 F10800.000
G1 X145.414 Y63.250
G1 Z0.200
G1 E0.80000 F2100.000
;TYPE:External perimeter
G1 F1200.000
G1 X145.414 Y90.065 E0.84077
G1 X154.489 Y90.065 E0.28454
G1 X154.489 Y157.382 E2.11067
M73 P0 R105
G1 X97.909 Y157.382 E1.77403
G1 X97.909 Y156.590 E0.02482
G1 X95.511 Y156.590 E0.07519
G1 X95.511 Y53.410 E3.23514
G1 X97.909 Y53.410 E0.07519
G1 X97.909 Y52.664 E0.02339
G1 X154.489 Y52.664 E1.77403
G1 X154.489 Y63.250 E0.33192
G1 X145.474 Y63.250 E0.28266
G1 X145.030 Y63.363 F10800.000
;WIPE_START
G1 F8640.000
G1 X145.467 Y66.541 E-0.76000
;WIPE_END
G1 E-0.04000 F2100.000
G1 Z0.600 F10800.000
G1 X153.999 Y53.919
G1 Z0.200
G1 E0.80000 F2100.000
;TYPE:Solid infill
;WIDTH:0.421184
G1 F1200.000
G1 X153.404 Y53.324 E0.02647
G1 X152.869 Y53.324 E0.01683
G1 X153.829 Y54.284 E0.04272
G1 X153.829 Y54.819 E0.01683
G1 X152.334 Y53.324 E0.06651
G1 X151.799 Y53.324 E0.01683
G1 X153.829 Y55.354 E0.09031
G1 X153.829 Y55.889 E0.01683
G1 X151.264 Y53.324 E0.11410
G1 X150.729 Y53.324 E0.01683
G1 X153.829 Y56.424 E0.13790
G1 X153.829 Y56.959 E0.01683
G1 X150.194 Y53.324 E0.16169
G1 X149.659 Y53.324 E0.01683
G1 X153.829 Y57.494 E0.18549
G1 X153.829 Y58.029 E0.01683
G1 X149.124 Y53.324 E0.20928
G1 X148.589 Y53.324 E0.01683
G1 X153.829 Y58.564 E0.23308
G1 X153.829 Y59.099 E0.01683
G1 X148.054 Y53.324 E0.25687
G1 X147.519 Y53.324 E0.01683
G1 X153.829 Y59.634 E0.28067
G1 X153.829 Y60.169 E0.01683
M73 P1 R105
G1 X146.984 Y53.324 E0.30446
M73 Q1 S106
G1 X146.449 Y53.324 E0.01683
G1 X153.829 Y60.703 E0.32826
G1 X153.829 Y61.238 E0.01683
G1 X145.914 Y53.324 E0.35205
G1 X145.380 Y53.324 E0.01683
G1 X153.829 Y61.773 E0.37585
G1 X153.829 Y62.308 E0.01683
G1 X144.845 Y53.324 E0.39964
G1 X144.310 Y53.324 E0.01683
G1 X153.576 Y62.590 E0.41218
G1 X153.041 Y62.590 E0.01683
G1 X143.775 Y53.324 E0.41218
G1 X143.240 Y53.324 E0.01683
G1 X152.506 Y62.590 E0.41218
G1 X151.971 Y62.590 E0.01683
G1 X142.705 Y53.324 E0.41218
G1 X142.170 Y53.324 E0.01683
G1 X151.436 Y62.590 E0.41218
G1 X150.901 Y62.590 E0.01683
G1 X141.635 Y53.324 E0.41218
G1 X141.100 Y53.324 E0.01683
G1 X150.366 Y62.590 E0.41218
G1 X149.831 Y62.590 E0.01683
G1 X140.565 Y53.324 E0.41218
G1 X140.030 Y53.324 E0.01683
G1 X149.296 Y62.590 E0.41218
G1 X148.762 Y62.590 E0.01683
G1 X139.495 Y53.324 E0.41218
G1 X138.960 Y53.324 E0.01683
G1 X148.227 Y62.590 E0.41218
G1 X147.692 Y62.590 E0.01683
G1 X138.425 Y53.324 E0.41218
G1 X137.890 Y53.324 E0.01683
G1 X147.157 Y62.590 E0.41218
G1 X146.622 Y62.590 E0.01683
G1 X137.355 Y53.324 E0.41218
G1 X136.820 Y53.324 E0.01683
G1 X146.087 Y62.590 E0.41218
G1 X145.552 Y62.590 E0.01683
G1 X136.285 Y53.324 E0.41218
G1 X135.750 Y53.324 E0.01683
G1 X145.017 Y62.590 E0.41218
G1 X144.754 Y62.590 E0.00826
G1 X144.754 Y62.862 E0.00856
G1 X135.216 Y53.324 E0.42428
G1 X134.681 Y53.324 E0.01683
G1 X144.754 Y63.397 E0.44808
G1 X144.754 Y63.932 E0.01683
G1 X134.146 Y53.324 E0.47187
G1 X133.611 Y53.324 E0.01683
G1 X144.754 Y64.467 E0.49567
G1 X144.754 Y65.002 E0.01683
G1 X133.076 Y53.324 E0.51946
G1 X132.541 Y53.324 E0.01683
G1 X144.754 Y65.537 E0.54326
G1 X144.754 Y66.072 E0.01683
G1 X132.006 Y53.324 E0.56705
G1 X131.471 Y53.324 E0.01683
G1 X144.754 Y66.607 E0.59085
G1 X144.754 Y67.142 E0.01683
G1 X130.936 Y53.324 E0.61464
G1 X130.401 Y53.324 E0.01683
G1 X144.754 Y67.677 E0.63844
G1 X144.754 Y68.212 E0.01683
G1 X129.866 Y53.324 E0.66223
G1 X129.331 Y53.324 E0.01683
G1 X144.754 Y68.747 E0.68603
G1 X144.754 Y69.282 E0.01683
G1 X128.796 Y53.324 E0.70982
G1 X128.261 Y53.324 E0.01683
G1 X144.754 Y69.817 E0.73362
G1 X144.754 Y70.352 E0.01683
G1 X127.726 Y53.324 E0.75741
G1 X127.191 Y53.324 E0.01683
G1 X144.754 Y70.887 E0.78121
M73 Q1 S105
G1 X144.754 Y71.421 E0.01683
G1 X126.656 Y53.324 E0.80500
G1 X126.121 Y53.324 E0.01683
G1 X144.754 Y71.956 E0.82880
G1 X144.754 Y72.491 E0.01683
G1 X125.587 Y53.324 E0.85259
G1 X125.052 Y53.324 E0.01683
G1 X144.754 Y73.026 E0.87639
G1 X144.754 Y73.561 E0.01683
G1 X124.517 Y53.324 E0.90018
G1 X123.982 Y53.324 E0.01683
G1 X144.754 Y74.096 E0.92398
G1 X144.754 Y74.631 E0.01683
G1 X123.447 Y53.324 E0.94777
G1 X122.912 Y53.324 E0.01683
G1 X144.754 Y75.166 E0.97157
G1 X144.754 Y75.701 E0.01683
G1 X122.377 Y53.324 E0.99536
M73 P1 R104
G1 X121.842 Y53.324 E0.01683
G1 X144.754 Y76.236 E1.01916
G1 X144.754 Y76.771 E0.01683
G1 X121.307 Y53.324 E1.04295
G1 X120.772 Y53.324 E0.01683
G1 X144.754 Y77.306 E1.06675
G1 X144.754 Y77.841 E0.01683
G1 X120.237 Y53.324 E1.09054
G1 X119.702 Y53.324 E0.01683
G1 X144.754 Y78.376 E1.11434
G1 X144.754 Y78.911 E0.01683
G1 X119.167 Y53.324 E1.13813
G1 X118.632 Y53.324 E0.01683
G1 X144.754 Y79.446 E1.16193
G1 X144.754 Y79.981 E0.01683
G1 X118.097 Y53.324 E1.18572
G1 X117.562 Y53.324 E0.01683
G1 X144.754 Y80.516 E1.20952
G1 X144.754 Y81.050 E0.01683
G1 X117.027 Y53.324 E1.23331
G1 X116.492 Y53.324 E0.01683
G1 X144.754 Y81.585 E1.25711
M73 P2 R104
G1 X144.754 Y82.120 E0.01683
G1 X115.957 Y53.324 E1.28090
M73 Q2 S105
G1 X115.423 Y53.324 E0.01683
G1 X144.754 Y82.655 E1.30470
G1 X144.754 Y83.190 E0.01683
G1 X114.888 Y53.324 E1.32849
G1 X114.353 Y53.324 E0.01683
G1 X144.754 Y83.725 E1.35229
G1 X144.754 Y84.260 E0.01683
G1 X113.818 Y53.324 E1.37608
G1 X113.283 Y53.324 E0.01683
G1 X144.754 Y84.795 E1.39988
G1 X144.754 Y85.330 E0.01683
G1 X112.748 Y53.324 E1.42367
G1 X112.213 Y53.324 E0.01683
G1 X144.754 Y85.865 E1.44747
G1 X144.754 Y86.400 E0.01683
G1 X111.678 Y53.324 E1.47126
G1 X111.143 Y53.324 E0.01683
G1 X144.754 Y86.935 E1.49506
G1 X144.754 Y87.470 E0.01683
G1 X110.608 Y53.324 E1.51885
G1 X110.073 Y53.324 E0.01683
G1 X144.754 Y88.005 E1.54265
M73 Q2 S104
G1 X144.754 Y88.540 E0.01683
G1 X109.538 Y53.324 E1.56644
G1 X109.003 Y53.324 E0.01683
G1 X144.754 Y89.075 E1.59024
G1 X144.754 Y89.610 E0.01683
G1 X108.468 Y53.324 E1.61403
G1 X107.933 Y53.324 E0.01683
G1 X144.924 Y90.314 E1.64537
;WIPE_START
G1 F8640.000
G1 X142.596 Y87.987 E-0.76000
;WIPE_END
G1 E-0.04000 F2100.000
G1 Z0.600 F10800.000
G1 X153.189 Y90.555
G1 Z0.200
G1 E0.80000 F2100.000
G1 F1200.000
G1 X153.829 Y91.195 E0.02848
G1 X153.829 Y91.730 E0.01683
G1 X152.824 Y90.725 E0.04472
G1 X152.289 Y90.725 E0.01683
G1 X153.829 Y92.265 E0.06852
G1 X153.829 Y92.800 E0.01683
G1 X151.754 Y90.725 E0.09231
G1 X151.219 Y90.725 E0.01683
G1 X153.829 Y93.335 E0.11611
G1 X153.829 Y93.870 E0.01683
G1 X150.684 Y90.725 E0.13990
M73 P2 R103
G1 X150.149 Y90.725 E0.01683
G1 X153.829 Y94.405 E0.16370
G1 X153.829 Y94.940 E0.01683
G1 X149.614 Y90.725 E0.18749
G1 X149.079 Y90.725 E0.01683
G1 X153.829 Y95.475 E0.21129
G1 X153.829 Y96.010 E0.01683
G1 X148.544 Y90.725 E0.23508
G1 X148.009 Y90.725 E0.01683
G1 X153.829 Y96.545 E0.25888
G1 X153.829 Y97.080 E0.01683
G1 X147.474 Y90.725 E0.28267
G1 X146.939 Y90.725 E0.01683
G1 X153.829 Y97.615 E0.30647
G1 X153.829 Y98.150 E0.01683
G1 X146.404 Y90.725 E0.33026
G1 X145.869 Y90.725 E0.01683
G1 X153.829 Y98.685 E0.35406
G1 X153.829 Y99.220 E0.01683
G1 X145.165 Y90.555 E0.38540
;WIPE_START
G1 F8640.000
G1 X147.492 Y92.883 E-0.76000
;WIPE_END
G1 E-0.04000 F2100.000
G1 Z0.600 F10800.000
G1 X153.999 Y99.924
G1 Z0.200
G1 E0.80000 F2100.000
G1 F1200.000
G1 X107.398 Y53.324 E2.07283
G1 X106.863 Y53.324 E0.01683
G1 X153.829 Y100.289 E2.08908
G1 X153.829 Y100.824 E0.01683
G1 X106.328 Y53.324 E2.11287
G1 X105.794 Y53.324 E0.01683
G1 X153.829 Y101.359 E2.13667
G1 X153.829 Y101.894 E0.01683
G1 X105.259 Y53.324 E2.16046
G1 X104.724 Y53.324 E0.01683
G1 X153.829 Y102.429 E2.18426
M73 P3 R103
M73 Q3 S104
G1 X153.829 Y102.964 E0.01683
G1 X104.189 Y53.324 E2.20805
G1 X103.654 Y53.324 E0.01683
G1 X153.829 Y103.499 E2.23185
G1 X153.829 Y104.034 E0.01683
G1 X103.119 Y53.324 E2.25564
G1 X102.584 Y53.324 E0.01683
G1 X153.829 Y104.569 E2.27944
G1 X153.829 Y105.104 E0.01683
G1 X102.049 Y53.324 E2.30323
G1 X101.514 Y53.324 E0.01683
G1 X153.829 Y105.639 E2.32703
M73 Q3 S103
G1 X153.829 Y106.174 E0.01683
G1 X100.979 Y53.324 E2.35082
G1 X100.444 Y53.324 E0.01683
G1 X153.829 Y106.709 E2.37462
G1 X153.829 Y107.244 E0.01683
G1 X99.909 Y53.324 E2.39841
G1 X99.374 Y53.324 E0.01683
G1 X153.829 Y107.779 E2.42221
M73 P3 R102
G1 X153.829 Y108.314 E0.01683
G1 X98.839 Y53.324 E2.44600
G1 X98.569 Y53.324 E0.00850
G1 X98.569 Y53.588 E0.00832
G1 X153.829 Y108.849 E2.45803
G1 X153.829 Y109.384 E0.01683
G1 X98.515 Y54.070 E2.46041
G1 X97.981 Y54.070 E0.01683
G1 X153.829 Y109.919 E2.48420
G1 X153.829 Y110.453 E0.01683
G1 X97.446 Y54.070 E2.50800
G1 X96.911 Y54.070 E0.01683
G1 X153.829 Y110.988 E2.53179
G1 X153.829 Y111.523 E0.01683
G1 X96.376 Y54.070 E2.55559
M73 P4 R102
M73 Q4 S103
G1 X96.171 Y54.070 E0.00644
G1 X96.171 Y54.400 E0.01038
G1 X153.829 Y112.058 E2.56469
G1 X153.829 Y112.593 E0.01683
G1 X96.171 Y54.935 E2.56469
G1 X96.171 Y55.470 E0.01683
G1 X153.829 Y113.128 E2.56469
G1 X153.829 Y113.663 E0.01683
G1 X96.171 Y56.005 E2.56469
M73 Q4 S102
G1 X96.171 Y56.540 E0.01683
G1 X153.829 Y114.198 E2.56469
G1 X153.829 Y114.733 E0.01683
G1 X96.171 Y57.075 E2.56469
G1 X96.171 Y57.610 E0.01683
G1 X153.829 Y115.268 E2.56469
G1 X153.829 Y115.803 E0.01683
G1 X96.171 Y58.145 E2.56469
M73 P4 R101
G1 X96.171 Y58.680 E0.01683
G1 X153.829 Y116.338 E2.56469
G1 X153.829 Y116.873 E0.01683
G1 X96.171 Y59.215 E2.56469
G1 X96.171 Y59.749 E0.01683
G1 X153.829 Y117.408 E2.56469
G1 X153.829 Y117.943 E0.01683
G1 X96.171 Y60.284 E2.56469
G1 X96.171 Y60.819 E0.01683
G1 X153.829 Y118.478 E2.56469
G1 X153.829 Y119.013 E0.01683
G1 X96.171 Y61.354 E2.56469
G1 X96.171 Y61.889 E0.01683
G1 X153.829 Y119.548 E2.56469
M73 P5 R101
G1 X153.829 Y120.082 E0.01683
G1 X96.171 Y62.424 E2.56469
M73 Q5 S102
G1 X96.171 Y62.959 E0.01683
G1 X153.829 Y120.617 E2.56469
G1 X153.829 Y121.152 E0.01683
G1 X96.171 Y63.494 E2.56469
G1 X96.171 Y64.029 E0.01683
G1 X153.829 Y121.687 E2.56469
M73 Q5 S101
G1 X153.829 Y122.222 E0.01683
G1 X96.171 Y64.564 E2.56469
G1 X96.171 Y65.099 E0.01683
G1 X153.829 Y122.757 E2.56469
G1 X153.829 Y123.292 E0.01683
G1 X96.171 Y65.634 E2.56469
M73 P5 R100
G1 X96.171 Y66.169 E0.01683
G1 X153.829 Y123.827 E2.56469
G1 X153.829 Y124.362 E0.01683
G1 X96.171 Y66.704 E2.56469
G1 X96.171 Y67.239 E0.01683
G1 X153.829 Y124.897 E2.56469
G1 X153.829 Y125.432 E0.01683
G1 X96.171 Y67.774 E2.56469
G1 X96.171 Y68.309 E0.01683
G1 X153.829 Y125.967 E2.56469
G1 X153.829 Y126.502 E0.01683
G1 X96.171 Y68.844 E2.56469
G1 X96.171 Y69.379 E0.01683
G1 X153.829 Y127.037 E2.56469
G1 X153.829 Y127.572 E0.01683
G1 X96.171 Y69.913 E2.56469
G1 X96.171 Y70.448 E0.01683
G1 X153.829 Y128.107 E2.56469
M73 P6 R100
M73 Q6 S101
G1 X153.829 Y128.642 E0.01683
G1 X96.171 Y70.983 E2.56469
G1 X96.171 Y71.518 E0.01683
G1 X153.829 Y129.177 E2.56469
M73 Q6 S100
G1 X153.829 Y129.712 E0.01683
G1 X96.171 Y72.053 E2.56469
G1 X96.171 Y72.588 E0.01683
G1 X153.829 Y130.246 E2.56469
G1 X153.829 Y130.781 E0.01683
G1 X96.171 Y73.123 E2.56469
G1 X96.171 Y73.658 E0.01683
G1 X153.829 Y131.316 E2.56469
M73 P6 R99
G1 X153.829 Y131.851 E0.01683
G1 X96.171 Y74.193 E2.56469
G1 X96.171 Y74.728 E0.01683
G1 X153.829 Y132.386 E2.56469
G1 X153.829 Y132.921 E0.01683
G1 X96.171 Y75.263 E2.56469
G1 X96.171 Y75.798 E0.01683
G1 X153.829 Y133.456 E2.56469
G1 X153.829 Y133.991 E0.01683
G1 X96.171 Y76.333 E2.56469
G1 X96.171 Y76.868 E0.01683
G1 X153.829 Y134.526 E2.56469
G1 X153.829 Y135.061 E0.01683
G1 X96.171 Y77.403 E2.56469
G1 X96.171 Y77.938 E0.01683
G1 X153.829 Y135.596 E2.56469
G1 X153.829 Y136.131 E0.01683
G1 X96.171 Y78.473 E2.56469
M73 P7 R99
G1 X96.171 Y79.008 E0.01683
G1 X153.829 Y136.666 E2.56469
M73 Q7 S100
G1 X153.829 Y137.201 E0.01683
G1 X96.171 Y79.542 E2.56469
M73 Q7 S99
G1 X96.171 Y80.077 E0.01683
G1 X153.829 Y137.736 E2.56469
G1 X153.829 Y138.271 E0.01683
G1 X96.171 Y80.612 E2.56469
G1 X96.171 Y81.147 E0.01683
G1 X153.829 Y138.806 E2.56469
M73 P7 R98
G1 X153.829 Y139.341 E0.01683
G1 X96.171 Y81.682 E2.56469
G1 X96.171 Y82.217 E0.01683
G1 X153.829 Y139.875 E2.56469
G1 X153.829 Y140.410 E0.01683
G1 X96.171 Y82.752 E2.56469
G1 X96.171 Y83.287 E0.01683
G1 X153.829 Y140.945 E2.56469
G1 X153.829 Y141.480 E0.01683
G1 X96.171 Y83.822 E2.56469
G1 X96.171 Y84.357 E0.01683
G1 X153.829 Y142.015 E2.56469
G1 X153.829 Y142.550 E0.01683
G1 X96.171 Y84.892 E2.56469
G1 X96.171 Y85.427 E0.01683
G1 X153.829 Y143.085 E2.56469
G1 X153.829 Y143.620 E0.01683
G1 X96.171 Y85.962 E2.56469
G1 X96.171 Y86.497 E0.01683
G1 X153.829 Y144.155 E2.56469
G1 X153.829 Y144.690 E0.01683
G1 X96.171 Y87.032 E2.56469
M73 P8 R98
G1 X96.171 Y87.567 E0.01683
G1 X153.829 Y145.225 E2.56469
M73 Q8 S98
G1 X153.829 Y145.760 E0.01683
G1 X96.171 Y88.102 E2.56469
G1 X96.171 Y88.637 E0.01683
G1 X153.829 Y146.295 E2.56469
G1 X153.829 Y146.830 E0.01683
G1 X96.171 Y89.172 E2.56469
M73 P8 R97
G1 X96.171 Y89.706 E0.01683
G1 X153.829 Y147.365 E2.56469
G1 X153.829 Y147.900 E0.01683
G1 X96.171 Y90.241 E2.56469
G1 X96.171 Y90.776 E0.01683
G1 X153.829 Y148.435 E2.56469
G1 X153.829 Y148.970 E0.01683
