; generated by PrusaSlicer 2.3.0+win64 on 2021-06-17 at 15:32:07 UTC

; 

; external perimeters extrusion width = 0.45mm
; perimeters extrusion width = 0.45mm
; infill extrusion width = 0.45mm
; solid infill extrusion width = 0.45mm
; top infill extrusion width = 0.40mm
; support material extrusion width = 0.35mm
; first layer extrusion width = 0.42mm

M73 P0 R15
M73 Q0 S15
M201 X1000 Y1000 Z200 E5000 ; sets maximum accelerations, mm/sec^2
M203 X200 Y200 Z12 E120 ; sets maximum feedrates, mm/sec
M204 P1250 R1250 T1250 ; sets acceleration (P, T) and retract acceleration (R), mm/sec^2
M205 X8.00 Y8.00 Z0.40 E4.50 ; sets the jerk limits, mm/sec
M205 S0 T0 ; sets the minimum extruding and travel feed rate, mm/sec
M107
;TYPE:Custom
M862.3 P "MK3" ; printer model check
M862.1 P0.4 ; nozzle diameter check
M115 U3.9.2 ; tell printer latest fw version
G90 ; use absolute coordinates
M83 ; extruder relative mode
M104 S215 ; set extruder temp
M140 S60 ; set bed temp
M190 S60 ; wait for bed temp
M109 S215 ; wait for extruder temp
G28 W ; home all without mesh bed level
G80 ; mesh bed leveling
G1 Y-3.0 F1000.0 ; go outside print area
G92 E0.0
G1 X60.0 E9.0 F1000.0 ; intro line
G1 X100.0 E12.5 F1000.0 ; intro line
G92 E0.0
M221 S95

; Don't change E values below. Excessive value can damage the printer.
M907 E430 ; set extruder motor current
G21 ; set units to millimeters
G90 ; use absolute coordinates
M83 ; use relative distances for extrusion
M900 K0.05 ; Filament gcode LA 1.5
M900 K30 ; Filament gcode LA 1.0
;LAYER_CHANGE
;Z:0.2
;HEIGHT:0.2
;BEFORE_LAYER_CHANGE
G92 E0.0
;0.2


G1 E-0.80000 F2100.000
G1 Z0.400 F10800.000
;AFTER_LAYER_CHANGE
;0.2
G1 X114.812 Y88.608
G1 Z0.200
G1 E0.80000 F2100.000
M204 S1000
;TYPE:Skirt
;WIDTH:0.42
G1 F1200.000
G1 X115.333 Y88.154 E0.02167
G1 X115.950 Y87.844 E0.02167
G1 X116.630 Y87.697 E0.02180
G1 X133.464 Y87.517 E0.52786
G1 X136.741 Y87.699 E0.10291
G1 X137.571 Y87.914 E0.02689
G1 X138.163 Y88.263 E0.02154
G1 X138.649 Y88.749 E0.02154
G1 X139.000 Y89.339 E0.02154
G1 X139.194 Y89.998 E0.02154
G1 X139.230 Y119.754 E0.93297
M73 P1 R15
M73 Q1 S15
G1 X139.149 Y120.391 E0.02014
G1 X138.924 Y120.992 E0.02014
G1 X138.513 Y121.583 E0.02256
G1 X137.967 Y122.045 E0.02243
G1 X137.320 Y122.351 E0.02243
G1 X136.616 Y122.480 E0.02243
G1 X116.827 Y122.483 E0.62048
G1 X116.198 Y122.400 E0.01988
G1 X115.605 Y122.177 E0.01988
G1 X115.008 Y121.760 E0.02282
G1 X114.541 Y121.202 E0.02282
G1 X114.236 Y120.542 E0.02282
G1 X114.116 Y119.828 E0.02269
G1 X114.114 Y90.412 E0.92232
G1 X114.195 Y89.775 E0.02014
G1 X114.420 Y89.178 E0.02001
G1 X114.778 Y88.658 E0.01979
G1 X115.086 Y88.872 F10800.000
G1 F1200.000
G1 X115.558 Y88.457 E0.01969
G1 X116.096 Y88.192 E0.01882
G1 X116.684 Y88.071 E0.01882
G1 X133.462 Y87.894 E0.52608
G1 X136.686 Y88.073 E0.10123
G1 X137.372 Y88.239 E0.02213
G1 X137.904 Y88.540 E0.01917
G1 X138.339 Y88.964 E0.01906
G1 X138.654 Y89.488 E0.01917
G1 X138.825 Y90.076 E0.01917
G1 X138.853 Y119.748 E0.93036
G1 X138.782 Y120.306 E0.01763
G1 X138.584 Y120.828 E0.01752
G1 X138.226 Y121.338 E0.01953
G1 X137.751 Y121.735 E0.01941
G1 X137.190 Y121.996 E0.01941
G1 X136.580 Y122.104 E0.01941
G1 X116.837 Y122.106 E0.61901
G1 X116.287 Y122.034 E0.01740
G1 X115.769 Y121.837 E0.01740
G1 X115.253 Y121.474 E0.01977
G1 X114.854 Y120.991 E0.01965
G1 X114.594 Y120.421 E0.01965
G1 X114.492 Y119.802 E0.01965
G1 X114.491 Y90.422 E0.92122
M73 P2 R15
M73 Q2 S15
G1 X114.562 Y89.864 E0.01763
G1 X114.760 Y89.341 E0.01752
G1 X115.052 Y88.921 E0.01604
; printing object FED3_Sept2020_nose.stl id:0 copy 0
;WIPE_START
G1 F8640.000
G1 X115.558 Y88.457 E-0.15849
G1 X116.096 Y88.192 E-0.13859
G1 X116.684 Y88.071 E-0.13859
G1 X118.089 Y88.056 E-0.32433
;WIPE_END
G1 E-0.04000 F2100.000
G1 Z0.600 F10800.000
G1 X129.261 Y93.268
G1 Z0.200
G1 E0.80000 F2100.000
;TYPE:Support material interface
;WIDTH:0.35
G1 F1200.000
G1 X129.261 Y116.589 E0.59548
G1 X129.779 Y116.589 E0.01322
G1 X129.779 Y93.411 E0.59183
G1 X130.297 Y93.411 E0.01322
G1 X130.297 Y116.589 E0.59183
G1 X130.814 Y116.589 E0.01322
G1 X130.814 Y93.411 E0.59183
G1 X131.332 Y93.411 E0.01322
G1 X131.332 Y116.589 E0.59183
G1 X131.850 Y116.589 E0.01322
G1 X131.850 Y93.411 E0.59183
G1 X132.368 Y93.411 E0.01322
G1 X132.368 Y116.589 E0.59183
M73 P3 R15
M73 Q3 S15
G1 X132.886 Y116.589 E0.01322
G1 X132.886 Y93.411 E0.59183
G1 X133.403 Y93.411 E0.01322
G1 X133.403 Y116.732 E0.59548
G1 X136.476 Y119.729 F10800.000
;TYPE:Support material
;WIDTH:0.42
G1 F1200.000
G1 X136.476 Y90.441 E0.91832
G1 X135.722 Y90.441 E0.02365
G1 X135.722 Y119.559 E0.91300
G1 X134.968 Y119.559 E0.02365
G1 X134.968 Y90.441 E0.91300
G1 X134.214 Y90.441 E0.02365
G1 X134.214 Y119.559 E0.91300
G1 X133.459 Y119.559 E0.02365
G1 X133.459 Y116.936 E0.08224
G1 X132.705 Y116.936 E0.02365
M73 Q4 S15
G1 X132.705 Y119.559 E0.08224
G1 X131.951 Y119.559 E0.02365
M73 P4 R15
G1 X131.951 Y116.936 E0.08224
G1 X131.197 Y116.936 E0.02365
G1 X131.197 Y119.559 E0.08224
G1 X130.443 Y119.559 E0.02365
G1 X130.443 Y116.936 E0.08224
G1 X129.689 Y116.936 E0.02365
G1 X129.689 Y119.559 E0.08224
G1 X128.934 Y119.559 E0.02365
G1 X128.934 Y116.936 E0.08224
M73 P4 R14
G1 X128.642 Y116.936 E0.00916
G1 X128.642 Y93.063 E0.74852
G1 X128.934 Y93.063 E0.00916
G1 X128.934 Y90.441 E0.08224
G1 X129.689 Y90.441 E0.02365
G1 X129.689 Y93.063 E0.08224
G1 X130.443 Y93.063 E0.02365
G1 X130.443 Y90.441 E0.08224
G1 X131.197 Y90.441 E0.02365
G1 X131.197 Y93.063 E0.08224
G1 X131.951 Y93.063 E0.02365
G1 X131.951 Y90.441 E0.08224
G1 X132.705 Y90.441 E0.02365
G1 X132.705 Y93.063 E0.08224
G1 X133.459 Y93.063 E0.02365
G1 X133.459 Y90.271 E0.08756
G1 X128.180 Y119.729 F10800.000
G1 F1200.000
G1 X128.180 Y90.441 E0.91832
M73 Q4 S14
G1 X127.426 Y90.441 E0.02365
G1 X127.426 Y119.559 E0.91300
G1 X126.672 Y119.559 E0.02365
G1 X126.672 Y90.441 E0.91300
G1 X125.918 Y90.441 E0.02365
G1 X125.918 Y119.559 E0.91300
M73 P5 R14
M73 Q5 S14
G1 X125.164 Y119.559 E0.02365
G1 X125.164 Y90.441 E0.91300
G1 X124.409 Y90.441 E0.02365
G1 X124.409 Y100.973 E0.33025
G1 X123.655 Y100.973 E0.02365
G1 X123.655 Y90.441 E0.33025
G1 X122.901 Y90.441 E0.02365
G1 X122.901 Y100.973 E0.33025
G1 X122.711 Y100.973 E0.00595
G1 X122.403 Y101.282 E0.01366
G1 X122.403 Y108.717 E0.23314
G1 X122.711 Y109.026 E0.01366
G1 X122.901 Y109.026 E0.00595
G1 X122.901 Y119.559 E0.33028
G1 X123.655 Y119.559 E0.02365
G1 X123.655 Y109.026 E0.33028
G1 X124.409 Y109.026 E0.02365
G1 X124.409 Y119.729 E0.33560
G1 X122.147 Y119.729 F10800.000
G1 F1200.000
G1 X122.147 Y90.441 E0.91832
G1 X121.393 Y90.441 E0.02365
G1 X121.393 Y119.559 E0.91300
M73 P6 R14
M73 Q6 S14
G1 X120.639 Y119.559 E0.02365
G1 X120.639 Y90.441 E0.91300
G1 X119.885 Y90.441 E0.02365
G1 X119.885 Y119.559 E0.91300
G1 X119.130 Y119.559 E0.02365
G1 X119.130 Y90.441 E0.91300
G1 X118.376 Y90.441 E0.02365
G1 X118.376 Y119.559 E0.91300
G1 X117.622 Y119.559 E0.02365
G1 X117.622 Y90.441 E0.91300
G1 X116.868 Y90.441 E0.02365
G1 X116.868 Y119.729 E0.91832
;WIPE_START
M73 P7 R14
M73 Q7 S14
G1 F8640.000
G1 X116.868 Y116.438 E-0.76000
;WIPE_END
G1 E-0.04000 F2100.000
G1 Z0.600 F10800.000
G1 X123.339 Y108.090
G1 Z0.200
G1 E0.80000 F2100.000
;TYPE:External perimeter
G1 F1200.000
G1 X123.339 Y101.909 E0.19377
G1 X124.062 Y101.909 E0.02268
G1 X124.062 Y103.837 E0.06045
G1 X123.877 Y103.837 E0.00583
G1 X123.877 Y106.162 E0.07290
G1 X124.062 Y106.162 E0.00583
G1 X124.062 Y108.090 E0.06042
G1 X123.399 Y108.090 E0.02079
G1 X123.387 Y107.692 F10800.000
G1 X123.701 Y107.901
;TYPE:Gap fill
;WIDTH:0.323501
G1 F1200.000
G1 X123.701 Y106.524 E0.03212
G1 X123.648 Y106.431 E0.00249
;WIDTH:0.203252
G1 X123.608 Y106.351 E0.00119
G1 X123.608 Y103.649 E0.03602
;WIDTH:0.243335
G1 X123.628 Y103.609 E0.00075
;WIDTH:0.283418
G1 X123.648 Y103.569 E0.00090
;WIDTH:0.323501
G1 X123.668 Y103.529 E0.00105
;WIDTH:0.363584
G1 X123.688 Y103.489 E0.00119
;WIDTH:0.389064
G1 X123.701 Y103.476 E0.00052
G1 X123.701 Y102.098 E0.03966
; stop printing object FED3_Sept2020_nose.stl id:0 copy 0
M106 S84.15
;LAYER_CHANGE
;Z:0.35
;HEIGHT:0.15
;BEFORE_LAYER_CHANGE
G92 E0.0
;0.35


;WIPE_START
G1 F8640.000
G1 X123.701 Y103.476 E-0.31815
G1 X123.688 Y103.489 E-0.00416
;WIPE_END
G1 E-0.47769 F2100.000
G1 Z0.600 F10800.000
;AFTER_LAYER_CHANGE
;0.35
M104 S210 ; set temperature
G1 X139.194 Y89.998
G1 Z0.350
G1 E0.80000 F2100.000
;TYPE:Skirt
;WIDTH:0.42
G1 F1091
G1 X139.230 Y119.754 E0.71964
G1 X139.149 Y120.391 E0.01553
G1 X138.924 Y120.992 E0.01553
G1 X138.513 Y121.583 E0.01740
G1 X137.967 Y122.045 E0.01730
G1 X137.320 Y122.351 E0.01730
G1 X136.616 Y122.480 E0.01730
G1 X116.827 Y122.483 E0.47860
G1 X116.198 Y122.400 E0.01534
G1 X115.605 Y122.177 E0.01534
G1 X115.008 Y121.760 E0.01760
G1 X114.541 Y121.202 E0.01760
G1 X114.236 Y120.542 E0.01760
G1 X114.116 Y119.828 E0.01750
G1 X114.114 Y90.412 E0.71143
G1 X114.195 Y89.775 E0.01553
G1 X114.420 Y89.178 E0.01543
G1 X114.812 Y88.608 E0.01671
G1 X115.333 Y88.154 E0.01671
G1 X115.950 Y87.844 E0.01671
G1 X116.630 Y87.697 E0.01681
G1 X133.464 Y87.517 E0.40716
G1 X136.741 Y87.699 E0.07938
G1 X137.571 Y87.914 E0.02074
G1 X138.163 Y88.263 E0.01662
G1 X138.649 Y88.749 E0.01662
G1 X139.000 Y89.339 E0.01662
G1 X139.177 Y89.940 E0.01516
G1 X138.816 Y90.046 F10800.000
G1 F1091
G1 X138.853 Y119.748 E0.71835
M73 P8 R14
M73 Q8 S14
G1 X138.782 Y120.306 E0.01360
G1 X138.584 Y120.828 E0.01351
G1 X138.226 Y121.338 E0.01506
G1 X137.751 Y121.735 E0.01497
G1 X137.190 Y121.996 E0.01497
G1 X136.580 Y122.104 E0.01497
G1 X116.837 Y122.106 E0.47747
G1 X116.287 Y122.034 E0.01342
G1 X115.769 Y121.837 E0.01342
G1 X115.253 Y121.474 E0.01525
G1 X114.854 Y120.991 E0.01516
G1 X114.594 Y120.421 E0.01516
G1 X114.492 Y119.802 E0.01516
G1 X114.491 Y90.422 E0.71057
G1 X114.562 Y89.864 E0.01360
G1 X114.760 Y89.341 E0.01351
G1 X115.103 Y88.849 E0.01452
G1 X115.558 Y88.457 E0.01452
G1 X116.096 Y88.192 E0.01452
G1 X116.684 Y88.071 E0.01452
G1 X133.462 Y87.894 E0.40579
G1 X136.686 Y88.073 E0.07809
G1 X137.372 Y88.239 E0.01707
G1 X137.904 Y88.540 E0.01479
G1 X138.339 Y88.964 E0.01470
G1 X138.654 Y89.488 E0.01479
G1 X138.799 Y89.988 E0.01258
; printing object FED3_Sept2020_nose.stl id:0 copy 0
;WIPE_START
G1 F8640.000
G1 X138.805 Y93.279 E-0.76000
;WIPE_END
G1 E-0.04000 F2100.000
G1 Z0.750 F10800.000
G1 X123.537 Y103.605
G1 Z0.350
G1 E0.80000 F2100.000
M204 S800
;TYPE:Perimeter
;WIDTH:0.45
G1 F1091
G1 X123.537 Y106.395 E0.07271
G1 X124.312 Y106.395 E0.02018
G1 X124.312 Y107.857 E0.03808
G1 X123.080 Y107.857 E0.03209
G1 X123.080 Y102.142 E0.14889
G1 X124.312 Y102.142 E0.03209
G1 X124.312 Y103.605 E0.03810
G1 X123.597 Y103.605 E0.01862
M204 S1000
G1 X123.955 Y104.022 F10800.000
M204 S800
;TYPE:External perimeter
G1 F1091
G1 X123.955 Y105.977 E0.05094
G1 X124.672 Y105.977 E0.01869
;TYPE:Overhang perimeter
;WIDTH:0.357771
;HEIGHT:0.357771
G1 F1500.000
G1 X124.730 Y105.977 E0.00240
G1 X124.730 Y108.275 E0.09601
G1 X124.672 Y108.275 E0.00240
;TYPE:External perimeter
;WIDTH:0.45
;HEIGHT:0.15
G1 F1091
G1 X122.729 Y108.275 E0.05063
;TYPE:Overhang perimeter
;WIDTH:0.357771
;HEIGHT:0.357771
G1 F1500.000
G1 X122.663 Y108.275 E0.00279
G1 X122.663 Y101.724 E0.27376
G1 X122.729 Y101.724 E0.00279
;TYPE:External perimeter
;WIDTH:0.45
;HEIGHT:0.15
G1 F1091
G1 X124.672 Y101.724 E0.05063
;TYPE:Overhang perimeter
;WIDTH:0.357771
;HEIGHT:0.357771
G1 F1500.000
G1 X124.730 Y101.724 E0.00240
G1 X124.730 Y104.022 E0.09605
G1 X124.672 Y104.022 E0.00240
;TYPE:External perimeter
;WIDTH:0.45
;HEIGHT:0.15
G1 F1091
G1 X124.015 Y104.022 E0.01712
M204 S1000
G1 X123.206 Y103.439 F10800.000
;TYPE:Solid infill
;WIDTH:0.533561
G1 F1091
G1 X123.999 Y102.646 E0.03507
G1 X123.999 Y102.456 E0.00594
G1 X123.480 Y102.456 E0.01623
G1 X123.206 Y102.729 E0.01211
;WIPE_START
G1 F8640.000
G1 X123.480 Y102.456 E-0.08942
G1 X123.999 Y102.456 E-0.11988
G1 X123.999 Y102.646 E-0.04384
G1 X123.206 Y103.439 E-0.25896
;WIPE_END
G1 E-0.28791 F2100.000
G1 Z0.750 F10800.000
G1 X123.206 Y106.981
G1 Z0.350
G1 E0.80000 F2100.000
G1 F1091
G1 X123.479 Y106.709 E0.01206
G1 X123.999 Y106.709 E0.01626
G1 X123.999 Y106.898 E0.00591
G1 X123.206 Y107.691 E0.03507
; stop printing object FED3_Sept2020_nose.stl id:0 copy 0
;LAYER_CHANGE
;Z:0.45
;HEIGHT:0.1
;BEFORE_LAYER_CHANGE
G92 E0.0
;0.45


;WIPE_START
G1 F8640.000
G1 X123.999 Y106.898 E-0.25896
G1 X123.999 Y106.709 E-0.04361
G1 X123.479 Y106.709 E-0.12011
G1 X123.206 Y106.981 E-0.08909
;WIPE_END
G1 E-0.28823 F2100.000
G1 Z0.750 F10800.000
;AFTER_LAYER_CHANGE
;0.45
; printing object FED3_Sept2020_nose.stl id:0 copy 0
M73 P9 R14
M73 Q9 S14
G1 X121.119 Y107.318
G1 Z0.450
G1 E0.80000 F2100.000
;TYPE:Support material
;WIDTH:0.35
;HEIGHT:0.25
G1 F1795
G1 X121.431 Y107.318 E0.00960
G1 X121.431 Y105.000 E0.07139
G1 X119.718 Y105.000 E0.05274
G1 X119.718 Y103.000 E0.06160
G1 X121.262 Y103.000 E0.04755
G1 X121.262 Y102.682 E0.00979
G1 X121.574 Y102.682 E0.00960
;WIPE_START
G1 F8640.000
G1 X121.262 Y102.682 E-0.07193
G1 X121.262 Y103.000 E-0.07338
G1 X119.718 Y103.000 E-0.35645
G1 X119.718 Y104.118 E-0.25824
;WIPE_END
G1 E-0.04000 F2100.000
G1 Z0.850 F10800.000
G1 X124.083 Y101.146
G1 Z0.450
G1 E0.80000 F2100.000
;TYPE:Support material interface
G1 F1795
G1 X124.083 Y93.411 E0.23826
G1 X123.565 Y93.411 E0.01595
G1 X123.565 Y101.003 E0.23385
G1 X123.047 Y101.003 E0.01595
G1 X123.047 Y93.411 E0.23385
G1 X122.529 Y93.411 E0.01595
G1 X122.529 Y101.003 E0.23385
G1 X122.012 Y101.003 E0.01595
G1 X122.012 Y93.411 E0.23385
G1 X121.494 Y93.411 E0.01595
G1 X121.494 Y101.003 E0.23385
G1 X121.235 Y101.003 E0.00797
G1 X120.976 Y101.262 E0.01129
G1 X120.976 Y93.411 E0.24184
G1 X120.458 Y93.411 E0.01595
G1 X120.458 Y102.682 E0.28557
G1 X119.940 Y102.682 E0.01595
G1 X119.940 Y93.268 E0.28998
;WIPE_START
G1 F8640.000
G1 X119.940 Y96.559 E-0.76000
;WIPE_END
G1 E-0.04000 F2100.000
G1 Z0.850 F10800.000
G1 X128.815 Y114.271
G1 Z0.450
G1 E0.80000 F2100.000
;TYPE:Support material
G1 F1795
G1 X124.672 Y114.271 E0.12761
G1 X124.672 Y116.589 E0.07139
G1 X128.815 Y116.589 E0.12761
;WIPE_START
G1 F8640.000
G1 X125.524 Y116.589 E-0.76000
;WIPE_END
G1 E-0.04000 F2100.000
G1 Z0.850 F10800.000
G1 X133.403 Y116.732
G1 Z0.450
G1 E0.80000 F2100.000
;TYPE:Support material interface
G1 F1795
G1 X133.403 Y93.411 E0.71834
G1 X132.886 Y93.411 E0.01595
G1 X132.886 Y116.589 E0.71393
G1 X132.368 Y116.589 E0.01595
G1 X132.368 Y93.411 E0.71393
G1 X131.850 Y93.411 E0.01595
G1 X131.850 Y116.589 E0.71393
G1 X131.332 Y116.589 E0.01595
G1 X131.332 Y93.411 E0.71393
M73 P10 R14
M73 Q10 S14
G1 X130.814 Y93.411 E0.01595
G1 X130.814 Y116.589 E0.71393
G1 X130.297 Y116.589 E0.01595
G1 X130.297 Y93.411 E0.71393
G1 X129.779 Y93.411 E0.01595
G1 X129.779 Y116.589 E0.71393
G1 X129.261 Y116.589 E0.01595
G1 X129.261 Y93.268 E0.71834
G1 X128.815 Y93.411 F10800.000
;TYPE:Support material
G1 F1795
G1 X124.672 Y93.411 E0.12761
G1 X124.672 Y95.729 E0.07139
G1 X128.815 Y95.729 E0.12761
;WIPE_START
G1 F8640.000
G1 X125.524 Y95.729 E-0.76000
;WIPE_END
G1 E-0.04000 F2100.000
G1 Z0.850 F10800.000
G1 X128.815 Y100.364
G1 Z0.450
G1 E0.80000 F2100.000
G1 F1795
G1 X124.672 Y100.364 E0.12761
G1 X124.672 Y101.003 E0.01967
G1 X125.671 Y101.003 E0.03078
G1 X125.962 Y101.294 E0.01267
G1 X125.962 Y102.682 E0.04276
G1 X128.672 Y102.682 E0.08347
G1 X128.672 Y105.000 E0.07139
G1 X124.783 Y105.000 E0.11978
G1 X124.783 Y105.256 E0.00789
G1 X125.671 Y105.256 E0.02735
G1 X125.962 Y105.547 E0.01267
G1 X125.962 Y107.318 E0.05455
G1 X128.672 Y107.318 E0.08347
G1 X128.672 Y109.636 E0.07139
G1 X124.529 Y109.636 E0.12761
;WIPE_START
G1 F8640.000
G1 X127.820 Y109.636 E-0.76000
;WIPE_END
G1 E-0.04000 F2100.000
G1 Z0.850 F10800.000
G1 X119.940 Y107.175
G1 Z0.450
G1 E0.80000 F2100.000
;TYPE:Support material interface
G1 F1795
G1 X119.940 Y116.589 E0.28998
M73 P10 R13
G1 X120.458 Y116.589 E0.01595
G1 X120.458 Y107.318 E0.28557
G1 X120.944 Y107.318 E0.01497
G1 X120.944 Y108.705 E0.04273
G1 X120.976 Y108.737 E0.00138
G1 X120.976 Y116.589 E0.24187
G1 X121.494 Y116.589 E0.01595
G1 X121.494 Y108.996 E0.23388
G1 X122.012 Y108.996 E0.01595
G1 X122.012 Y116.589 E0.23388
G1 X122.529 Y116.589 E0.01595
G1 X122.529 Y108.996 E0.23388
